aces_1.1_postwork/luts/ACESproxy_to_linear.spi1d
Version 1
From 0 1
Length 4096
Components 1
{
 4.8828125000e-04
 4.8828125000e-04
 4.8828125000e-04
 4.8828125000e-04
 4.8828125000e-04
 4.9509748351e-04
 4.9509748351e-04
 4.9509748351e-04
 4.9509748351e-04
 5.0200882833e-04
 5.0200882833e-04
 5.0200882833e-04
 5.0200882833e-04
 5.0901668146e-04
 5.0901668146e-04
 5.0901668146e-04
 5.0901668146e-04
 5.1612209063e-04
 5.1612209063e-04
 5.1612209063e-04
 5.1612209063e-04
 5.2332715131e-04
 5.2332715131e-04
 5.2332715131e-04
 5.2332715131e-04
 5.3063221276e-04
 5.3063221276e-04
 5.3063221276e-04
 5.3063221276e-04
 5.3803971969e-04
 5.3803971969e-04
 5.3803971969e-04
 5.3803971969e-04
 5.4555025417e-04
 5.4555025417e-04
 5.4555025417e-04
 5.4555025417e-04
 5.5316608632e-04
 5.5316608632e-04
 5.5316608632e-04
 5.5316608632e-04
 5.6088779820e-04
 5.6088779820e-04
 5.6088779820e-04
 5.6088779820e-04
 5.6871771812e-04
 5.6871771812e-04
 5.6871771812e-04
 5.6871771812e-04
 5.7665648637e-04
 5.7665648637e-04
 5.7665648637e-04
 5.7665648637e-04
 5.8470643125e-04
 5.8470643125e-04
 5.8470643125e-04
 5.8470643125e-04
 5.9286848409e-04
 5.9286848409e-04
 5.9286848409e-04
 5.9286848409e-04
 6.0114479857e-04
 6.0114479857e-04
 6.0114479857e-04
 6.0114479857e-04
 6.0953618959e-04
 6.0953618959e-04
 6.0953618959e-04
 6.0953618959e-04
 6.1804521829e-04
 6.1804521829e-04
 6.1804521829e-04
 6.1804521829e-04
 6.2667275779e-04
 6.2667275779e-04
 6.2667275779e-04
 6.2667275779e-04
 6.3542090356e-04
 6.3542090356e-04
 6.3542090356e-04
 6.3542090356e-04
 6.4429081976e-04
 6.4429081976e-04
 6.4429081976e-04
 6.4429081976e-04
 6.5328495111e-04
 6.5328495111e-04
 6.5328495111e-04
 6.5328495111e-04
 6.6240422893e-04
 6.6240422893e-04
 6.6240422893e-04
 6.6240422893e-04
 6.7165144719e-04
 6.7165144719e-04
 6.7165144719e-04
 6.7165144719e-04
 6.8102707155e-04
 6.8102707155e-04
 6.8102707155e-04
 6.8102707155e-04
 6.9053389598e-04
 6.9053389598e-04
 6.9053389598e-04
 6.9053389598e-04
 7.0017366670e-04
 7.0017366670e-04
 7.0017366670e-04
 7.0017366670e-04
 7.0994748967e-04
 7.0994748967e-04
 7.0994748967e-04
 7.0994748967e-04
 7.1985780960e-04
 7.1985780960e-04
 7.1985780960e-04
 7.1985780960e-04
 7.2990689659e-04
 7.2990689659e-04
 7.2990689659e-04
 7.2990689659e-04
 7.4009620585e-04
 7.4009620585e-04
 7.4009620585e-04
 7.4009620585e-04
 7.5042719254e-04
 7.5042719254e-04
 7.5042719254e-04
 7.5042719254e-04
 7.6090253424e-04
 7.6090253424e-04
 7.6090253424e-04
 7.6090253424e-04
 7.7152461745e-04
 7.7152461745e-04
 7.7152461745e-04
 7.7152461745e-04
 7.8229489736e-04
 7.8229489736e-04
 7.8229489736e-04
 7.8229489736e-04
 7.9321506200e-04
 7.9321506200e-04
 7.9321506200e-04
 7.9321506200e-04
 8.0428761430e-04
 8.0428761430e-04
 8.0428761430e-04
 8.0428761430e-04
 8.1551529001e-04
 8.1551529001e-04
 8.1551529001e-04
 8.1551529001e-04
 8.2689989358e-04
 8.2689989358e-04
 8.2689989358e-04
 8.2689989358e-04
 8.3844322944e-04
 8.3844322944e-04
 8.3844322944e-04
 8.3844322944e-04
 8.5014716024e-04
 8.5014716024e-04
 8.5014716024e-04
 8.5014716024e-04
 8.6201465456e-04
 8.6201465456e-04
 8.6201465456e-04
 8.6201465456e-04
 8.7404798251e-04
 8.7404798251e-04
 8.7404798251e-04
 8.7404798251e-04
 8.8624947239e-04
 8.8624947239e-04
 8.8624947239e-04
 8.8624947239e-04
 8.9862092864e-04
 8.9862092864e-04
 8.9862092864e-04
 8.9862092864e-04
 9.1116491240e-04
 9.1116491240e-04
 9.1116491240e-04
 9.1116491240e-04
 9.2388456687e-04
 9.2388456687e-04
 9.2388456687e-04
 9.2388456687e-04
 9.3678175472e-04
 9.3678175472e-04
 9.3678175472e-04
 9.3678175472e-04
 9.4985845499e-04
 9.4985845499e-04
 9.4985845499e-04
 9.4985845499e-04
 9.6311757807e-04
 9.6311757807e-04
 9.6311757807e-04
 9.6311757807e-04
 9.7656250000e-04
 9.7656250000e-04
 9.7656250000e-04
 9.7656250000e-04
 9.9019496702e-04
 9.9019496702e-04
 9.9019496702e-04
 9.9019496702e-04
 1.0040176567e-03
 1.0040176567e-03
 1.0040176567e-03
 1.0040176567e-03
 1.0180326644e-03
 1.0180326644e-03
 1.0180326644e-03
 1.0180326644e-03
 1.0322441813e-03
 1.0322441813e-03
 1.0322441813e-03
 1.0322441813e-03
 1.0466543026e-03
 1.0466543026e-03
 1.0466543026e-03
 1.0466543026e-03
 1.0612644255e-03
 1.0612644255e-03
 1.0612644255e-03
 1.0612644255e-03
 1.0760786245e-03
 1.0760786245e-03
 1.0760786245e-03
 1.0760786245e-03
 1.0911005083e-03
 1.0911005083e-03
 1.0911005083e-03
 1.0911005083e-03
 1.1063321726e-03
 1.1063321726e-03
 1.1063321726e-03
 1.1063321726e-03
 1.1217755964e-03
 1.1217755964e-03
 1.1217755964e-03
 1.1217755964e-03
 1.1374346213e-03
 1.1374346213e-03
 1.1374346213e-03
 1.1374346213e-03
 1.1533129727e-03
 1.1533129727e-03
 1.1533129727e-03
 1.1533129727e-03
 1.1694128625e-03
 1.1694128625e-03
 1.1694128625e-03
 1.1694128625e-03
 1.1857377831e-03
 1.1857377831e-03
 1.1857377831e-03
 1.1857377831e-03
 1.2022895971e-03
 1.2022895971e-03
 1.2022895971e-03
 1.2022895971e-03
 1.2190723792e-03
 1.2190723792e-03
 1.2190723792e-03
 1.2190723792e-03
 1.2360904366e-03
 1.2360904366e-03
 1.2360904366e-03
 1.2360904366e-03
 1.2533462141e-03
 1.2533462141e-03
 1.2533462141e-03
 1.2533462141e-03
 1.2708418071e-03
 1.2708418071e-03
 1.2708418071e-03
 1.2708418071e-03
 1.2885816395e-03
 1.2885816395e-03
 1.2885816395e-03
 1.2885816395e-03
 1.3065699022e-03
 1.3065699022e-03
 1.3065699022e-03
 1.3065699022e-03
 1.3248093892e-03
 1.3248093892e-03
 1.3248093892e-03
 1.3248093892e-03
 1.3433028944e-03
 1.3433028944e-03
 1.3433028944e-03
 1.3433028944e-03
 1.3620541431e-03
 1.3620541431e-03
 1.3620541431e-03
 1.3620541431e-03
 1.3810677920e-03
 1.3810677920e-03
 1.3810677920e-03
 1.3810677920e-03
 1.4003473334e-03
 1.4003473334e-03
 1.4003473334e-03
 1.4003473334e-03
 1.4198949793e-03
 1.4198949793e-03
 1.4198949793e-03
 1.4198949793e-03
 1.4397156192e-03
 1.4397156192e-03
 1.4397156192e-03
 1.4397156192e-03
 1.4598137932e-03
 1.4598137932e-03
 1.4598137932e-03
 1.4598137932e-03
 1.4801924117e-03
 1.4801924117e-03
 1.4801924117e-03
 1.4801924117e-03
 1.5008543851e-03
 1.5008543851e-03
 1.5008543851e-03
 1.5008543851e-03
 1.5218050685e-03
 1.5218050685e-03
 1.5218050685e-03
 1.5218050685e-03
 1.5430492349e-03
 1.5430492349e-03
 1.5430492349e-03
 1.5430492349e-03
 1.5645897947e-03
 1.5645897947e-03
 1.5645897947e-03
 1.5645897947e-03
 1.5864301240e-03
 1.5864301240e-03
 1.5864301240e-03
 1.5864301240e-03
 1.6085752286e-03
 1.6085752286e-03
 1.6085752286e-03
 1.6085752286e-03
 1.6310305800e-03
 1.6310305800e-03
 1.6310305800e-03
 1.6310305800e-03
 1.6537997872e-03
 1.6537997872e-03
 1.6537997872e-03
 1.6537997872e-03
 1.6768864589e-03
 1.6768864589e-03
 1.6768864589e-03
 1.6768864589e-03
 1.7002943205e-03
 1.7002943205e-03
 1.7002943205e-03
 1.7002943205e-03
 1.7240293091e-03
 1.7240293091e-03
 1.7240293091e-03
 1.7240293091e-03
 1.7480959650e-03
 1.7480959650e-03
 1.7480959650e-03
 1.7480959650e-03
 1.7724989448e-03
 1.7724989448e-03
 1.7724989448e-03
 1.7724989448e-03
 1.7972418573e-03
 1.7972418573e-03
 1.7972418573e-03
 1.7972418573e-03
 1.8223298248e-03
 1.8223298248e-03
 1.8223298248e-03
 1.8223298248e-03
 1.8477691337e-03
 1.8477691337e-03
 1.8477691337e-03
 1.8477691337e-03
 1.8735635094e-03
 1.8735635094e-03
 1.8735635094e-03
 1.8735635094e-03
 1.8997169100e-03
 1.8997169100e-03
 1.8997169100e-03
 1.8997169100e-03
 1.9262351561e-03
 1.9262351561e-03
 1.9262351561e-03
 1.9262351561e-03
 1.9531250000e-03
 1.9531250000e-03
 1.9531250000e-03
 1.9531250000e-03
 1.9803899340e-03
 1.9803899340e-03
 1.9803899340e-03
 1.9803899340e-03
 2.0080353133e-03
 2.0080353133e-03
 2.0080353133e-03
 2.0080353133e-03
 2.0360653289e-03
 2.0360653289e-03
 2.0360653289e-03
 2.0360653289e-03
 2.0644883625e-03
 2.0644883625e-03
 2.0644883625e-03
 2.0644883625e-03
 2.0933086053e-03
 2.0933086053e-03
 2.0933086053e-03
 2.0933086053e-03
 2.1225288510e-03
 2.1225288510e-03
 2.1225288510e-03
 2.1225288510e-03
 2.1521572489e-03
 2.1521572489e-03
 2.1521572489e-03
 2.1521572489e-03
 2.1822010167e-03
 2.1822010167e-03
 2.1822010167e-03
 2.1822010167e-03
 2.2126643453e-03
 2.2126643453e-03
 2.2126643453e-03
 2.2126643453e-03
 2.2435511928e-03
 2.2435511928e-03
 2.2435511928e-03
 2.2435511928e-03
 2.2748692427e-03
 2.2748692427e-03
 2.2748692427e-03
 2.2748692427e-03
 2.3066259455e-03
 2.3066259455e-03
 2.3066259455e-03
 2.3066259455e-03
 2.3388257250e-03
 2.3388257250e-03
 2.3388257250e-03
 2.3388257250e-03
 2.3714755662e-03
 2.3714755662e-03
 2.3714755662e-03
 2.3714755662e-03
 2.4045791943e-03
 2.4045791943e-03
 2.4045791943e-03
 2.4045791943e-03
 2.4381447583e-03
 2.4381447583e-03
 2.4381447583e-03
 2.4381447583e-03
 2.4721808732e-03
 2.4721808732e-03
 2.4721808732e-03
 2.4721808732e-03
 2.5066924281e-03
 2.5066924281e-03
 2.5066924281e-03
 2.5066924281e-03
 2.5416836143e-03
 2.5416836143e-03
 2.5416836143e-03
 2.5416836143e-03
 2.5771632791e-03
 2.5771632791e-03
 2.5771632791e-03
 2.5771632791e-03
 2.6131398045e-03
 2.6131398045e-03
 2.6131398045e-03
 2.6131398045e-03
 2.6496187784e-03
 2.6496187784e-03
 2.6496187784e-03
 2.6496187784e-03
 2.6866057888e-03
 2.6866057888e-03
 2.6866057888e-03
 2.6866057888e-03
 2.7241082862e-03
 2.7241082862e-03
 2.7241082862e-03
 2.7241082862e-03
 2.7621355839e-03
 2.7621355839e-03
 2.7621355839e-03
 2.7621355839e-03
 2.8006946668e-03
 2.8006946668e-03
 2.8006946668e-03
 2.8006946668e-03
 2.8397899587e-03
 2.8397899587e-03
 2.8397899587e-03
 2.8397899587e-03
 2.8794312384e-03
 2.8794312384e-03
 2.8794312384e-03
 2.8794312384e-03
 2.9196275864e-03
 2.9196275864e-03
 2.9196275864e-03
 2.9196275864e-03
 2.9603848234e-03
 2.9603848234e-03
 2.9603848234e-03
 2.9603848234e-03
 3.0017087702e-03
 3.0017087702e-03
 3.0017087702e-03
 3.0017087702e-03
 3.0436101370e-03
 3.0436101370e-03
 3.0436101370e-03
 3.0436101370e-03
 3.0860984698e-03
 3.0860984698e-03
 3.0860984698e-03
 3.0860984698e-03
 3.1291795895e-03
 3.1291795895e-03
 3.1291795895e-03
 3.1291795895e-03
 3.1728602480e-03
 3.1728602480e-03
 3.1728602480e-03
 3.1728602480e-03
 3.2171504572e-03
 3.2171504572e-03
 3.2171504572e-03
 3.2171504572e-03
 3.2620611601e-03
 3.2620611601e-03
 3.2620611601e-03
 3.2620611601e-03
 3.3075995743e-03
 3.3075995743e-03
 3.3075995743e-03
 3.3075995743e-03
 3.3537729178e-03
 3.3537729178e-03
 3.3537729178e-03
 3.3537729178e-03
 3.4005886409e-03
 3.4005886409e-03
 3.4005886409e-03
 3.4005886409e-03
 3.4480586182e-03
 3.4480586182e-03
 3.4480586182e-03
 3.4480586182e-03
 3.4961919300e-03
 3.4961919300e-03
 3.4961919300e-03
 3.4961919300e-03
 3.5449978895e-03
 3.5449978895e-03
 3.5449978895e-03
 3.5449978895e-03
 3.5944837146e-03
 3.5944837146e-03
 3.5944837146e-03
 3.5944837146e-03
 3.6446596496e-03
 3.6446596496e-03
 3.6446596496e-03
 3.6446596496e-03
 3.6955382675e-03
 3.6955382675e-03
 3.6955382675e-03
 3.6955382675e-03
 3.7471270189e-03
 3.7471270189e-03
 3.7471270189e-03
 3.7471270189e-03
 3.7994338199e-03
 3.7994338199e-03
 3.7994338199e-03
 3.7994338199e-03
 3.8524703123e-03
 3.8524703123e-03
 3.8524703123e-03
 3.8524703123e-03
 3.9062500000e-03
 3.9062500000e-03
 3.9062500000e-03
 3.9062500000e-03
 3.9607794024e-03
 3.9607794024e-03
 3.9607794024e-03
 3.9607794024e-03
 4.0160706267e-03
 4.0160706267e-03
 4.0160706267e-03
 4.0160706267e-03
 4.0721315891e-03
 4.0721315891e-03
 4.0721315891e-03
 4.0721315891e-03
 4.1289767250e-03
 4.1289767250e-03
 4.1289767250e-03
 4.1289767250e-03
 4.1866144165e-03
 4.1866144165e-03
 4.1866144165e-03
 4.1866144165e-03
 4.2450577021e-03
 4.2450577021e-03
 4.2450577021e-03
 4.2450577021e-03
 4.3043163605e-03
 4.3043163605e-03
 4.3043163605e-03
 4.3043163605e-03
 4.3644020334e-03
 4.3644020334e-03
 4.3644020334e-03
 4.3644020334e-03
 4.4253268279e-03
 4.4253268279e-03
 4.4253268279e-03
 4.4253268279e-03
 4.4871023856e-03
 4.4871023856e-03
 4.4871023856e-03
 4.4871023856e-03
 4.5497394167e-03
 4.5497394167e-03
 4.5497394167e-03
 4.5497394167e-03
 4.6132518910e-03
 4.6132518910e-03
 4.6132518910e-03
 4.6132518910e-03
 4.6776514500e-03
 4.6776514500e-03
 4.6776514500e-03
 4.6776514500e-03
 4.7429488041e-03
 4.7429488041e-03
 4.7429488041e-03
 4.7429488041e-03
 4.8091583885e-03
 4.8091583885e-03
 4.8091583885e-03
 4.8091583885e-03
 4.8762913793e-03
 4.8762913793e-03
 4.8762913793e-03
 4.8762913793e-03
 4.9443617463e-03
 4.9443617463e-03
 4.9443617463e-03
 4.9443617463e-03
 5.0133825280e-03
 5.0133825280e-03
 5.0133825280e-03
 5.0133825280e-03
 5.0833672285e-03
 5.0833672285e-03
 5.0833672285e-03
 5.0833672285e-03
 5.1543288864e-03
 5.1543288864e-03
 5.1543288864e-03
 5.1543288864e-03
 5.2262796089e-03
 5.2262796089e-03
 5.2262796089e-03
 5.2262796089e-03
 5.2992361598e-03
 5.2992361598e-03
 5.2992361598e-03
 5.2992361598e-03
 5.3732115775e-03
 5.3732115775e-03
 5.3732115775e-03
 5.3732115775e-03
 5.4482170381e-03
 5.4482170381e-03
 5.4482170381e-03
 5.4482170381e-03
 5.5242711678e-03
 5.5242711678e-03
 5.5242711678e-03
 5.5242711678e-03
 5.6013879366e-03
 5.6013879366e-03
 5.6013879366e-03
 5.6013879366e-03
 5.6795799173e-03
 5.6795799173e-03
 5.6795799173e-03
 5.6795799173e-03
 5.7588638738e-03
 5.7588638738e-03
 5.7588638738e-03
 5.7588638738e-03
 5.8392551728e-03
 5.8392551728e-03
 5.8392551728e-03
 5.8392551728e-03
 5.9207668528e-03
 5.9207668528e-03
 5.9207668528e-03
 5.9207668528e-03
 6.0034175403e-03
 6.0034175403e-03
 6.0034175403e-03
 6.0034175403e-03
 6.0872221366e-03
 6.0872221366e-03
 6.0872221366e-03
 6.0872221366e-03
 6.1721969396e-03
 6.1721969396e-03
 6.1721969396e-03
 6.1721969396e-03
 6.2583573163e-03
 6.2583573163e-03
 6.2583573163e-03
 6.2583573163e-03
 6.3457204960e-03
 6.3457204960e-03
 6.3457204960e-03
 6.3457204960e-03
 6.4343041740e-03
 6.4343041740e-03
 6.4343041740e-03
 6.4343041740e-03
 6.5241223201e-03
 6.5241223201e-03
 6.5241223201e-03
 6.5241223201e-03
 6.6151991487e-03
 6.6151991487e-03
 6.6151991487e-03
 6.6151991487e-03
 6.7075435072e-03
 6.7075435072e-03
 6.7075435072e-03
 6.7075435072e-03
 6.8011772819e-03
 6.8011772819e-03
 6.8011772819e-03
 6.8011772819e-03
 6.8961186334e-03
 6.8961186334e-03
 6.8961186334e-03
 6.8961186334e-03
 6.9923838601e-03
 6.9923838601e-03
 6.9923838601e-03
 6.9923838601e-03
 7.0899939165e-03
 7.0899939165e-03
 7.0899939165e-03
 7.0899939165e-03
 7.1889674291e-03
 7.1889674291e-03
 7.1889674291e-03
 7.1889674291e-03
 7.2893206961e-03
 7.2893206961e-03
 7.2893206961e-03
 7.2893206961e-03
 7.3910765350e-03
 7.3910765350e-03
 7.3910765350e-03
 7.3910765350e-03
 7.4942512438e-03
 7.4942512438e-03
 7.4942512438e-03
 7.4942512438e-03
 7.5988676399e-03
 7.5988676399e-03
 7.5988676399e-03
 7.5988676399e-03
 7.7049434185e-03
 7.7049434185e-03
 7.7049434185e-03
 7.7049434185e-03
 7.8125000000e-03
 7.8125000000e-03
 7.8125000000e-03
 7.8125000000e-03
 7.9215588048e-03
 7.9215588048e-03
 7.9215588048e-03
 7.9215588048e-03
 8.0321412534e-03
 8.0321412534e-03
 8.0321412534e-03
 8.0321412534e-03
 8.1442631781e-03
 8.1442631781e-03
 8.1442631781e-03
 8.1442631781e-03
 8.2579534501e-03
 8.2579534501e-03
 8.2579534501e-03
 8.2579534501e-03
 8.3732288331e-03
 8.3732288331e-03
 8.3732288331e-03
 8.3732288331e-03
 8.4901154041e-03
 8.4901154041e-03
 8.4901154041e-03
 8.4901154041e-03
 8.6086327210e-03
 8.6086327210e-03
 8.6086327210e-03
 8.6086327210e-03
 8.7288040668e-03
 8.7288040668e-03
 8.7288040668e-03
 8.7288040668e-03
 8.8506536558e-03
 8.8506536558e-03
 8.8506536558e-03
 8.8506536558e-03
 8.9742047712e-03
 8.9742047712e-03
 8.9742047712e-03
 8.9742047712e-03
 9.0994788334e-03
 9.0994788334e-03
 9.0994788334e-03
 9.0994788334e-03
 9.2265037820e-03
 9.2265037820e-03
 9.2265037820e-03
 9.2265037820e-03
 9.3553029001e-03
 9.3553029001e-03
 9.3553029001e-03
 9.3553029001e-03
 9.4858976081e-03
 9.4858976081e-03
 9.4858976081e-03
 9.4858976081e-03
 9.6183167771e-03
 9.6183167771e-03
 9.6183167771e-03
 9.6183167771e-03
 9.7525827587e-03
 9.7525827587e-03
 9.7525827587e-03
 9.7525827587e-03
 9.8887234926e-03
 9.8887234926e-03
 9.8887234926e-03
 9.8887234926e-03
 1.0026765056e-02
 1.0026765056e-02
 1.0026765056e-02
 1.0026765056e-02
 1.0166734457e-02
 1.0166734457e-02
 1.0166734457e-02
 1.0166734457e-02
 1.0308657773e-02
 1.0308657773e-02
 1.0308657773e-02
 1.0308657773e-02
 1.0452559218e-02
 1.0452559218e-02
 1.0452559218e-02
 1.0452559218e-02
 1.0598472320e-02
 1.0598472320e-02
 1.0598472320e-02
 1.0598472320e-02
 1.0746423155e-02
 1.0746423155e-02
 1.0746423155e-02
 1.0746423155e-02
 1.0896434076e-02
 1.0896434076e-02
 1.0896434076e-02
 1.0896434076e-02
 1.1048542336e-02
 1.1048542336e-02
 1.1048542336e-02
 1.1048542336e-02
 1.1202775873e-02
 1.1202775873e-02
 1.1202775873e-02
 1.1202775873e-02
 1.1359159835e-02
 1.1359159835e-02
 1.1359159835e-02
 1.1359159835e-02
 1.1517727748e-02
 1.1517727748e-02
 1.1517727748e-02
 1.1517727748e-02
 1.1678510346e-02
 1.1678510346e-02
 1.1678510346e-02
 1.1678510346e-02
 1.1841533706e-02
 1.1841533706e-02
 1.1841533706e-02
 1.1841533706e-02
 1.2006835081e-02
 1.2006835081e-02
 1.2006835081e-02
 1.2006835081e-02
 1.2174451724e-02
 1.2174451724e-02
 1.2174451724e-02
 1.2174451724e-02
 1.2344393879e-02
 1.2344393879e-02
 1.2344393879e-02
 1.2344393879e-02
 1.2516718358e-02
 1.2516718358e-02
 1.2516718358e-02
 1.2516718358e-02
 1.2691440992e-02
 1.2691440992e-02
 1.2691440992e-02
 1.2691440992e-02
 1.2868613005e-02
 1.2868613005e-02
 1.2868613005e-02
 1.2868613005e-02
 1.3048244640e-02
 1.3048244640e-02
 1.3048244640e-02
 1.3048244640e-02
 1.3230398297e-02
 1.3230398297e-02
 1.3230398297e-02
 1.3230398297e-02
 1.3415084220e-02
 1.3415084220e-02
 1.3415084220e-02
 1.3415084220e-02
 1.3602354564e-02
 1.3602354564e-02
 1.3602354564e-02
 1.3602354564e-02
 1.3792234473e-02
 1.3792234473e-02
 1.3792234473e-02
 1.3792234473e-02
 1.3984767720e-02
 1.3984767720e-02
 1.3984767720e-02
 1.3984767720e-02
 1.4179984108e-02
 1.4179984108e-02
 1.4179984108e-02
 1.4179984108e-02
 1.4377934858e-02
 1.4377934858e-02
 1.4377934858e-02
 1.4377934858e-02
 1.4578641392e-02
 1.4578641392e-02
 1.4578641392e-02
 1.4578641392e-02
 1.4782153070e-02
 1.4782153070e-02
 1.4782153070e-02
 1.4782153070e-02
 1.4988502488e-02
 1.4988502488e-02
 1.4988502488e-02
 1.4988502488e-02
 1.5197735280e-02
 1.5197735280e-02
 1.5197735280e-02
 1.5197735280e-02
 1.5409886837e-02
 1.5409886837e-02
 1.5409886837e-02
 1.5409886837e-02
 1.5625000000e-02
 1.5625000000e-02
 1.5625000000e-02
 1.5625000000e-02
 1.5843117610e-02
 1.5843117610e-02
 1.5843117610e-02
 1.5843117610e-02
 1.6064282507e-02
 1.6064282507e-02
 1.6064282507e-02
 1.6064282507e-02
 1.6288526356e-02
 1.6288526356e-02
 1.6288526356e-02
 1.6288526356e-02
 1.6515906900e-02
 1.6515906900e-02
 1.6515906900e-02
 1.6515906900e-02
 1.6746457666e-02
 1.6746457666e-02
 1.6746457666e-02
 1.6746457666e-02
 1.6980230808e-02
 1.6980230808e-02
 1.6980230808e-02
 1.6980230808e-02
 1.7217271030e-02
 1.7217271030e-02
 1.7217271030e-02
 1.7217271030e-02
 1.7457608134e-02
 1.7457608134e-02
 1.7457608134e-02
 1.7457608134e-02
 1.7701314762e-02
 1.7701314762e-02
 1.7701314762e-02
 1.7701314762e-02
 1.7948409542e-02
 1.7948409542e-02
 1.7948409542e-02
 1.7948409542e-02
 1.8198966980e-02
 1.8198966980e-02
 1.8198966980e-02
 1.8198966980e-02
 1.8453007564e-02
 1.8453007564e-02
 1.8453007564e-02
 1.8453007564e-02
 1.8710605800e-02
 1.8710605800e-02
 1.8710605800e-02
 1.8710605800e-02
 1.8971791491e-02
 1.8971791491e-02
 1.8971791491e-02
 1.8971791491e-02
 1.9236633554e-02
 1.9236633554e-02
 1.9236633554e-02
 1.9236633554e-02
 1.9505158067e-02
 1.9505158067e-02
 1.9505158067e-02
 1.9505158067e-02
 1.9777446985e-02
 1.9777446985e-02
 1.9777446985e-02
 1.9777446985e-02
 2.0053528249e-02
 2.0053528249e-02
 2.0053528249e-02
 2.0053528249e-02
 2.0333468914e-02
 2.0333468914e-02
 2.0333468914e-02
 2.0333468914e-02
 2.0617315546e-02
 2.0617315546e-02
 2.0617315546e-02
 2.0617315546e-02
 2.0905118436e-02
 2.0905118436e-02
 2.0905118436e-02
 2.0905118436e-02
 2.1196944639e-02
 2.1196944639e-02
 2.1196944639e-02
 2.1196944639e-02
 2.1492846310e-02
 2.1492846310e-02
 2.1492846310e-02
 2.1492846310e-02
 2.1792868152e-02
 2.1792868152e-02
 2.1792868152e-02
 2.1792868152e-02
 2.2097084671e-02
 2.2097084671e-02
 2.2097084671e-02
 2.2097084671e-02
 2.2405551746e-02
 2.2405551746e-02
 2.2405551746e-02
 2.2405551746e-02
 2.2718319669e-02
 2.2718319669e-02
 2.2718319669e-02
 2.2718319669e-02
 2.3035455495e-02
 2.3035455495e-02
 2.3035455495e-02
 2.3035455495e-02
 2.3357020691e-02
 2.3357020691e-02
 2.3357020691e-02
 2.3357020691e-02
 2.3683067411e-02
 2.3683067411e-02
 2.3683067411e-02
 2.3683067411e-02
 2.4013670161e-02
 2.4013670161e-02
 2.4013670161e-02
 2.4013670161e-02
 2.4348903447e-02
 2.4348903447e-02
 2.4348903447e-02
 2.4348903447e-02
 2.4688787758e-02
 2.4688787758e-02
 2.4688787758e-02
 2.4688787758e-02
 2.5033436716e-02
 2.5033436716e-02
 2.5033436716e-02
 2.5033436716e-02
 2.5382881984e-02
 2.5382881984e-02
 2.5382881984e-02
 2.5382881984e-02
 2.5737226009e-02
 2.5737226009e-02
 2.5737226009e-02
 2.5737226009e-02
 2.6096489280e-02
 2.6096489280e-02
 2.6096489280e-02
 2.6096489280e-02
 2.6460796595e-02
 2.6460796595e-02
 2.6460796595e-02
 2.6460796595e-02
 2.6830168441e-02
 2.6830168441e-02
 2.6830168441e-02
 2.6830168441e-02
 2.7204709128e-02
 2.7204709128e-02
 2.7204709128e-02
 2.7204709128e-02
 2.7584468946e-02
 2.7584468946e-02
 2.7584468946e-02
 2.7584468946e-02
 2.7969535440e-02
 2.7969535440e-02
 2.7969535440e-02
 2.7969535440e-02
 2.8359968215e-02
 2.8359968215e-02
 2.8359968215e-02
 2.8359968215e-02
 2.8755869716e-02
 2.8755869716e-02
 2.8755869716e-02
 2.8755869716e-02
 2.9157282785e-02
 2.9157282785e-02
 2.9157282785e-02
 2.9157282785e-02
 2.9564306140e-02
 2.9564306140e-02
 2.9564306140e-02
 2.9564306140e-02
 2.9977004975e-02
 2.9977004975e-02
 2.9977004975e-02
 2.9977004975e-02
 3.0395470560e-02
 3.0395470560e-02
 3.0395470560e-02
 3.0395470560e-02
 3.0819773674e-02
 3.0819773674e-02
 3.0819773674e-02
 3.0819773674e-02
 3.1250000000e-02
 3.1250000000e-02
 3.1250000000e-02
 3.1250000000e-02
 3.1686235219e-02
 3.1686235219e-02
 3.1686235219e-02
 3.1686235219e-02
 3.2128565013e-02
 3.2128565013e-02
 3.2128565013e-02
 3.2128565013e-02
 3.2577052712e-02
 3.2577052712e-02
 3.2577052712e-02
 3.2577052712e-02
 3.3031813800e-02
 3.3031813800e-02
 3.3031813800e-02
 3.3031813800e-02
 3.3492915332e-02
 3.3492915332e-02
 3.3492915332e-02
 3.3492915332e-02
 3.3960461617e-02
 3.3960461617e-02
 3.3960461617e-02
 3.3960461617e-02
 3.4434542060e-02
 3.4434542060e-02
 3.4434542060e-02
 3.4434542060e-02
 3.4915216267e-02
 3.4915216267e-02
 3.4915216267e-02
 3.4915216267e-02
 3.5402629524e-02
 3.5402629524e-02
 3.5402629524e-02
 3.5402629524e-02
 3.5896819085e-02
 3.5896819085e-02
 3.5896819085e-02
 3.5896819085e-02
 3.6397933960e-02
 3.6397933960e-02
 3.6397933960e-02
 3.6397933960e-02
 3.6906015128e-02
 3.6906015128e-02
 3.6906015128e-02
 3.6906015128e-02
 3.7421211600e-02
 3.7421211600e-02
 3.7421211600e-02
 3.7421211600e-02
 3.7943582982e-02
 3.7943582982e-02
 3.7943582982e-02
 3.7943582982e-02
 3.8473267108e-02
 3.8473267108e-02
 3.8473267108e-02
 3.8473267108e-02
 3.9010316133e-02
 3.9010316133e-02
 3.9010316133e-02
 3.9010316133e-02
 3.9554893970e-02
 3.9554893970e-02
 3.9554893970e-02
 3.9554893970e-02
 4.0107056499e-02
 4.0107056499e-02
 4.0107056499e-02
 4.0107056499e-02
 4.0666937828e-02
 4.0666937828e-02
 4.0666937828e-02
 4.0666937828e-02
 4.1234631091e-02
 4.1234631091e-02
 4.1234631091e-02
 4.1234631091e-02
 4.1810236871e-02
 4.1810236871e-02
 4.1810236871e-02
 4.1810236871e-02
 4.2393889278e-02
 4.2393889278e-02
 4.2393889278e-02
 4.2393889278e-02
 4.2985692620e-02
 4.2985692620e-02
 4.2985692620e-02
 4.2985692620e-02
 4.3585736305e-02
 4.3585736305e-02
 4.3585736305e-02
 4.3585736305e-02
 4.4194169343e-02
 4.4194169343e-02
 4.4194169343e-02
 4.4194169343e-02
 4.4811103493e-02
 4.4811103493e-02
 4.4811103493e-02
 4.4811103493e-02
 4.5436639339e-02
 4.5436639339e-02
 4.5436639339e-02
 4.5436639339e-02
 4.6070910990e-02
 4.6070910990e-02
 4.6070910990e-02
 4.6070910990e-02
 4.6714041382e-02
 4.6714041382e-02
 4.6714041382e-02
 4.6714041382e-02
 4.7366134822e-02
 4.7366134822e-02
 4.7366134822e-02
 4.7366134822e-02
 4.8027340323e-02
 4.8027340323e-02
 4.8027340323e-02
 4.8027340323e-02
 4.8697777092e-02
