aces_1.1_postwork/luts/Dolby_PQ_10000_to_linear.spi1d
Version 1
From 0.0 1.0
Length 4096
Components 3
{
 0.0000000000e+00 0.0000000000e+00 0.0000000000e+00
 3.6848737182e-06 3.6848737182e-06 3.6848737182e-06
 1.2368383977e-05 1.2368383977e-05 1.2368383977e-05
 2.4757209758e-05 2.4757209758e-05 2.4757209758e-05
 4.0372764488e-05 4.0372764488e-05 4.0372764488e-05
 5.8947469370e-05 5.8947469370e-05 5.8947469370e-05
 8.0309793702e-05 8.0309793702e-05 8.0309793702e-05
 1.0434068827e-04 1.0434068827e-04 1.0434068827e-04
 1.3094981841e-04 1.3094981841e-04 1.3094981841e-04
 1.6007128579e-04 1.6007128579e-04 1.6007128579e-04
 1.9165250706e-04 1.9165250706e-04 1.9165250706e-04
 2.2565301333e-04 2.2565301333e-04 2.2565301333e-04
 2.6203831658e-04 2.6203831658e-04 2.6203831658e-04
 3.0078168493e-04 3.0078168493e-04 3.0078168493e-04
 3.4186022822e-04 3.4186022822e-04 3.4186022822e-04
 3.8525939453e-04 3.8525939453e-04 3.8525939453e-04
 4.3096250738e-04 4.3096250738e-04 4.3096250738e-04
 4.7896272736e-04 4.7896272736e-04 4.7896272736e-04
 5.2924745250e-04 5.2924745250e-04 5.2924745250e-04
 5.8180966880e-04 5.8180966880e-04 5.8180966880e-04
 6.3664553454e-04 6.3664553454e-04 6.3664553454e-04
 6.9375359453e-04 6.9375359453e-04 6.9375359453e-04
 7.5313023990e-04 7.5313023990e-04 7.5313023990e-04
 8.1477261847e-04 8.1477261847e-04 8.1477261847e-04
 8.7868561968e-04 8.7868561968e-04 8.7868561968e-04
 9.4485300360e-04 9.4485300360e-04 9.4485300360e-04
 1.0133013129e-03 1.0133013129e-03 1.0133013129e-03
 1.0840134928e-03 1.0840134928e-03 1.0840134928e-03
 1.1570143979e-03 1.1570143979e-03 1.1570143979e-03
 1.2322817929e-03 1.2322817929e-03 1.2322817929e-03
 1.3098494383e-03 1.3098494383e-03 1.3098494383e-03
 1.3896932360e-03 1.3896932360e-03 1.3896932360e-03
 1.4718294842e-03 1.4718294842e-03 1.4718294842e-03
 1.5562655171e-03 1.5562655171e-03 1.5562655171e-03
 1.6429993557e-03 1.6429993557e-03 1.6429993557e-03
 1.7320663901e-03 1.7320663901e-03 1.7320663901e-03
 1.8234372837e-03 1.8234372837e-03 1.8234372837e-03
 1.9171432359e-03 1.9171432359e-03 1.9171432359e-03
 2.0131613128e-03 2.0131613128e-03 2.0131613128e-03
 2.1115515847e-03 2.1115515847e-03 2.1115515847e-03
 2.2122648079e-03 2.2122648079e-03 2.2122648079e-03
 2.3153496441e-03 2.3153496441e-03 2.3153496441e-03
 2.4207951501e-03 2.4207951501e-03 2.4207951501e-03
 2.5286267046e-03 2.5286267046e-03 2.5286267046e-03
 2.6388335973e-03 2.6388335973e-03 2.6388335973e-03
 2.7513974346e-03 2.7513974346e-03 2.7513974346e-03
 2.8664041311e-03 2.8664041311e-03 2.8664041311e-03
 2.9838036280e-03 2.9838036280e-03 2.9838036280e-03
 3.1036157161e-03 3.1036157161e-03 3.1036157161e-03
 3.2259023283e-03 3.2259023283e-03 3.2259023283e-03
 3.3505582251e-03 3.3505582251e-03 3.3505582251e-03
 3.4777282272e-03 3.4777282272e-03 3.4777282272e-03
 3.6073394585e-03 3.6073394585e-03 3.6073394585e-03
 3.7393723615e-03 3.7393723615e-03 3.7393723615e-03
 3.8739442825e-03 3.8739442825e-03 3.8739442825e-03
 4.0109516121e-03 4.0109516121e-03 4.0109516121e-03
 4.1505270638e-03 4.1505270638e-03 4.1505270638e-03
 4.2925653979e-03 4.2925653979e-03 4.2925653979e-03
 4.4371187687e-03 4.4371187687e-03 4.4371187687e-03
 4.5842160471e-03 4.5842160471e-03 4.5842160471e-03
 4.7338465229e-03 4.7338465229e-03 4.7338465229e-03
 4.8860339448e-03 4.8860339448e-03 4.8860339448e-03
 5.0408109091e-03 5.0408109091e-03 5.0408109091e-03
 5.1981578581e-03 5.1981578581e-03 5.1981578581e-03
 5.3580752574e-03 5.3580752574e-03 5.3580752574e-03
 5.5206096731e-03 5.5206096731e-03 5.5206096731e-03
 5.6857336313e-03 5.6857336313e-03 5.6857336313e-03
 5.8535197750e-03 5.8535197750e-03 5.8535197750e-03
 6.0238596052e-03 6.0238596052e-03 6.0238596052e-03
 6.1969468370e-03 6.1969468370e-03 6.1969468370e-03
 6.3726329245e-03 6.3726329245e-03 6.3726329245e-03
 6.5509867854e-03 6.5509867854e-03 6.5509867854e-03
 6.7320200615e-03 6.7320200615e-03 6.7320200615e-03
 6.9157956168e-03 6.9157956168e-03 6.9157956168e-03
 7.1021774784e-03 7.1021774784e-03 7.1021774784e-03
 7.2913873009e-03 7.2913873009e-03 7.2913873009e-03
 7.4832104146e-03 7.4832104146e-03 7.4832104146e-03
 7.6778894290e-03 7.6778894290e-03 7.6778894290e-03
 7.8752869740e-03 7.8752869740e-03 7.8752869740e-03
 8.0753741786e-03 8.0753741786e-03 8.0753741786e-03
 8.2783019170e-03 8.2783019170e-03 8.2783019170e-03
 8.4840487689e-03 8.4840487689e-03 8.4840487689e-03
 8.6925914511e-03 8.6925914511e-03 8.6925914511e-03
 8.9038508013e-03 8.9038508013e-03 8.9038508013e-03
 9.1180661693e-03 9.1180661693e-03 9.1180661693e-03
 9.3349507079e-03 9.3349507079e-03 9.3349507079e-03
 9.5548303798e-03 9.5548303798e-03 9.5548303798e-03
 9.7775226459e-03 9.7775226459e-03 9.7775226459e-03
 1.0003157891e-02 1.0003157891e-02 1.0003157891e-02
 1.0231726803e-02 1.0231726803e-02 1.0231726803e-02
 1.0463027284e-02 1.0463027284e-02 1.0463027284e-02
 1.0697287507e-02 1.0697287507e-02 1.0697287507e-02
 1.0934623890e-02 1.0934623890e-02 1.0934623890e-02
 1.1174777523e-02 1.1174777523e-02 1.1174777523e-02
 1.1417923495e-02 1.1417923495e-02 1.1417923495e-02
 1.1664097197e-02 1.1664097197e-02 1.1664097197e-02
 1.1913082562e-02 1.1913082562e-02 1.1913082562e-02
 1.2165185995e-02 1.2165185995e-02 1.2165185995e-02
 1.2420194224e-02 1.2420194224e-02 1.2420194224e-02
 1.2678426690e-02 1.2678426690e-02 1.2678426690e-02
 1.2939522043e-02 1.2939522043e-02 1.2939522043e-02
 1.3203778304e-02 1.3203778304e-02 1.3203778304e-02
 1.3471193612e-02 1.3471193612e-02 1.3471193612e-02
 1.3741387986e-02 1.3741387986e-02 1.3741387986e-02
 1.4014828019e-02 1.4014828019e-02 1.4014828019e-02
 1.4291372150e-02 1.4291372150e-02 1.4291372150e-02
 1.4571098611e-02 1.4571098611e-02 1.4571098611e-02
 1.4853905886e-02 1.4853905886e-02 1.4853905886e-02
 1.5139875934e-02 1.5139875934e-02 1.5139875934e-02
 1.5428837389e-02 1.5428837389e-02 1.5428837389e-02
 1.5721129254e-02 1.5721129254e-02 1.5721129254e-02
 1.6016762704e-02 1.6016762704e-02 1.6016762704e-02
 1.6315281391e-02 1.6315281391e-02 1.6315281391e-02
 1.6617275774e-02 1.6617275774e-02 1.6617275774e-02
 1.6922330484e-02 1.6922330484e-02 1.6922330484e-02
 1.7230650410e-02 1.7230650410e-02 1.7230650410e-02
 1.7542209476e-02 1.7542209476e-02 1.7542209476e-02
 1.7857184634e-02 1.7857184634e-02 1.7857184634e-02
 1.8175343052e-02 1.8175343052e-02 1.8175343052e-02
 1.8496688455e-02 1.8496688455e-02 1.8496688455e-02
 1.8821654841e-02 1.8821654841e-02 1.8821654841e-02
 1.9149698317e-02 1.9149698317e-02 1.9149698317e-02
 1.9481189549e-02 1.9481189549e-02 1.9481189549e-02
 1.9815914333e-02 1.9815914333e-02 1.9815914333e-02
 2.0154220983e-02 2.0154220983e-02 2.0154220983e-02
 2.0495824516e-02 2.0495824516e-02 2.0495824516e-02
 2.0840700716e-02 2.0840700716e-02 2.0840700716e-02
 2.1189140156e-02 2.1189140156e-02 2.1189140156e-02
 2.1541045979e-02 2.1541045979e-02 2.1541045979e-02
 2.1896187216e-02 2.1896187216e-02 2.1896187216e-02
 2.2255094722e-02 2.2255094722e-02 2.2255094722e-02
 2.2617459297e-02 2.2617459297e-02 2.2617459297e-02
 2.2982969880e-02 2.2982969880e-02 2.2982969880e-02
 2.3352157325e-02 2.3352157325e-02 2.3352157325e-02
 2.3724865168e-02 2.3724865168e-02 2.3724865168e-02
 2.4101199582e-02 2.4101199582e-02 2.4101199582e-02
 2.4481233209e-02 2.4481233209e-02 2.4481233209e-02
 2.4864327163e-02 2.4864327163e-02 2.4864327163e-02
 2.5251362473e-02 2.5251362473e-02 2.5251362473e-02
 2.5641774759e-02 2.5641774759e-02 2.5641774759e-02
 2.6036094874e-02 2.6036094874e-02 2.6036094874e-02
 2.6433739811e-02 2.6433739811e-02 2.6433739811e-02
 2.6835355908e-02 2.6835355908e-02 2.6835355908e-02
 2.7240203694e-02 2.7240203694e-02 2.7240203694e-02
 2.7648985386e-02 2.7648985386e-02 2.7648985386e-02
 2.8061760589e-02 2.8061760589e-02 2.8061760589e-02
 2.8477689251e-02 2.8477689251e-02 2.8477689251e-02
 2.8897469863e-02 2.8897469863e-02 2.8897469863e-02
 2.9321189970e-02 2.9321189970e-02 2.9321189970e-02
 2.9748430476e-02 2.9748430476e-02 2.9748430476e-02
 3.0179949477e-02 3.0179949477e-02 3.0179949477e-02
 3.0614553019e-02 3.0614553019e-02 3.0614553019e-02
 3.1053399667e-02 3.1053399667e-02 3.1053399667e-02
 3.1495664269e-02 3.1495664269e-02 3.1495664269e-02
 3.1942222267e-02 3.1942222267e-02 3.1942222267e-02
 3.2392591238e-02 3.2392591238e-02 3.2392591238e-02
 3.2846383750e-02 3.2846383750e-02 3.2846383750e-02
 3.3304419369e-02 3.3304419369e-02 3.3304419369e-02
 3.3766187727e-02 3.3766187727e-02 3.3766187727e-02
 3.4231733531e-02 3.4231733531e-02 3.4231733531e-02
 3.4701507539e-02 3.4701507539e-02 3.4701507539e-02
 3.5175137222e-02 3.5175137222e-02 3.5175137222e-02
 3.5652931780e-02 3.5652931780e-02 3.5652931780e-02
 3.6134455353e-02 3.6134455353e-02 3.6134455353e-02
 3.6620102823e-02 3.6620102823e-02 3.6620102823e-02
 3.7109542638e-02 3.7109542638e-02 3.7109542638e-02
 3.7602595985e-02 3.7602595985e-02 3.7602595985e-02
 3.8100339472e-02 3.8100339472e-02 3.8100339472e-02
 3.8602288812e-02 3.8602288812e-02 3.8602288812e-02
 3.9107903838e-02 3.9107903838e-02 3.9107903838e-02
 3.9617676288e-02 3.9617676288e-02 3.9617676288e-02
 4.0131609887e-02 4.0131609887e-02 4.0131609887e-02
 4.0649510920e-02 4.0649510920e-02 4.0649510920e-02
 4.1171666235e-02 4.1171666235e-02 4.1171666235e-02
 4.1698038578e-02 4.1698038578e-02 4.1698038578e-02
 4.2228333652e-02 4.2228333652e-02 4.2228333652e-02
 4.2763400823e-02 4.2763400823e-02 4.2763400823e-02
 4.3302033097e-02 4.3302033097e-02 4.3302033097e-02
 4.3845273554e-02 4.3845273554e-02 4.3845273554e-02
 4.4392492622e-02 4.4392492622e-02 4.4392492622e-02
 4.4944576919e-02 4.4944576919e-02 4.4944576919e-02
 4.5499972999e-02 4.5499972999e-02 4.5499972999e-02
 4.6060059220e-02 4.6060059220e-02 4.6060059220e-02
 4.6624816954e-02 4.6624816954e-02 4.6624816954e-02
 4.7193616629e-02 4.7193616629e-02 4.7193616629e-02
 4.7766253352e-02 4.7766253352e-02 4.7766253352e-02
 4.8344463110e-02 4.8344463110e-02 4.8344463110e-02
 4.8926532269e-02 4.8926532269e-02 4.8926532269e-02
 4.9512527883e-02 4.9512527883e-02 4.9512527883e-02
 5.0103235990e-02 5.0103235990e-02 5.0103235990e-02
 5.0698563457e-02 5.0698563457e-02 5.0698563457e-02
 5.1297765225e-02 5.1297765225e-02 5.1297765225e-02
 5.1901653409e-02 5.1901653409e-02 5.1901653409e-02
 5.2510116249e-02 5.2510116249e-02 5.2510116249e-02
 5.3123254329e-02 5.3123254329e-02 5.3123254329e-02
 5.3741045296e-02 5.3741045296e-02 5.3741045296e-02
 5.4362621158e-02 5.4362621158e-02 5.4362621158e-02
 5.4989591241e-02 5.4989591241e-02 5.4989591241e-02
 5.5620446801e-02 5.5620446801e-02 5.5620446801e-02
 5.6255716830e-02 5.6255716830e-02 5.6255716830e-02
 5.6896571070e-02 5.6896571070e-02 5.6896571070e-02
 5.7541042566e-02 5.7541042566e-02 5.7541042566e-02
 5.8191087097e-02 5.8191087097e-02 5.8191087097e-02
 5.8845531195e-02 5.8845531195e-02 5.8845531195e-02
 5.9504672885e-02 5.9504672885e-02 5.9504672885e-02
 6.0168370605e-02 6.0168370605e-02 6.0168370605e-02
 6.0836590827e-02 6.0836590827e-02 6.0836590827e-02
 6.1509318650e-02 6.1509318650e-02 6.1509318650e-02
 6.2187388539e-02 6.2187388539e-02 6.2187388539e-02
 6.2870100141e-02 6.2870100141e-02 6.2870100141e-02
 6.3557274640e-02 6.3557274640e-02 6.3557274640e-02
 6.4249977469e-02 6.4249977469e-02 6.4249977469e-02
 6.4946040511e-02 6.4946040511e-02 6.4946040511e-02
 6.5648682415e-02 6.5648682415e-02 6.5648682415e-02
 6.6354803741e-02 6.6354803741e-02 6.6354803741e-02
 6.7067340016e-02 6.7067340016e-02 6.7067340016e-02
 6.7783340812e-02 6.7783340812e-02 6.7783340812e-02
 6.8504817784e-02 6.8504817784e-02 6.8504817784e-02
 6.9230593741e-02 6.9230593741e-02 6.9230593741e-02
 6.9962039590e-02 6.9962039590e-02 6.9962039590e-02
 7.0698752999e-02 7.0698752999e-02 7.0698752999e-02
 7.1439988911e-02 7.1439988911e-02 7.1439988911e-02
 7.2186678648e-02 7.2186678648e-02 7.2186678648e-02
 7.2937592864e-02 7.2937592864e-02 7.2937592864e-02
 7.3694139719e-02 7.3694139719e-02 7.3694139719e-02
 7.4454903603e-02 7.4454903603e-02 7.4454903603e-02
 7.5221337378e-02 7.5221337378e-02 7.5221337378e-02
 7.5993187726e-02 7.5993187726e-02 7.5993187726e-02
 7.6770223677e-02 7.6770223677e-02 7.6770223677e-02
 7.7551811934e-02 7.7551811934e-02 7.7551811934e-02
 7.8338831663e-02 7.8338831663e-02 7.8338831663e-02
 7.9131305218e-02 7.9131305218e-02 7.9131305218e-02
 7.9927988350e-02 7.9927988350e-02 7.9927988350e-02
 8.0731451511e-02 8.0731451511e-02 8.0731451511e-02
 8.1539139152e-02 8.1539139152e-02 8.1539139152e-02
 8.2352206111e-02 8.2352206111e-02 8.2352206111e-02
 8.3170682192e-02 8.3170682192e-02 8.3170682192e-02
 8.3994701505e-02 8.3994701505e-02 8.3994701505e-02
 8.4822893143e-02 8.4822893143e-02 8.4822893143e-02
 8.5657864809e-02 8.5657864809e-02 8.5657864809e-02
 8.6498260498e-02 8.6498260498e-02 8.6498260498e-02
 8.7342694402e-02 8.7342694402e-02 8.7342694402e-02
 8.8192671537e-02 8.8192671537e-02 8.8192671537e-02
 8.9049488306e-02 8.9049488306e-02 8.9049488306e-02
 8.9910298586e-02 8.9910298586e-02 8.9910298586e-02
 9.0778037906e-02 9.0778037906e-02 9.0778037906e-02
 9.1649644077e-02 9.1649644077e-02 9.1649644077e-02
 9.2526860535e-02 9.2526860535e-02 9.2526860535e-02
 9.3410886824e-02 9.3410886824e-02 9.3410886824e-02
 9.4298794866e-02 9.4298794866e-02 9.4298794866e-02
 9.5195285976e-02 9.5195285976e-02 9.5195285976e-02
 9.6093945205e-02 9.6093945205e-02 9.6093945205e-02
 9.6999801695e-02 9.6999801695e-02 9.6999801695e-02
 9.7911089659e-02 9.7911089659e-02 9.7911089659e-02
 9.8827593029e-02 9.8827593029e-02 9.8827593029e-02
 9.9751010537e-02 9.9751010537e-02 9.9751010537e-02
 1.0067836940e-01 1.0067836940e-01 1.0067836940e-01
 1.0161273181e-01 1.0161273181e-01 1.0161273181e-01
 1.0255251080e-01 1.0255251080e-01 1.0255251080e-01
 1.0349766165e-01 1.0349766165e-01 1.0349766165e-01
 1.0444983095e-01 1.0444983095e-01 1.0444983095e-01
 1.0540556163e-01 1.0540556163e-01 1.0540556163e-01
 1.0636849701e-01 1.0636849701e-01 1.0636849701e-01
 1.0733681917e-01 1.0733681917e-01 1.0733681917e-01
 1.0831212252e-01 1.0831212252e-01 1.0831212252e-01
 1.0929112881e-01 1.0929112881e-01 1.0929112881e-01
 1.1027719826e-01 1.1027719826e-01 1.1027719826e-01
 1.1127015203e-01 1.1127015203e-01 1.1127015203e-01
 1.1226880550e-01 1.1226880550e-01 1.1226880550e-01
 1.1327283829e-01 1.1327283829e-01 1.1327283829e-01
 1.1428172141e-01 1.1428172141e-01 1.1428172141e-01
 1.1529801786e-01 1.1529801786e-01 1.1529801786e-01
 1.1632162333e-01 1.1632162333e-01 1.1632162333e-01
 1.1734846234e-01 1.1734846234e-01 1.1734846234e-01
 1.1838255823e-01 1.1838255823e-01 1.1838255823e-01
 1.1942192912e-01 1.1942192912e-01 1.1942192912e-01
 1.2046828121e-01 1.2046828121e-01 1.2046828121e-01
 1.2152204663e-01 1.2152204663e-01 1.2152204663e-01
 1.2257916480e-01 1.2257916480e-01 1.2257916480e-01
 1.2364332378e-01 1.2364332378e-01 1.2364332378e-01
 1.2471480668e-01 1.2471480668e-01 1.2471480668e-01
 1.2579379976e-01 1.2579379976e-01 1.2579379976e-01
 1.2687554955e-01 1.2687554955e-01 1.2687554955e-01
 1.2796474993e-01 1.2796474993e-01 1.2796474993e-01
 1.2906135619e-01 1.2906135619e-01 1.2906135619e-01
 1.3016301394e-01 1.3016301394e-01 1.3016301394e-01
 1.3127213717e-01 1.3127213717e-01 1.3127213717e-01
 1.3238836825e-01 1.3238836825e-01 1.3238836825e-01
 1.3350754976e-01 1.3350754976e-01 1.3350754976e-01
 1.3463658094e-01 1.3463658094e-01 1.3463658094e-01
 1.3577029109e-01 1.3577029109e-01 1.3577029109e-01
 1.3691185415e-01 1.3691185415e-01 1.3691185415e-01
 1.3805833459e-01 1.3805833459e-01 1.3805833459e-01
 1.3921193779e-01 1.3921193779e-01 1.3921193779e-01
 1.4037083089e-01 1.4037083089e-01 1.4037083089e-01
 1.4153712988e-01 1.4153712988e-01 1.4153712988e-01
 1.4271099865e-01 1.4271099865e-01 1.4271099865e-01
 1.4389194548e-01 1.4389194548e-01 1.4389194548e-01
 1.4507812262e-01 1.4507812262e-01 1.4507812262e-01
 1.4626921713e-01 1.4626921713e-01 1.4626921713e-01
 1.4746770263e-01 1.4746770263e-01 1.4746770263e-01
 1.4867646992e-01 1.4867646992e-01 1.4867646992e-01
 1.4988721907e-01 1.4988721907e-01 1.4988721907e-01
 1.5110825002e-01 1.5110825002e-01 1.5110825002e-01
 1.5233410895e-01 1.5233410895e-01 1.5233410895e-01
 1.5356741846e-01 1.5356741846e-01 1.5356741846e-01
 1.5480580926e-01 1.5480580926e-01 1.5480580926e-01
 1.5605419874e-01 1.5605419874e-01 1.5605419874e-01
 1.5730769932e-01 1.5730769932e-01 1.5730769932e-01
 1.5856583416e-01 1.5856583416e-01 1.5856583416e-01
 1.5983434021e-01 1.5983434021e-01 1.5983434021e-01
 1.6111007333e-01 1.6111007333e-01 1.6111007333e-01
 1.6239082813e-01 1.6239082813e-01 1.6239082813e-01
 1.6367650032e-01 1.6367650032e-01 1.6367650032e-01
 1.6497232020e-01 1.6497232020e-01 1.6497232020e-01
 1.6627568007e-01 1.6627568007e-01 1.6627568007e-01
 1.6758397222e-01 1.6758397222e-01 1.6758397222e-01
 1.6889990866e-01 1.6889990866e-01 1.6889990866e-01
 1.7022334039e-01 1.7022334039e-01 1.7022334039e-01
 1.7155115306e-01 1.7155115306e-01 1.7155115306e-01
 1.7288978398e-01 1.7288978398e-01 1.7288978398e-01
 1.7423588037e-01 1.7423588037e-01 1.7423588037e-01
 1.7558692396e-01 1.7558692396e-01 1.7558692396e-01
 1.7694552243e-01 1.7694552243e-01 1.7694552243e-01
 1.7831161618e-01 1.7831161618e-01 1.7831161618e-01
 1.7968542874e-01 1.7968542874e-01 1.7968542874e-01
 1.8106667697e-01 1.8106667697e-01 1.8106667697e-01
 1.8245276809e-01 1.8245276809e-01 1.8245276809e-01
 1.8384629488e-01 1.8384629488e-01 1.8384629488e-01
 1.8525093794e-01 1.8525093794e-01 1.8525093794e-01
 1.8665972352e-01 1.8665972352e-01 1.8665972352e-01
 1.8807952106e-01 1.8807952106e-01 1.8807952106e-01
 1.8950405717e-01 1.8950405717e-01 1.8950405717e-01
 1.9093251228e-01 1.9093251228e-01 1.9093251228e-01
 1.9237570465e-01 1.9237570465e-01 1.9237570465e-01
 1.9381986558e-01 1.9381986558e-01 1.9381986558e-01
 1.9527469575e-01 1.9527469575e-01 1.9527469575e-01
 1.9673763216e-01 1.9673763216e-01 1.9673763216e-01
 1.9820812345e-01 1.9820812345e-01 1.9820812345e-01
 1.9968314469e-01 1.9968314469e-01 1.9968314469e-01
 2.0116895437e-01 2.0116895437e-01 2.0116895437e-01
 2.0266287029e-01 2.0266287029e-01 2.0266287029e-01
 2.0416057110e-01 2.0416057110e-01 2.0416057110e-01
 2.0566970110e-01 2.0566970110e-01 2.0566970110e-01
 2.0718711615e-01 2.0718711615e-01 2.0718711615e-01
 2.0870806277e-01 2.0870806277e-01 2.0870806277e-01
 2.1023730934e-01 2.1023730934e-01 2.1023730934e-01
 2.1177747846e-01 2.1177747846e-01 2.1177747846e-01
 2.1332579851e-01 2.1332579851e-01 2.1332579851e-01
 2.1487830579e-01 2.1487830579e-01 2.1487830579e-01
 2.1644183993e-01 2.1644183993e-01 2.1644183993e-01
 2.1800953150e-01 2.1800953150e-01 2.1800953150e-01
 2.1958880126e-01 2.1958880126e-01 2.1958880126e-01
 2.2117583454e-01 2.2117583454e-01 2.2117583454e-01
 2.2277101874e-01 2.2277101874e-01 2.2277101874e-01
 2.2437380254e-01 2.2437380254e-01 2.2437380254e-01
 2.2598044574e-01 2.2598044574e-01 2.2598044574e-01
 2.2760269046e-01 2.2760269046e-01 2.2760269046e-01
 2.2922886908e-01 2.2922886908e-01 2.2922886908e-01
 2.3085886240e-01 2.3085886240e-01 2.3085886240e-01
 2.3250453174e-01 2.3250453174e-01 2.3250453174e-01
 2.3415470123e-01 2.3415470123e-01 2.3415470123e-01
 2.3581178486e-01 2.3581178486e-01 2.3581178486e-01
 2.3748165369e-01 2.3748165369e-01 2.3748165369e-01
 2.3915447295e-01 2.3915447295e-01 2.3915447295e-01
 2.4083942175e-01 2.4083942175e-01 2.4083942175e-01
 2.4253258109e-01 2.4253258109e-01 2.4253258109e-01
 2.4422931671e-01 2.4422931671e-01 2.4422931671e-01
 2.4594236910e-01 2.4594236910e-01 2.4594236910e-01
 2.4765899777e-01 2.4765899777e-01 2.4765899777e-01
 2.4937899411e-01 2.4937899411e-01 2.4937899411e-01
 2.5111535192e-01 2.5111535192e-01 2.5111535192e-01
 2.5285586715e-01 2.5285586715e-01 2.5285586715e-01
 2.5460806489e-01 2.5460806489e-01 2.5460806489e-01
 2.5636866689e-01 2.5636866689e-01 2.5636866689e-01
 2.5813660026e-01 2.5813660026e-01 2.5813660026e-01
 2.5991296768e-01 2.5991296768e-01 2.5991296768e-01
 2.6169669628e-01 2.6169669628e-01 2.6169669628e-01
 2.6348859072e-01 2.6348859072e-01 2.6348859072e-01
 2.6529318094e-01 2.6529318094e-01 2.6529318094e-01
 2.6710534096e-01 2.6710534096e-01 2.6710534096e-01
 2.6892051101e-01 2.6892051101e-01 2.6892051101e-01
 2.7074831724e-01 2.7074831724e-01 2.7074831724e-01
 2.7258887887e-01 2.7258887887e-01 2.7258887887e-01
 2.7443325520e-01 2.7443325520e-01 2.7443325520e-01
 2.7628961205e-01 2.7628961205e-01 2.7628961205e-01
 2.7815416455e-01 2.7815416455e-01 2.7815416455e-01
 2.8002622724e-01 2.8002622724e-01 2.8002622724e-01
 2.8190651536e-01 2.8190651536e-01 2.8190651536e-01
 2.8379428387e-01 2.8379428387e-01 2.8379428387e-01
 2.8569561243e-01 2.8569561243e-01 2.8569561243e-01
 2.8760454059e-01 2.8760454059e-01 2.8760454059e-01
 2.8952088952e-01 2.8952088952e-01 2.8952088952e-01
 2.9144552350e-01 2.9144552350e-01 2.9144552350e-01
 2.9338321090e-01 2.9338321090e-01 2.9338321090e-01
 2.9532909393e-01 2.9532909393e-01 2.9532909393e-01
 2.9728230834e-01 2.9728230834e-01 2.9728230834e-01
 2.9924386740e-01 2.9924386740e-01 2.9924386740e-01
 3.0121862888e-01 3.0121862888e-01 3.0121862888e-01
 3.0319574475e-01 3.0319574475e-01 3.0319574475e-01
 3.0519199371e-01 3.0519199371e-01 3.0519199371e-01
 3.0718451738e-01 3.0718451738e-01 3.0718451738e-01
 3.0919662118e-01 3.0919662118e-01 3.0919662118e-01
 3.1121581793e-01 3.1121581793e-01 3.1121581793e-01
 3.1324422359e-01 3.1324422359e-01 3.1324422359e-01
 3.1527900696e-01 3.1527900696e-01 3.1527900696e-01
 3.1732827425e-01 3.1732827425e-01 3.1732827425e-01
 3.1938484311e-01 3.1938484311e-01 3.1938484311e-01
 3.2144948840e-01 3.2144948840e-01 3.2144948840e-01
 3.2352235913e-01 3.2352235913e-01 3.2352235913e-01
 3.2560881972e-01 3.2560881972e-01 3.2560881972e-01
 3.2770276070e-01 3.2770276070e-01 3.2770276070e-01
 3.2981121540e-01 3.2981121540e-01 3.2981121540e-01
 3.3192127943e-01 3.3192127943e-01 3.3192127943e-01
 3.3404526114e-01 3.3404526114e-01 3.3404526114e-01
 3.3617627621e-01 3.3617627621e-01 3.3617627621e-01
 3.3832228184e-01 3.3832228184e-01 3.3832228184e-01
 3.4046962857e-01 3.4046962857e-01 3.4046962857e-01
 3.4263089299e-01 3.4263089299e-01 3.4263089299e-01
 3.4480616450e-01 3.4480616450e-01 3.4480616450e-01
 3.4698954225e-01 3.4698954225e-01 3.4698954225e-01
 3.4918102622e-01 3.4918102622e-01 3.4918102622e-01
 3.5137972236e-01 3.5137972236e-01 3.5137972236e-01
 3.5359245539e-01 3.5359245539e-01 3.5359245539e-01
 3.5581433773e-01 3.5581433773e-01 3.5581433773e-01
 3.5804945230e-01 3.5804945230e-01 3.5804945230e-01
 3.6029258370e-01 3.6029258370e-01 3.6029258370e-01
 3.6254391074e-01 3.6254391074e-01 3.6254391074e-01
 3.6480215192e-01 3.6480215192e-01 3.6480215192e-01
 3.6707589030e-01 3.6707589030e-01 3.6707589030e-01
 3.6935663223e-01 3.6935663223e-01 3.6935663223e-01
 3.7165278196e-01 3.7165278196e-01 3.7165278196e-01
 3.7395596504e-01 3.7395596504e-01 3.7395596504e-01
 3.7626719475e-01 3.7626719475e-01 3.7626719475e-01
 3.7858653069e-01 3.7858653069e-01 3.7858653069e-01
 3.8092017174e-01 3.8092017174e-01 3.8092017174e-01
 3.8326859474e-01 3.8326859474e-01 3.8326859474e-01
 3.8561826944e-01 3.8561826944e-01 3.8561826944e-01
 3.8798958063e-01 3.8798958063e-01 3.8798958063e-01
 3.9036080241e-01 3.9036080241e-01 3.9036080241e-01
 3.9274784923e-01 3.9274784923e-01 3.9274784923e-01
 3.9514291286e-01 3.9514291286e-01 3.9514291286e-01
 3.9755195379e-01 3.9755195379e-01 3.9755195379e-01
 3.9996972680e-01 3.9996972680e-01 3.9996972680e-01
 4.0239438415e-01 4.0239438415e-01 4.0239438415e-01
 4.0483522415e-01 4.0483522415e-01 4.0483522415e-01
 4.0728291869e-01 4.0728291869e-01 4.0728291869e-01
 4.0974533558e-01 4.0974533558e-01 4.0974533558e-01
 4.1221702099e-01 4.1221702099e-01 4.1221702099e-01
 4.1469538212e-01 4.1469538212e-01 4.1469538212e-01
 4.1718882322e-01 4.1718882322e-01 4.1718882322e-01
 4.1969132423e-01 4.1969132423e-01 4.1969132423e-01
 4.2220798135e-01 4.2220798135e-01 4.2220798135e-01
 4.2473241687e-01 4.2473241687e-01 4.2473241687e-01
 4.2727327347e-01 4.2727327347e-01 4.2727327347e-01
 4.2981314659e-01 4.2981314659e-01 4.2981314659e-01
 4.3236851692e-01 4.3236851692e-01 4.3236851692e-01
 4.3494808674e-01 4.3494808674e-01 4.3494808674e-01
 4.3752664328e-01 4.3752664328e-01 4.3752664328e-01
 4.4011273980e-01 4.4011273980e-01 4.4011273980e-01
