aces_1.1_postwork/luts/Dolby_PQ_1000_nits_Shaper_to_linear.spi1d
Version 1
From 0.0 1.0
Length 4096
Components 3
{
 4.3945314246e-05 4.3945314246e-05 4.3945314246e-05
 4.4013235311e-05 4.4013235311e-05 4.4013235311e-05
 4.4173288188e-05 4.4173288188e-05 4.4173288188e-05
 4.4401640480e-05 4.4401640480e-05 4.4401640480e-05
 4.4689466449e-05 4.4689466449e-05 4.4689466449e-05
 4.5031832997e-05 4.5031832997e-05 4.5031832997e-05
 4.5425582357e-05 4.5425582357e-05 4.5425582357e-05
 4.5868520829e-05 4.5868520829e-05 4.5868520829e-05
 4.6358982217e-05 4.6358982217e-05 4.6358982217e-05
 4.6895747801e-05 4.6895747801e-05 4.6895747801e-05
 4.7477853514e-05 4.7477853514e-05 4.7477853514e-05
 4.8104549933e-05 4.8104549933e-05 4.8104549933e-05
 4.8775204050e-05 4.8775204050e-05 4.8775204050e-05
 4.9489321100e-05 4.9489321100e-05 4.9489321100e-05
 5.0246482715e-05 5.0246482715e-05 5.0246482715e-05
 5.1046416047e-05 5.1046416047e-05 5.1046416047e-05
 5.1888811868e-05 5.1888811868e-05 5.1888811868e-05
 5.2773553762e-05 5.2773553762e-05 5.2773553762e-05
 5.3700401622e-05 5.3700401622e-05 5.3700401622e-05
 5.4669228120e-05 5.4669228120e-05 5.4669228120e-05
 5.5679964134e-05 5.5679964134e-05 5.5679964134e-05
 5.6732576923e-05 5.6732576923e-05 5.6732576923e-05
 5.7827008277e-05 5.7827008277e-05 5.7827008277e-05
 5.8963199990e-05 5.8963199990e-05 5.8963199990e-05
 6.0141246649e-05 6.0141246649e-05 6.0141246649e-05
 6.1360842665e-05 6.1360842665e-05 6.1360842665e-05
 6.2622479163e-05 6.2622479163e-05 6.2622479163e-05
 6.3925850554e-05 6.3925850554e-05 6.3925850554e-05
 6.5271400672e-05 6.5271400672e-05 6.5271400672e-05
 6.6658729338e-05 6.6658729338e-05 6.6658729338e-05
 6.8088455009e-05 6.8088455009e-05 6.8088455009e-05
 6.9560133852e-05 6.9560133852e-05 6.9560133852e-05
 7.1074071457e-05 7.1074071457e-05 7.1074071457e-05
 7.2630398790e-05 7.2630398790e-05 7.2630398790e-05
 7.4229072197e-05 7.4229072197e-05 7.4229072197e-05
 7.5870761066e-05 7.5870761066e-05 7.5870761066e-05
 7.7554905147e-05 7.7554905147e-05 7.7554905147e-05
 7.9282093793e-05 7.9282093793e-05 7.9282093793e-05
 8.1051897723e-05 8.1051897723e-05 8.1051897723e-05
 8.2865430159e-05 8.2865430159e-05 8.2865430159e-05
 8.4721774329e-05 8.4721774329e-05 8.4721774329e-05
 8.6621832452e-05 8.6621832452e-05 8.6621832452e-05
 8.8565400802e-05 8.8565400802e-05 8.8565400802e-05
 9.0552952315e-05 9.0552952315e-05 9.0552952315e-05
 9.2584290542e-05 9.2584290542e-05 9.2584290542e-05
 9.4659058959e-05 9.4659058959e-05 9.4659058959e-05
 9.6778865554e-05 9.6778865554e-05 9.6778865554e-05
 9.8942771729e-05 9.8942771729e-05 9.8942771729e-05
 1.0115114856e-04 1.0115114856e-04 1.0115114856e-04
 1.0340513836e-04 1.0340513836e-04 1.0340513836e-04
 1.0570279119e-04 1.0570279119e-04 1.0570279119e-04
 1.0804679187e-04 1.0804679187e-04 1.0804679187e-04
 1.1043578706e-04 1.1043578706e-04 1.1043578706e-04
 1.1286941299e-04 1.1286941299e-04 1.1286941299e-04
 1.1534984515e-04 1.1534984515e-04 1.1534984515e-04
 1.1787516269e-04 1.1787516269e-04 1.1787516269e-04
 1.2044781761e-04 1.2044781761e-04 1.2044781761e-04
 1.2306586723e-04 1.2306586723e-04 1.2306586723e-04
 1.2573026470e-04 1.2573026470e-04 1.2573026470e-04
 1.2844157754e-04 1.2844157754e-04 1.2844157754e-04
 1.3119955838e-04 1.3119955838e-04 1.3119955838e-04
 1.3400468742e-04 1.3400468742e-04 1.3400468742e-04
 1.3685753220e-04 1.3685753220e-04 1.3685753220e-04
 1.3975774345e-04 1.3975774345e-04 1.3975774345e-04
 1.4270533575e-04 1.4270533575e-04 1.4270533575e-04
 1.4570116764e-04 1.4570116764e-04 1.4570116764e-04
 1.4874472981e-04 1.4874472981e-04 1.4874472981e-04
 1.5183737560e-04 1.5183737560e-04 1.5183737560e-04
 1.5497708227e-04 1.5497708227e-04 1.5497708227e-04
 1.5816741507e-04 1.5816741507e-04 1.5816741507e-04
 1.6140566731e-04 1.6140566731e-04 1.6140566731e-04
 1.6469307593e-04 1.6469307593e-04 1.6469307593e-04
 1.6802988830e-04 1.6802988830e-04 1.6802988830e-04
 1.7141723947e-04 1.7141723947e-04 1.7141723947e-04
 1.7485262651e-04 1.7485262651e-04 1.7485262651e-04
 1.7834013852e-04 1.7834013852e-04 1.7834013852e-04
 1.8187583191e-04 1.8187583191e-04 1.8187583191e-04
 1.8546414503e-04 1.8546414503e-04 1.8546414503e-04
 1.8910257495e-04 1.8910257495e-04 1.8910257495e-04
 1.9279058324e-04 1.9279058324e-04 1.9279058324e-04
 1.9653094932e-04 1.9653094932e-04 1.9653094932e-04
 2.0032328030e-04 2.0032328030e-04 2.0032328030e-04
 2.0416713960e-04 2.0416713960e-04 2.0416713960e-04
 2.0806107204e-04 2.0806107204e-04 2.0806107204e-04
 2.1200948686e-04 2.1200948686e-04 2.1200948686e-04
 2.1600710170e-04 2.1600710170e-04 2.1600710170e-04
 2.2005991195e-04 2.2005991195e-04 2.2005991195e-04
 2.2416458523e-04 2.2416458523e-04 2.2416458523e-04
 2.2832349350e-04 2.2832349350e-04 2.2832349350e-04
 2.3253647669e-04 2.3253647669e-04 2.3253647669e-04
 2.3679979495e-04 2.3679979495e-04 2.3679979495e-04
 2.4111768289e-04 2.4111768289e-04 2.4111768289e-04
 2.4549226509e-04 2.4549226509e-04 2.4549226509e-04
 2.4991878308e-04 2.4991878308e-04 2.4991878308e-04
 2.5440042373e-04 2.5440042373e-04 2.5440042373e-04
 2.5893791462e-04 2.5893791462e-04 2.5893791462e-04
 2.6352721034e-04 2.6352721034e-04 2.6352721034e-04
 2.6817398611e-04 2.6817398611e-04 2.6817398611e-04
 2.7287431294e-04 2.7287431294e-04 2.7287431294e-04
 2.7763404069e-04 2.7763404069e-04 2.7763404069e-04
 2.8244656278e-04 2.8244656278e-04 2.8244656278e-04
 2.8731732164e-04 2.8731732164e-04 2.8731732164e-04
 2.9224628815e-04 2.9224628815e-04 2.9224628815e-04
 2.9722653562e-04 2.9722653562e-04 2.9722653562e-04
 3.0226656236e-04 3.0226656236e-04 3.0226656236e-04
 3.0736386543e-04 3.0736386543e-04 3.0736386543e-04
 3.1251978362e-04 3.1251978362e-04 3.1251978362e-04
 3.1773245428e-04 3.1773245428e-04 3.1773245428e-04
 3.2300344901e-04 3.2300344901e-04 3.2300344901e-04
 3.2832962461e-04 3.2832962461e-04 3.2832962461e-04
 3.3371709287e-04 3.3371709287e-04 3.3371709287e-04
 3.3916626126e-04 3.3916626126e-04 3.3916626126e-04
 3.4466851503e-04 3.4466851503e-04 3.4466851503e-04
 3.5023491364e-04 3.5023491364e-04 3.5023491364e-04
 3.5585765727e-04 3.5585765727e-04 3.5585765727e-04
 3.6154058762e-04 3.6154058762e-04 3.6154058762e-04
 3.6728323903e-04 3.6728323903e-04 3.6728323903e-04
 3.7308887113e-04 3.7308887113e-04 3.7308887113e-04
 3.7895317655e-04 3.7895317655e-04 3.7895317655e-04
 3.8487621350e-04 3.8487621350e-04 3.8487621350e-04
 3.9086601464e-04 3.9086601464e-04 3.9086601464e-04
 3.9691251004e-04 3.9691251004e-04 3.9691251004e-04
 4.0302256821e-04 4.0302256821e-04 4.0302256821e-04
 4.0919217281e-04 4.0919217281e-04 4.0919217281e-04
 4.1542784311e-04 4.1542784311e-04 4.1542784311e-04
 4.2172428221e-04 4.2172428221e-04 4.2172428221e-04
 4.2808102444e-04 4.2808102444e-04 4.2808102444e-04
 4.3450348312e-04 4.3450348312e-04 4.3450348312e-04
 4.4098979561e-04 4.4098979561e-04 4.4098979561e-04
 4.4753577095e-04 4.4753577095e-04 4.4753577095e-04
 4.5415112982e-04 4.5415112982e-04 4.5415112982e-04
 4.6083022607e-04 4.6083022607e-04 4.6083022607e-04
 4.6756735537e-04 4.6756735537e-04 4.6756735537e-04
 4.7437218018e-04 4.7437218018e-04 4.7437218018e-04
 4.8124196474e-04 4.8124196474e-04 4.8124196474e-04
 4.8817857169e-04 4.8817857169e-04 4.8817857169e-04
 4.9518333981e-04 4.9518333981e-04 4.9518333981e-04
 5.0224451115e-04 5.0224451115e-04 5.0224451115e-04
 5.0937832566e-04 5.0937832566e-04 5.0937832566e-04
 5.1657442236e-04 5.1657442236e-04 5.1657442236e-04
 5.2384252194e-04 5.2384252194e-04 5.2384252194e-04
 5.3117191419e-04 5.3117191419e-04 5.3117191419e-04
 5.3857453167e-04 5.3857453167e-04 5.3857453167e-04
 5.4603669560e-04 5.4603669560e-04 5.4603669560e-04
 5.5357132806e-04 5.5357132806e-04 5.5357132806e-04
 5.6117959321e-04 5.6117959321e-04 5.6117959321e-04
 5.6884600781e-04 5.6884600781e-04 5.6884600781e-04
 5.7658337755e-04 5.7658337755e-04 5.7658337755e-04
 5.8439339045e-04 5.8439339045e-04 5.8439339045e-04
 5.9226830490e-04 5.9226830490e-04 5.9226830490e-04
 6.0022209072e-04 6.0022209072e-04 6.0022209072e-04
 6.0823268723e-04 6.0823268723e-04 6.0823268723e-04
 6.1632151483e-04 6.1632151483e-04 6.1632151483e-04
 6.2447332311e-04 6.2447332311e-04 6.2447332311e-04
 6.3270429382e-04 6.3270429382e-04 6.3270429382e-04
 6.4100546297e-04 6.4100546297e-04 6.4100546297e-04
 6.4936978742e-04 6.4936978742e-04 6.4936978742e-04
 6.5781228477e-04 6.5781228477e-04 6.5781228477e-04
 6.6632358357e-04 6.6632358357e-04 6.6632358357e-04
 6.7490455694e-04 6.7490455694e-04 6.7490455694e-04
 6.8356341217e-04 6.8356341217e-04 6.8356341217e-04
 6.9229333894e-04 6.9229333894e-04 6.9229333894e-04
 7.0110004162e-04 7.0110004162e-04 7.0110004162e-04
 7.0997548755e-04 7.0997548755e-04 7.0997548755e-04
 7.1892695269e-04 7.1892695269e-04 7.1892695269e-04
 7.2794832522e-04 7.2794832522e-04 7.2794832522e-04
 7.3703628732e-04 7.3703628732e-04 7.3703628732e-04
 7.4621068779e-04 7.4621068779e-04 7.4621068779e-04
 7.5546262087e-04 7.5546262087e-04 7.5546262087e-04
 7.6478207484e-04 7.6478207484e-04 7.6478207484e-04
 7.7417818829e-04 7.7417818829e-04 7.7417818829e-04
 7.8365101945e-04 7.8365101945e-04 7.8365101945e-04
 7.9319701763e-04 7.9319701763e-04 7.9319701763e-04
 8.0282136332e-04 8.0282136332e-04 8.0282136332e-04
 8.1252347445e-04 8.1252347445e-04 8.1252347445e-04
 8.2229782129e-04 8.2229782129e-04 8.2229782129e-04
 8.3216017811e-04 8.3216017811e-04 8.3216017811e-04
 8.4208825137e-04 8.4208825137e-04 8.4208825137e-04
 8.5210124962e-04 8.5210124962e-04 8.5210124962e-04
 8.6218758952e-04 8.6218758952e-04 8.6218758952e-04
 8.7236362742e-04 8.7236362742e-04 8.7236362742e-04
 8.8260066696e-04 8.8260066696e-04 8.8260066696e-04
 8.9292420307e-04 8.9292420307e-04 8.9292420307e-04
 9.0333382832e-04 9.0333382832e-04 9.0333382832e-04
 9.1381790116e-04 9.1381790116e-04 9.1381790116e-04
 9.2437275453e-04 9.2437275453e-04 9.2437275453e-04
 9.3503034441e-04 9.3503034441e-04 9.3503034441e-04
 9.4575900584e-04 9.4575900584e-04 9.4575900584e-04
 9.5656007761e-04 9.5656007761e-04 9.5656007761e-04
 9.6744799521e-04 9.6744799521e-04 9.6744799521e-04
 9.7842107061e-04 9.7842107061e-04 9.7842107061e-04
 9.8946550861e-04 9.8946550861e-04 9.8946550861e-04
 1.0005964432e-03 1.0005964432e-03 1.0005964432e-03
 1.0118115461e-03 1.0118115461e-03 1.0118115461e-03
 1.0231129127e-03 1.0231129127e-03 1.0231129127e-03
 1.0345000774e-03 1.0345000774e-03 1.0345000774e-03
 1.0459569748e-03 1.0459569748e-03 1.0459569748e-03
 1.0575132910e-03 1.0575132910e-03 1.0575132910e-03
 1.0691412026e-03 1.0691412026e-03 1.0691412026e-03
 1.0808504885e-03 1.0808504885e-03 1.0808504885e-03
 1.0926626856e-03 1.0926626856e-03 1.0926626856e-03
 1.1045415886e-03 1.1045415886e-03 1.1045415886e-03
 1.1165231699e-03 1.1165231699e-03 1.1165231699e-03
 1.1285858927e-03 1.1285858927e-03 1.1285858927e-03
 1.1407352285e-03 1.1407352285e-03 1.1407352285e-03
 1.1529684998e-03 1.1529684998e-03 1.1529684998e-03
 1.1652851244e-03 1.1652851244e-03 1.1652851244e-03
 1.1776848696e-03 1.1776848696e-03 1.1776848696e-03
 1.1901829857e-03 1.1901829857e-03 1.1901829857e-03
 1.2027667835e-03 1.2027667835e-03 1.2027667835e-03
 1.2154327706e-03 1.2154327706e-03 1.2154327706e-03
 1.2282006210e-03 1.2282006210e-03 1.2282006210e-03
 1.2410305208e-03 1.2410305208e-03 1.2410305208e-03
 1.2539816089e-03 1.2539816089e-03 1.2539816089e-03
 1.2669968419e-03 1.2669968419e-03 1.2669968419e-03
 1.2801302364e-03 1.2801302364e-03 1.2801302364e-03
 1.2933275430e-03 1.2933275430e-03 1.2933275430e-03
 1.3066258980e-03 1.3066258980e-03 1.3066258980e-03
 1.3200034155e-03 1.3200034155e-03 1.3200034155e-03
 1.3334853575e-03 1.3334853575e-03 1.3334853575e-03
 1.3470645063e-03 1.3470645063e-03 1.3470645063e-03
 1.3607268920e-03 1.3607268920e-03 1.3607268920e-03
 1.3744898606e-03 1.3744898606e-03 1.3744898606e-03
 1.3883307111e-03 1.3883307111e-03 1.3883307111e-03
 1.4022754040e-03 1.4022754040e-03 1.4022754040e-03
 1.4162978623e-03 1.4162978623e-03 1.4162978623e-03
 1.4304247452e-03 1.4304247452e-03 1.4304247452e-03
 1.4446515124e-03 1.4446515124e-03 1.4446515124e-03
 1.4589737402e-03 1.4589737402e-03 1.4589737402e-03
 1.4733800199e-03 1.4733800199e-03 1.4733800199e-03
 1.4878864167e-03 1.4878864167e-03 1.4878864167e-03
 1.5024932800e-03 1.5024932800e-03 1.5024932800e-03
 1.5171776759e-03 1.5171776759e-03 1.5171776759e-03
 1.5319871018e-03 1.5319871018e-03 1.5319871018e-03
 1.5468744095e-03 1.5468744095e-03 1.5468744095e-03
 1.5618609032e-03 1.5618609032e-03 1.5618609032e-03
 1.5769470483e-03 1.5769470483e-03 1.5769470483e-03
 1.5921354061e-03 1.5921354061e-03 1.5921354061e-03
 1.6074005980e-03 1.6074005980e-03 1.6074005980e-03
 1.6227908200e-03 1.6227908200e-03 1.6227908200e-03
 1.6382809263e-03 1.6382809263e-03 1.6382809263e-03
 1.6538455384e-03 1.6538455384e-03 1.6538455384e-03
 1.6695123632e-03 1.6695123632e-03 1.6695123632e-03
 1.6853051493e-03 1.6853051493e-03 1.6853051493e-03
 1.7011716263e-03 1.7011716263e-03 1.7011716263e-03
 1.7171658110e-03 1.7171658110e-03 1.7171658110e-03
 1.7332312418e-03 1.7332312418e-03 1.7332312418e-03
 1.7494000494e-03 1.7494000494e-03 1.7494000494e-03
 1.7656944692e-03 1.7656944692e-03 1.7656944692e-03
 1.7820603680e-03 1.7820603680e-03 1.7820603680e-03
 1.7985844752e-03 1.7985844752e-03 1.7985844752e-03
 1.8151486292e-03 1.8151486292e-03 1.8151486292e-03
 1.8318452640e-03 1.8318452640e-03 1.8318452640e-03
 1.8486421322e-03 1.8486421322e-03 1.8486421322e-03
 1.8655351596e-03 1.8655351596e-03 1.8655351596e-03
 1.8825555453e-03 1.8825555453e-03 1.8825555453e-03
 1.8996486906e-03 1.8996486906e-03 1.8996486906e-03
 1.9168708241e-03 1.9168708241e-03 1.9168708241e-03
 1.9341928419e-03 1.9341928419e-03 1.9341928419e-03
 1.9516138127e-03 1.9516138127e-03 1.9516138127e-03
 1.9691642374e-03 1.9691642374e-03 1.9691642374e-03
 1.9867802039e-03 1.9867802039e-03 1.9867802039e-03
 2.0045291167e-03 2.0045291167e-03 2.0045291167e-03
 2.0223772153e-03 2.0223772153e-03 2.0223772153e-03
 2.0403540693e-03 2.0403540693e-03 2.0403540693e-03
 2.0583991427e-03 2.0583991427e-03 2.0583991427e-03
 2.0765743684e-03 2.0765743684e-03 2.0765743684e-03
 2.0948764868e-03 2.0948764868e-03 2.0948764868e-03
 2.1132836118e-03 2.1132836118e-03 2.1132836118e-03
 2.1317899227e-03 2.1317899227e-03 2.1317899227e-03
 2.1503856406e-03 2.1503856406e-03 2.1503856406e-03
 2.1691180300e-03 2.1691180300e-03 2.1691180300e-03
 2.1879852284e-03 2.1879852284e-03 2.1879852284e-03
 2.2069117986e-03 2.2069117986e-03 2.2069117986e-03
 2.2259722464e-03 2.2259722464e-03 2.2259722464e-03
 2.2451300174e-03 2.2451300174e-03 2.2451300174e-03
 2.2644163109e-03 2.2644163109e-03 2.2644163109e-03
 2.2838392761e-03 2.2838392761e-03 2.2838392761e-03
 2.3033241741e-03 2.3033241741e-03 2.3033241741e-03
 2.3229387589e-03 2.3229387589e-03 2.3229387589e-03
 2.3426883854e-03 2.3426883854e-03 2.3426883854e-03
 2.3625763133e-03 2.3625763133e-03 2.3625763133e-03
 2.3825152311e-03 2.3825152311e-03 2.3825152311e-03
 2.4025912862e-03 2.4025912862e-03 2.4025912862e-03
 2.4228040129e-03 2.4228040129e-03 2.4228040129e-03
 2.4431096390e-03 2.4431096390e-03 2.4431096390e-03
 2.4635531008e-03 2.4635531008e-03 2.4635531008e-03
 2.4841274135e-03 2.4841274135e-03 2.4841274135e-03
 2.5047562085e-03 2.5047562085e-03 2.5047562085e-03
 2.5255663786e-03 2.5255663786e-03 2.5255663786e-03
 2.5464629289e-03 2.5464629289e-03 2.5464629289e-03
 2.5675042998e-03 2.5675042998e-03 2.5675042998e-03
 2.5886362419e-03 2.5886362419e-03 2.5886362419e-03
 2.6098995004e-03 2.6098995004e-03 2.6098995004e-03
 2.6312600821e-03 2.6312600821e-03 2.6312600821e-03
 2.6527573355e-03 2.6527573355e-03 2.6527573355e-03
 2.6743940543e-03 2.6743940543e-03 2.6743940543e-03
 2.6961613912e-03 2.6961613912e-03 2.6961613912e-03
 2.7180248871e-03 2.7180248871e-03 2.7180248871e-03
 2.7399791870e-03 2.7399791870e-03 2.7399791870e-03
 2.7620696928e-03 2.7620696928e-03 2.7620696928e-03
 2.7843497228e-03 2.7843497228e-03 2.7843497228e-03
 2.8066660743e-03 2.8066660743e-03 2.8066660743e-03
 2.8291721828e-03 2.8291721828e-03 2.8291721828e-03
 2.8517672326e-03 2.8517672326e-03 2.8517672326e-03
 2.8744996525e-03 2.8744996525e-03 2.8744996525e-03
 2.8973256703e-03 2.8973256703e-03 2.8973256703e-03
 2.9203358572e-03 2.9203358572e-03 2.9203358572e-03
 2.9434403405e-03 2.9434403405e-03 2.9434403405e-03
 2.9666302726e-03 2.9666302726e-03 2.9666302726e-03
 2.9900113586e-03 2.9900113586e-03 2.9900113586e-03
 3.0135258567e-03 3.0135258567e-03 3.0135258567e-03
 3.0371325556e-03 3.0371325556e-03 3.0371325556e-03
 3.0608300585e-03 3.0608300585e-03 3.0608300585e-03
 3.0847147573e-03 3.0847147573e-03 3.0847147573e-03
 3.1087382231e-03 3.1087382231e-03 3.1087382231e-03
 3.1328527257e-03 3.1328527257e-03 3.1328527257e-03
 3.1571080908e-03 3.1571080908e-03 3.1571080908e-03
 3.1815015245e-03 3.1815015245e-03 3.1815015245e-03
 3.2059757505e-03 3.2059757505e-03 3.2059757505e-03
 3.2306492794e-03 3.2306492794e-03 3.2306492794e-03
 3.2554606441e-03 3.2554606441e-03 3.2554606441e-03
 3.2803630456e-03 3.2803630456e-03 3.2803630456e-03
 3.3054046798e-03 3.3054046798e-03 3.3054046798e-03
 3.3305846155e-03 3.3305846155e-03 3.3305846155e-03
 3.3559065778e-03 3.3559065778e-03 3.3559065778e-03
 3.3813659102e-03 3.3813659102e-03 3.3813659102e-03
 3.4069141839e-03 3.4069141839e-03 3.4069141839e-03
 3.4325998276e-03 3.4325998276e-03 3.4325998276e-03
 3.4584901296e-03 3.4584901296e-03 3.4584901296e-03
 3.4844567999e-03 3.4844567999e-03 3.4844567999e-03
 3.5106264986e-03 3.5106264986e-03 3.5106264986e-03
 3.5368835088e-03 3.5368835088e-03 3.5368835088e-03
 3.5632129293e-03 3.5632129293e-03 3.5632129293e-03
 3.5898138303e-03 3.5898138303e-03 3.5898138303e-03
 3.6164326593e-03 3.6164326593e-03 3.6164326593e-03
 3.6432479974e-03 3.6432479974e-03 3.6432479974e-03
 3.6702128127e-03 3.6702128127e-03 3.6702128127e-03
 3.6973168608e-03 3.6973168608e-03 3.6973168608e-03
 3.7245044950e-03 3.7245044950e-03 3.7245044950e-03
 3.7518909667e-03 3.7518909667e-03 3.7518909667e-03
 3.7794266827e-03 3.7794266827e-03 3.7794266827e-03
 3.8070324808e-03 3.8070324808e-03 3.8070324808e-03
 3.8348487578e-03 3.8348487578e-03 3.8348487578e-03
 3.8628177717e-03 3.8628177717e-03 3.8628177717e-03
 3.8908517454e-03 3.8908517454e-03 3.8908517454e-03
 3.9190389216e-03 3.9190389216e-03 3.9190389216e-03
 3.9474270307e-03 3.9474270307e-03 3.9474270307e-03
 3.9759660140e-03 3.9759660140e-03 3.9759660140e-03
 4.0045818314e-03 4.0045818314e-03 4.0045818314e-03
 4.0334006771e-03 4.0334006771e-03 4.0334006771e-03
 4.0622963570e-03 4.0622963570e-03 4.0622963570e-03
 4.0914053097e-03 4.0914053097e-03 4.0914053097e-03
 4.1206576861e-03 4.1206576861e-03 4.1206576861e-03
 4.1500600055e-03 4.1500600055e-03 4.1500600055e-03
 4.1796024889e-03 4.1796024889e-03 4.1796024889e-03
 4.2092162184e-03 4.2092162184e-03 4.2092162184e-03
 4.2391172610e-03 4.2391172610e-03 4.2391172610e-03
 4.2690914124e-03 4.2690914124e-03 4.2690914124e-03
 4.2991354130e-03 4.2991354130e-03 4.2991354130e-03
 4.3294681236e-03 4.3294681236e-03 4.3294681236e-03
 4.3598841876e-03 4.3598841876e-03 4.3598841876e-03
 4.3904273771e-03 4.3904273771e-03 4.3904273771e-03
 4.4212066568e-03 4.4212066568e-03 4.4212066568e-03
 4.4520399533e-03 4.4520399533e-03 4.4520399533e-03
 4.4830967672e-03 4.4830967672e-03 4.4830967672e-03
 4.5143053867e-03 4.5143053867e-03 4.5143053867e-03
 4.5455791987e-03 4.5455791987e-03 4.5455791987e-03
 4.5771542937e-03 4.5771542937e-03 4.5771542937e-03
 4.6087950468e-03 4.6087950468e-03 4.6087950468e-03
 4.6404981986e-03 4.6404981986e-03 4.6404981986e-03
 4.6725026332e-03 4.6725026332e-03 4.6725026332e-03
 4.7045839019e-03 4.7045839019e-03 4.7045839019e-03
 4.7368803062e-03 4.7368803062e-03 4.7368803062e-03
 4.7693317756e-03 4.7693317756e-03 4.7693317756e-03
 4.8019182868e-03 4.8019182868e-03 4.8019182868e-03
 4.8346603289e-03 4.8346603289e-03 4.8346603289e-03
 4.8675378785e-03 4.8675378785e-03 4.8675378785e-03
 4.9005663022e-03 4.9005663022e-03 4.9005663022e-03
 4.9338284880e-03 4.9338284880e-03 4.9338284880e-03
 4.9672303721e-03 4.9672303721e-03 4.9672303721e-03
 5.0006872043e-03 5.0006872043e-03 5.0006872043e-03
 5.0343773328e-03 5.0343773328e-03 5.0343773328e-03
 5.0683026202e-03 5.0683026202e-03 5.0683026202e-03
 5.1022982225e-03 5.1022982225e-03 5.1022982225e-03
 5.1365145482e-03 5.1365145482e-03 5.1365145482e-03
 5.1708822139e-03 5.1708822139e-03 5.1708822139e-03
 5.2053877153e-03 5.2053877153e-03 5.2053877153e-03
 5.2400454879e-03 5.2400454879e-03 5.2400454879e-03
 5.2748406306e-03 5.2748406306e-03 5.2748406306e-03
 5.3098858334e-03 5.3098858334e-03 5.3098858334e-03
 5.3450712003e-03 5.3450712003e-03 5.3450712003e-03
 5.3803934716e-03 5.3803934716e-03 5.3803934716e-03
 5.4158684798e-03 5.4158684798e-03 5.4158684798e-03
 5.4515837692e-03 5.4515837692e-03 5.4515837692e-03
 5.4874503985e-03 5.4874503985e-03 5.4874503985e-03
 5.5234520696e-03 5.5234520696e-03 5.5234520696e-03
 5.5596074089e-03 5.5596074089e-03 5.5596074089e-03
 5.5960062891e-03 5.5960062891e-03 5.5960062891e-03
 5.6324484758e-03 5.6324484758e-03 5.6324484758e-03
 5.6692431681e-03 5.6692431681e-03 5.6692431681e-03
 5.7059694082e-03 5.7059694082e-03 5.7059694082e-03
 5.7430565357e-03 5.7430565357e-03 5.7430565357e-03
 5.7802745141e-03 5.7802745141e-03 5.7802745141e-03
 5.8176619932e-03 5.8176619932e-03 5.8176619932e-03
 5.8551672846e-03 5.8551672846e-03 5.8551672846e-03
 5.8929389343e-03 5.8929389343e-03 5.8929389343e-03
 5.9308456257e-03 5.9308456257e-03 5.9308456257e-03
 5.9689013287e-03 5.9689013287e-03 5.9689013287e-03
 6.0071083717e-03 6.0071083717e-03 6.0071083717e-03
 6.0455659404e-03 6.0455659404e-03 6.0455659404e-03
 6.0841618106e-03 6.0841618106e-03 6.0841618106e-03
 6.1230245046e-03 6.1230245046e-03 6.1230245046e-03
 6.1619174667e-03 6.1619174667e-03 6.1619174667e-03
 6.2010665424e-03 6.2010665424e-03 6.2010665424e-03
 6.2403455377e-03 6.2403455377e-03 6.2403455377e-03
 6.2799006701e-03 6.2799006701e-03 6.2799006701e-03
 6.3194804825e-03 6.3194804825e-03 6.3194804825e-03
 6.3593168743e-03 6.3593168743e-03 6.3593168743e-03
 6.3994117081e-03 6.3994117081e-03 6.3994117081e-03
 6.4396555535e-03 6.4396555535e-03 6.4396555535e-03
 6.4800488763e-03 6.4800488763e-03 6.4800488763e-03
 6.5205753781e-03 6.5205753781e-03 6.5205753781e-03
 6.5613603219e-03 6.5613603219e-03 6.5613603219e-03
 6.6023143008e-03 6.6023143008e-03 6.6023143008e-03
 6.6435118206e-03 6.6435118206e-03 6.6435118206e-03
 6.6848569550e-03 6.6848569550e-03 6.6848569550e-03
 6.7263534293e-03 6.7263534293e-03 6.7263534293e-03
 6.7679774947e-03 6.7679774947e-03 6.7679774947e-03
 6.8098870106e-03 6.8098870106e-03 6.8098870106e-03
 6.8519255146e-03 6.8519255146e-03 6.8519255146e-03
 6.8942485377e-03 6.8942485377e-03 6.8942485377e-03
 6.9367005490e-03 6.9367005490e-03 6.9367005490e-03
 6.9793011062e-03 6.9793011062e-03 6.9793011062e-03
 7.0220511407e-03 7.0220511407e-03 7.0220511407e-03
 7.0650647394e-03 7.0650647394e-03 7.0650647394e-03
 7.1083507501e-03 7.1083507501e-03 7.1083507501e-03
 7.1516600437e-03 7.1516600437e-03 7.1516600437e-03
 7.1953679435e-03 7.1953679435e-03 7.1953679435e-03
 7.2390744463e-03 7.2390744463e-03 7.2390744463e-03
 7.2830724530e-03 7.2830724530e-03 7.2830724530e-03
 7.3272185400e-03 7.3272185400e-03 7.3272185400e-03
 7.3716216721e-03 7.3716216721e-03 7.3716216721e-03
 7.4161863886e-03 7.4161863886e-03 7.4161863886e-03
 7.4608772993e-03 7.4608772993e-03 7.4608772993e-03
 7.5058671646e-03 7.5058671646e-03 7.5058671646e-03
 7.5509827584e-03 7.5509827584e-03 7.5509827584e-03
 7.5963702984e-03 7.5963702984e-03 7.5963702984e-03
 7.6419282705e-03 7.6419282705e-03 7.6419282705e-03
 7.6876091771e-03 7.6876091771e-03 7.6876091771e-03
 7.7335685492e-03 7.7335685492e-03 7.7335685492e-03
 7.7796946280e-03 7.7796946280e-03 7.7796946280e-03
 7.8260814771e-03 7.8260814771e-03 7.8260814771e-03
 7.8726122156e-03 7.8726122156e-03 7.8726122156e-03
 7.9194447026e-03 7.9194447026e-03 7.9194447026e-03
 7.9662604257e-03 7.9662604257e-03 7.9662604257e-03
 8.0133602023e-03 8.0133602023e-03 8.0133602023e-03
 8.0609070137e-03 8.0609070137e-03 8.0609070137e-03
 8.1084351987e-03 8.1084351987e-03 8.1084351987e-03
 8.1561021507e-03 8.1561021507e-03 8.1561021507e-03
