aces_1.1_postwork/luts/F-Log_to_linear.spi1d
Version 1
From 0 1
Length 4096
Components 1
{
 -1.0630485602e-02
 -1.0602531023e-02
 -1.0574576445e-02
 -1.0546621867e-02
 -1.0518667288e-02
 -1.0490712710e-02
 -1.0462759063e-02
 -1.0434804484e-02
 -1.0406849906e-02
 -1.0378895327e-02
 -1.0350940749e-02
 -1.0322986171e-02
 -1.0295031592e-02
 -1.0267077014e-02
 -1.0239122435e-02
 -1.0211167857e-02
 -1.0183213279e-02
 -1.0155258700e-02
 -1.0127304122e-02
 -1.0099350475e-02
 -1.0071395896e-02
 -1.0043441318e-02
 -1.0015486740e-02
 -9.9875321612e-03
 -9.9595775828e-03
 -9.9316230044e-03
 -9.9036684260e-03
 -9.8757138476e-03
 -9.8477592692e-03
 -9.8198046908e-03
 -9.7918501124e-03
 -9.7638955340e-03
 -9.7359418869e-03
 -9.7079873085e-03
 -9.6800327301e-03
 -9.6520781517e-03
 -9.6241235733e-03
 -9.5961689949e-03
 -9.5682144165e-03
 -9.5402598381e-03
 -9.5123052597e-03
 -9.4843506813e-03
 -9.4563961029e-03
 -9.4284415245e-03
 -9.4004878774e-03
 -9.3725332990e-03
 -9.3445787206e-03
 -9.3166241422e-03
 -9.2886695638e-03
 -9.2607149854e-03
 -9.2327604070e-03
 -9.2048058286e-03
 -9.1768512502e-03
 -9.1488966718e-03
 -9.1209420934e-03
 -9.0929875150e-03
 -9.0650329366e-03
 -9.0370792896e-03
 -9.0091247112e-03
 -8.9811701328e-03
 -8.9532155544e-03
 -8.9252609760e-03
 -8.8973063976e-03
 -8.8693518192e-03
 -8.8413972408e-03
 -8.8134426624e-03
 -8.7854880840e-03
 -8.7575335056e-03
 -8.7295789272e-03
 -8.7016243488e-03
 -8.6736707017e-03
 -8.6457161233e-03
 -8.6177615449e-03
 -8.5898069665e-03
 -8.5618523881e-03
 -8.5338978097e-03
 -8.5059432313e-03
 -8.4779886529e-03
 -8.4500340745e-03
 -8.4220794961e-03
 -8.3941249177e-03
 -8.3661703393e-03
 -8.3382157609e-03
 -8.3102621138e-03
 -8.2823075354e-03
 -8.2543529570e-03
 -8.2263983786e-03
 -8.1984438002e-03
 -8.1704892218e-03
 -8.1425346434e-03
 -8.1145800650e-03
 -8.0866254866e-03
 -8.0586709082e-03
 -8.0307163298e-03
 -8.0027617514e-03
 -7.9748071730e-03
 -7.9468535259e-03
 -7.9188989475e-03
 -7.8909443691e-03
 -7.8629897907e-03
 -7.8350352123e-03
 -7.8070806339e-03
 -7.7791260555e-03
 -7.7511714771e-03
 -7.7232168987e-03
 -7.6952627860e-03
 -7.6673082076e-03
 -7.6393536292e-03
 -7.6113990508e-03
 -7.5834444724e-03
 -7.5554898940e-03
 -7.5275357813e-03
 -7.4995812029e-03
 -7.4716266245e-03
 -7.4436720461e-03
 -7.4157174677e-03
 -7.3877628893e-03
 -7.3598083109e-03
 -7.3318541981e-03
 -7.3038996197e-03
 -7.2759450413e-03
 -7.2479904629e-03
 -7.2200358845e-03
 -7.1920813061e-03
 -7.1641271934e-03
 -7.1361726150e-03
 -7.1082180366e-03
 -7.0802634582e-03
 -7.0523088798e-03
 -7.0243543014e-03
 -6.9963997230e-03
 -6.9684456103e-03
 -6.9404910319e-03
 -6.9125364535e-03
 -6.8845818751e-03
 -6.8566272967e-03
 -6.8286727183e-03
 -6.8007186055e-03
 -6.7727640271e-03
 -6.7448094487e-03
 -6.7168548703e-03
 -6.6889002919e-03
 -6.6609457135e-03
 -6.6329916008e-03
 -6.6050370224e-03
 -6.5770824440e-03
 -6.5491278656e-03
 -6.5211732872e-03
 -6.4932187088e-03
 -6.4652641304e-03
 -6.4373100176e-03
 -6.4093554392e-03
 -6.3814008608e-03
 -6.3534462824e-03
 -6.3254917040e-03
 -6.2975371256e-03
 -6.2695830129e-03
 -6.2416284345e-03
 -6.2136738561e-03
 -6.1857192777e-03
 -6.1577646993e-03
 -6.1298101209e-03
 -6.1018555425e-03
 -6.0739014298e-03
 -6.0459468514e-03
 -6.0179922730e-03
 -5.9900376946e-03
 -5.9620831162e-03
 -5.9341285378e-03
 -5.9061744250e-03
 -5.8782198466e-03
 -5.8502652682e-03
 -5.8223106898e-03
 -5.7943561114e-03
 -5.7664015330e-03
 -5.7384474203e-03
 -5.7104928419e-03
 -5.6825382635e-03
 -5.6545836851e-03
 -5.6266291067e-03
 -5.5986745283e-03
 -5.5707199499e-03
 -5.5427658372e-03
 -5.5148112588e-03
 -5.4868566804e-03
 -5.4589021020e-03
 -5.4309475236e-03
 -5.4029929452e-03
 -5.3750388324e-03
 -5.3470842540e-03
 -5.3191296756e-03
 -5.2911750972e-03
 -5.2632205188e-03
 -5.2352659404e-03
 -5.2073118277e-03
 -5.1793572493e-03
 -5.1514026709e-03
 -5.1234480925e-03
 -5.0954935141e-03
 -5.0675389357e-03
 -5.0395843573e-03
 -5.0116302446e-03
 -4.9836756662e-03
 -4.9557210878e-03
 -4.9277665094e-03
 -4.8998119310e-03
 -4.8718573526e-03
 -4.8439032398e-03
 -4.8159486614e-03
 -4.7879940830e-03
 -4.7600395046e-03
 -4.7320849262e-03
 -4.7041303478e-03
 -4.6761757694e-03
 -4.6482216567e-03
 -4.6202670783e-03
 -4.5923124999e-03
 -4.5643579215e-03
 -4.5364033431e-03
 -4.5084487647e-03
 -4.4804946519e-03
 -4.4525400735e-03
 -4.4245854951e-03
 -4.3966309167e-03
 -4.3686763383e-03
 -4.3407217599e-03
 -4.3127676472e-03
 -4.2848130688e-03
 -4.2568584904e-03
 -4.2289039120e-03
 -4.2009493336e-03
 -4.1729947552e-03
 -4.1450401768e-03
 -4.1170860641e-03
 -4.0891314857e-03
 -4.0611769073e-03
 -4.0332223289e-03
 -4.0052677505e-03
 -3.9773131721e-03
 -3.9493590593e-03
 -3.9214044809e-03
 -3.8934499025e-03
 -3.8654953241e-03
 -3.8375407457e-03
 -3.8095864002e-03
 -3.7816318218e-03
 -3.7536772434e-03
 -3.7257228978e-03
 -3.6977683194e-03
 -3.6698137410e-03
 -3.6418593954e-03
 -3.6139048170e-03
 -3.5859502386e-03
 -3.5579958931e-03
 -3.5300413147e-03
 -3.5020867363e-03
 -3.4741321579e-03
 -3.4461778123e-03
 -3.4182232339e-03
 -3.3902686555e-03
 -3.3623143099e-03
 -3.3343597315e-03
 -3.3064051531e-03
 -3.2784508076e-03
 -3.2504962292e-03
 -3.2225416508e-03
 -3.1945873052e-03
 -3.1666327268e-03
 -3.1386781484e-03
 -3.1107238028e-03
 -3.0827692244e-03
 -3.0548146460e-03
 -3.0268600676e-03
 -2.9989057221e-03
 -2.9709511437e-03
 -2.9429965653e-03
 -2.9150422197e-03
 -2.8870876413e-03
 -2.8591330629e-03
 -2.8311787173e-03
 -2.8032241389e-03
 -2.7752695605e-03
 -2.7473152149e-03
 -2.7193606365e-03
 -2.6914060581e-03
 -2.6634517126e-03
 -2.6354971342e-03
 -2.6075425558e-03
 -2.5795879774e-03
 -2.5516336318e-03
 -2.5236790534e-03
 -2.4957244750e-03
 -2.4677701294e-03
 -2.4398155510e-03
 -2.4118609726e-03
 -2.3839066271e-03
 -2.3559520487e-03
 -2.3279974703e-03
 -2.3000431247e-03
 -2.2720885463e-03
 -2.2441339679e-03
 -2.2161796223e-03
 -2.1882250439e-03
 -2.1602704655e-03
 -2.1323158871e-03
 -2.1043615416e-03
 -2.0764069632e-03
 -2.0484523848e-03
 -2.0204980392e-03
 -1.9925434608e-03
 -1.9645888824e-03
 -1.9366344204e-03
 -1.9086799584e-03
 -1.8807254964e-03
 -1.8527709180e-03
 -1.8248164561e-03
 -1.7968619941e-03
 -1.7689074157e-03
 -1.7409529537e-03
 -1.7129983753e-03
 -1.6850439133e-03
 -1.6570894513e-03
 -1.6291348729e-03
 -1.6011804109e-03
 -1.5732259490e-03
 -1.5452713706e-03
 -1.5173169086e-03
 -1.4893623302e-03
 -1.4614078682e-03
 -1.4334534062e-03
 -1.4054988278e-03
 -1.3775443658e-03
 -1.3495899038e-03
 -1.3216353254e-03
 -1.2936808635e-03
 -1.2657262851e-03
 -1.2377718231e-03
 -1.2098173611e-03
 -1.1818627827e-03
 -1.1539083207e-03
 -1.1259538587e-03
 -1.0979992803e-03
 -1.0700448183e-03
 -1.0420902399e-03
 -1.0141357780e-03
 -9.8618131597e-04
 -9.5822679577e-04
 -9.3027227558e-04
 -9.0231775539e-04
 -8.7436323520e-04
 -8.4640877321e-04
 -8.1845425302e-04
 -7.9049973283e-04
 -7.6254521264e-04
 -7.3459075065e-04
 -7.0663623046e-04
 -6.7868171027e-04
 -6.5072719008e-04
 -6.2277272809e-04
 -5.9481820790e-04
 -5.6686368771e-04
 -5.3890916752e-04
 -5.1095470553e-04
 -4.8300018534e-04
 -4.5504566515e-04
 -4.2709117406e-04
 -3.9913665387e-04
 -3.7118216278e-04
 -3.4322764259e-04
 -3.1527315150e-04
 -2.8731863131e-04
 -2.5936414022e-04
 -2.3140963458e-04
 -2.0345512894e-04
 -1.7550062330e-04
 -1.4754611766e-04
 -1.1959161202e-04
 -9.1637106379e-05
 -6.3682600739e-05
 -3.5728095099e-05
 -7.7735885498e-06
 2.0180916181e-05
 4.8135421821e-05
 7.6089927461e-05
 1.0404443310e-04
 1.3199893874e-04
 1.5995344438e-04
 1.8790795002e-04
 2.1586245566e-04
 2.4381696130e-04
 2.7177145239e-04
 2.9972597258e-04
 3.2768046367e-04
 3.5563498386e-04
 3.8358947495e-04
 4.1154399514e-04
 4.3949848623e-04
 4.6745300642e-04
 4.9540749751e-04
 5.2336201770e-04
 5.5131653789e-04
 5.7927099988e-04
 6.0722552007e-04
 6.3518004026e-04
 6.6313456045e-04
 6.9108902244e-04
 7.1904354263e-04
 7.4699806282e-04
 7.7495258301e-04
 8.0290704500e-04
 8.3086156519e-04
 8.5881608538e-04
 8.9871435193e-04
 9.2800665880e-04
 9.5734687056e-04
 9.8673487082e-04
 1.0161709506e-03
 1.0456551099e-03
 1.0751873488e-03
 1.1047677835e-03
 1.1343965307e-03
 1.1640737066e-03
 1.1937993113e-03
 1.2235734612e-03
 1.2533961562e-03
 1.2832676293e-03
 1.3131877640e-03
 1.3431569096e-03
 1.3731748331e-03
 1.4032418840e-03
 1.4333579456e-03
 1.4635231346e-03
 1.4937376836e-03
 1.5240014764e-03
 1.5543147456e-03
 1.5846774913e-03
 1.6150898300e-03
 1.6455517616e-03
 1.6760635190e-03
 1.7066249857e-03
 1.7372363945e-03
 1.7678977456e-03
 1.7986092716e-03
 1.8293708563e-03
 1.8601827323e-03
 1.8910447834e-03
 1.9219573587e-03
 1.9529203419e-03
 1.9839338493e-03
 2.0149981137e-03
 2.0461129025e-03
 2.0772786811e-03
 2.1084952168e-03
 2.1397627424e-03
 2.1710812580e-03
 2.2024509963e-03
 2.2338719573e-03
 2.2653443739e-03
 2.2968677804e-03
 2.3284431081e-03
 2.3600696586e-03
 2.3917478975e-03
 2.4234780576e-03
 2.4552596733e-03
 2.4870934431e-03
 2.5189791340e-03
 2.5509169791e-03
 2.5829067454e-03
 2.6149488986e-03
 2.6470434386e-03
 2.6791901328e-03
 2.7113894466e-03
 2.7436413802e-03
 2.7759459335e-03
 2.8083031066e-03
 2.8407133650e-03
 2.8731764760e-03
 2.9056924395e-03
 2.9382614885e-03
 2.9708838556e-03
 3.0035593081e-03
 3.0362883117e-03
 3.0690706335e-03
 3.1019065063e-03
 3.1347959302e-03
 3.1677391380e-03
 3.2007361297e-03
 3.2337869052e-03
 3.2668916974e-03
 3.3000507392e-03
 3.3332635649e-03
 3.3665308729e-03
 3.3998524304e-03
 3.4332282376e-03
 3.4666587599e-03
 3.5001437645e-03
 3.5336834844e-03
 3.5672779195e-03
 3.6009273026e-03
 3.6346314009e-03
 3.6683906801e-03
 3.7022051401e-03
 3.7360747810e-03
 3.7699996028e-03
 3.8039798383e-03
 3.8380154874e-03
 3.8721070159e-03
 3.9062537253e-03
 3.9404565468e-03
 3.9747152478e-03
 4.0090298280e-03
 4.0434002876e-03
 4.0778270923e-03
 4.1123097762e-03
 4.1468488052e-03
 4.1814446449e-03
 4.2160963640e-03
 4.2508053593e-03
 4.2855702341e-03
 4.3203923851e-03
 4.3552713469e-03
 4.3902071193e-03
 4.4252001680e-03
 4.4602500275e-03
 4.4953576289e-03
 4.5305220410e-03
 4.5657437295e-03
 4.6010236256e-03
 4.6363603324e-03
 4.6717552468e-03
 4.7072079033e-03
 4.7427183017e-03
 4.7782869078e-03
 4.8139132559e-03
 4.8495978117e-03
 4.8853410408e-03
 4.9211420119e-03
 4.9570016563e-03
 4.9929199740e-03
 5.0288969651e-03
 5.0649326295e-03
 5.1010274328e-03
 5.1371809095e-03
 5.1733930595e-03
 5.2096648142e-03
 5.2459957078e-03
 5.2823857404e-03
 5.3188353777e-03
 5.3553441539e-03
 5.3919130005e-03
 5.4285414517e-03
 5.4652295075e-03
 5.5019776337e-03
 5.5387858301e-03
 5.5756536312e-03
 5.6125819683e-03
 5.6495708413e-03
 5.6866197847e-03
 5.7237292640e-03
 5.7608992793e-03
 5.7981302962e-03
 5.8354218490e-03
 5.8727744035e-03
 5.9101879597e-03
 5.9476625174e-03
 5.9851980768e-03
 6.0227951035e-03
 6.0604535975e-03
 6.0981735587e-03
 6.1359549873e-03
 6.1737978831e-03
 6.2117031775e-03
 6.2496699393e-03
 6.2876986340e-03
 6.3257897273e-03
 6.3639427535e-03
 6.4021581784e-03
 6.4404360019e-03
 6.4787762240e-03
 6.5171788447e-03
 6.5556447953e-03
 6.5941731445e-03
 6.6327643581e-03
 6.6714184359e-03
 6.7101358436e-03
 6.7489165813e-03
 6.7877606489e-03
 6.8266680464e-03
 6.8656387739e-03
 6.9046732970e-03
 6.9437716156e-03
 6.9829337299e-03
 7.0221596397e-03
 7.0614498109e-03
 7.1008037776e-03
 7.1402224712e-03
 7.1797054261e-03
 7.2192526422e-03
 7.2588641196e-03
 7.2985407896e-03
 7.3382821865e-03
 7.3780883104e-03
 7.4179596268e-03
 7.4578956701e-03
 7.4978973716e-03
 7.5379642658e-03
 7.5780963525e-03
 7.6182940975e-03
 7.6585575007e-03
 7.6988865621e-03
 7.7392812818e-03
 7.7797425911e-03
 7.8202690929e-03
 7.8608626500e-03
 7.9015223309e-03
 7.9422481358e-03
 7.9830400646e-03
 8.0238990486e-03
 8.0648241565e-03
 8.1058172509e-03
 8.1468764693e-03
 8.1880027428e-03
 8.2291960716e-03
 8.2704564556e-03
 8.3117848262e-03
 8.3531802520e-03
 8.3946436644e-03
 8.4361750633e-03
 8.4777735174e-03
 8.5194399580e-03
 8.5611743852e-03
 8.6029777303e-03
 8.6448490620e-03
 8.6867883801e-03
 8.7287956849e-03
 8.7708728388e-03
 8.8130179793e-03
 8.8552320376e-03
 8.8975140825e-03
 8.9398669079e-03
 8.9822877198e-03
 9.0247774497e-03
 9.0673379600e-03
 9.1099664569e-03
 9.1526657343e-03
 9.1954339296e-03
 9.2382729053e-03
 9.2811807990e-03
 9.3241594732e-03
 9.3672079965e-03
 9.4103263691e-03
 9.4535155222e-03
 9.4967754558e-03
 9.5401061699e-03
 9.5835067332e-03
 9.6269790083e-03
 9.6705220640e-03
 9.7141359001e-03
 9.7578214481e-03
 9.8015777767e-03
 9.8454058170e-03
 9.8893055692e-03
 9.9332761019e-03
 9.9773192778e-03
 1.0021434166e-02
 1.0065621696e-02
 1.0109880008e-02
 1.0154211894e-02
 1.0198615491e-02
 1.0243091732e-02
 1.0287640616e-02
 1.0332262143e-02
 1.0376956314e-02
 1.0421724059e-02
 1.0466564447e-02
 1.0511478409e-02
 1.0556465015e-02
 1.0601526126e-02
 1.0646659881e-02
 1.0691868141e-02
 1.0737149045e-02
 1.0782504454e-02
 1.0827934369e-02
 1.0873437859e-02
 1.0919015855e-02
 1.0964668356e-02
 1.1010395363e-02
 1.1056196876e-02
 1.1102073826e-02
 1.1148025282e-02
 1.1194051243e-02
 1.1240152642e-02
 1.1286329478e-02
 1.1332581751e-02
 1.1378909461e-02
 1.1425312608e-02
 1.1471792124e-02
 1.1518347077e-02
 1.1564977467e-02
 1.1611685157e-02
 1.1658468284e-02
 1.1705327779e-02
 1.1752263643e-02
 1.1799276806e-02
 1.1846366338e-02
 1.1893533170e-02
 1.1940776370e-02
 1.1988096870e-02
 1.2035495602e-02
 1.2082970701e-02
 1.2130523100e-02
 1.2178153731e-02
 1.2225861661e-02
 1.2273647822e-02
 1.2321512215e-02
 1.2369454838e-02
 1.2417474762e-02
 1.2465573847e-02
 1.2513751164e-02
 1.2562007643e-02
 1.2610342354e-02
 1.2658756226e-02
 1.2707249261e-02
 1.2755821459e-02
 1.2804472819e-02
 1.2853203341e-02
 1.2902013958e-02
 1.2950903736e-02
 1.2999874540e-02
 1.3048923574e-02
 1.3098053634e-02
 1.3147263788e-02
 1.3196554035e-02
 1.3245925307e-02
 1.3295376673e-02
 1.3344909064e-02
 1.3394522481e-02
 1.3444216922e-02
 1.3493992388e-02
 1.3543848880e-02
 1.3593786396e-02
 1.3643805869e-02
 1.3693907298e-02
 1.3744090684e-02
 1.3794355094e-02
 1.3844702393e-02
 1.3895131648e-02
 1.3945642859e-02
 1.3996236958e-02
 1.4046913944e-02
 1.4097672887e-02
 1.4148514718e-02
 1.4199440368e-02
 1.4250448905e-02
 1.4301540330e-02
 1.4352715574e-02
 1.4403973706e-02
 1.4455316588e-02
 1.4506742358e-02
 1.4558252878e-02
 1.4609847218e-02
 1.4661525376e-02
 1.4713288285e-02
 1.4765135013e-02
 1.4817067422e-02
 1.4869083650e-02
 1.4921185561e-02
 1.4973372221e-02
 1.5025644563e-02
 1.5078001656e-02
 1.5130444430e-02
 1.5182972886e-02
 1.5235587023e-02
 1.5288286842e-02
 1.5341073275e-02
 1.5393945388e-02
 1.5446904115e-02
 1.5499949455e-02
 1.5553081408e-02
 1.5606299974e-02
 1.5659604222e-02
 1.5712996945e-02
 1.5766477212e-02
 1.5820043162e-02
 1.5873698518e-02
 1.5927439556e-02
 1.5981270000e-02
 1.6035187989e-02
 1.6089193523e-02
 1.6143286601e-02
 1.6197469085e-02
 1.6251739115e-02
 1.6306098551e-02
 1.6360545531e-02
 1.6415083781e-02
 1.6469709575e-02
 1.6524424776e-02
 1.6579227522e-02
 1.6634121537e-02
 1.6689104959e-02
 1.6744179651e-02
 1.6799341887e-02
 1.6854595393e-02
 1.6909938306e-02
 1.6965372488e-02
 1.7020896077e-02
 1.7076510936e-02
 1.7132217064e-02
 1.7188014463e-02
 1.7243901268e-02
 1.7299881205e-02
 1.7355950549e-02
 1.7412113026e-02
 1.7468366772e-02
 1.7524711788e-02
 1.7581149936e-02
 1.7637679353e-02
 1.7694301903e-02
 1.7751015723e-02
 1.7807822675e-02
 1.7864722759e-02
 1.7921715975e-02
 1.7978800461e-02
 1.8035979941e-02
 1.8093252555e-02
 1.8150618300e-02
 1.8208077177e-02
 1.8265631050e-02
 1.8323278055e-02
 1.8381020054e-02
 1.8438855186e-02
 1.8496785313e-02
 1.8554810435e-02
 1.8612928689e-02
 1.8671143800e-02
 1.8729452044e-02
 1.8787857145e-02
 1.8846357241e-02
 1.8904952332e-02
 1.8963644281e-02
 1.9022431225e-02
 1.9081313163e-02
 1.9140291959e-02
 1.9199367613e-02
 1.9258538261e-02
 1.9317807630e-02
 1.9377171993e-02
 1.9436635077e-02
 1.9496193156e-02
 1.9555849954e-02
 1.9615603611e-02
 1.9675455987e-02
 1.9735403359e-02
 1.9795451313e-02
 1.9855596125e-02
 1.9915839657e-02
 1.9976180047e-02
 2.0036621019e-02
 2.0097158849e-02
 2.0157797262e-02
 2.0218534395e-02
 2.0279368386e-02
 2.0340304822e-02
 2.0401338115e-02
 2.0462473854e-02
 2.0523706451e-02
 2.0585041493e-02
 2.0646475255e-02
 2.0708009601e-02
 2.0769644529e-02
 2.0831380039e-02
 2.0893216133e-02
 2.0955152810e-02
 2.1017191932e-02
 2.1079331636e-02
 2.1141571924e-02
 2.1203914657e-02
 2.1266359836e-02
 2.1328905597e-02
 2.1391555667e-02
 2.1454306319e-02
 2.1517159417e-02
 2.1580114961e-02
 2.1643174812e-02
 2.1706335247e-02
 2.1769599989e-02
 2.1832969040e-02
 2.1896440536e-02
 2.1960016340e-02
 2.2023694590e-02
 2.2087477148e-02
 2.2151364014e-02
 2.2215355188e-02
 2.2279452533e-02
 2.2343652323e-02
 2.2407958284e-02
 2.2472368553e-02
 2.2536883131e-02
 2.2601503879e-02
 2.2666230798e-02
 2.2731063887e-02
 2.2796001285e-02
 2.2861044854e-02
 2.2926194593e-02
 2.2991452366e-02
 2.3056814447e-02
 2.3122284561e-02
 2.3187860847e-02
 2.3253545165e-02
 2.3319335654e-02
 2.3385234177e-02
 2.3451240733e-02
 2.3517353460e-02
 2.3583576083e-02
 2.3649904877e-02
 2.3716343567e-02
 2.3782890290e-02
 2.3849545047e-02
 2.3916309699e-02
 2.3983182386e-02
 2.4050164968e-02
 2.4117255583e-02
 2.4184457958e-02
 2.4251768366e-02
 2.4319188669e-02
 2.4386718869e-02
 2.4454360828e-02
 2.4522112682e-02
 2.4589974433e-02
 2.4657947943e-02
 2.4726031348e-02
 2.4794226512e-02
 2.4862533435e-02
 2.4930950254e-02
 2.4999480695e-02
 2.5068122894e-02
 2.5136874989e-02
 2.5205740705e-02
 2.5274720043e-02
 2.5343811139e-02
 2.5413013995e-02
 2.5482330471e-02
 2.5551760569e-02
 2.5621304289e-02
 2.5690961629e-02
 2.5760730729e-02
 2.5830615312e-02
 2.5900615379e-02
 2.5970727205e-02
 2.6040954515e-02
 2.6111297309e-02
 2.6181753725e-02
 2.6252325624e-02
 2.6323013008e-02
 2.6393814012e-02
 2.6464732364e-02
 2.6535766199e-02
 2.6606917381e-02
 2.6678182185e-02
 2.6749564335e-02
 2.6821063831e-02
 2.6892678812e-02
 2.6964411139e-02
 2.7036260813e-02
 2.7108227834e-02
 2.7180312201e-02
 2.7252515778e-02
 2.7324834839e-02
 2.7397273108e-02
 2.7469830588e-02
 2.7542505413e-02
 2.7615297586e-02
 2.7688210830e-02
 2.7761241421e-02
 2.7834393084e-02
 2.7907662094e-02
 2.7981052175e-02
 2.8054561466e-02
 2.8128191829e-02
 2.8201941401e-02
 2.8275812045e-02
 2.8349801898e-02
 2.8423914686e-02
 2.8498146683e-02
 2.8572499752e-02
 2.8646975756e-02
 2.8721572831e-02
 2.8796290979e-02
 2.8871132061e-02
 2.8946094215e-02
 2.9021179304e-02
 2.9096387327e-02
 2.9171718284e-02
 2.9247170314e-02
 2.9322747141e-02
 2.9398448765e-02
 2.9474271461e-02
 2.9550218955e-02
 2.9626291245e-02
 2.9702486470e-02
 2.9778806493e-02
 2.9855251312e-02
 2.9931820929e-02
 3.0008515343e-02
 3.0085334554e-02
 3.0162280425e-02
 3.0239351094e-02
 3.0316548422e-02
 3.0393870547e-02
 3.0471319333e-02
 3.0548894778e-02
 3.0626596883e-02
 3.0704425648e-02
 3.0782381073e-02
 3.0860465020e-02
 3.0938675627e-02
 3.1017014757e-02
 3.1095480546e-02
 3.1174074858e-02
 3.1252797693e-02
 3.1331647187e-02
 3.1410630792e-02
 3.1489737332e-02
 3.1568977982e-02
 3.1648345292e-02
 3.1727839261e-02
 3.1807467341e-02
 3.1887225807e-02
 3.1967110932e-02
 3.2047130167e-02
 3.2127276063e-02
 3.2207556069e-02
 3.2287966460e-02
 3.2368507236e-02
 3.2449182123e-02
 3.2529987395e-02
 3.2610923052e-02
 3.2691989094e-02
 3.2773192972e-02
 3.2854527235e-02
 3.2935991883e-02
 3.3017590642e-02
 3.3099323511e-02
 3.3181190491e-02
 3.3263191581e-02
 3.3345323056e-02
 3.3427592367e-02
 3.3509992063e-02
 3.3592529595e-02
 3.3675201237e-02
 3.3758006990e-02
 3.3840950578e-02
 3.3924024552e-02
 3.4007240087e-02
 3.4090586007e-02
 3.4174073488e-02
 3.4257691354e-02
 3.4341450781e-02
 3.4425344318e-02
 3.4509375691e-02
 3.4593544900e-02
 3.4677848220e-02
 3.4762293100e-02
 3.4846875817e-02
 3.4931592643e-02
 3.5016451031e-02
 3.5101447254e-02
 3.5186581314e-02
 3.5271856934e-02
 3.5357270390e-02
 3.5442821681e-02
 3.5528514534e-02
 3.5614345223e-02
 3.5700317472e-02
 3.5786431283e-02
 3.5872686654e-02
 3.5959079862e-02
 3.6045614630e-02
 3.6132290959e-02
 3.6219108850e-02
 3.6306068301e-02
 3.6393169314e-02
 3.6480415612e-02
 3.6567799747e-02
 3.6655329168e-02
 3.6743000150e-02
 3.6830816418e-02
 3.6918774247e-02
 3.7006877363e-02
 3.7095122039e-02
 3.7183512002e-02
 3.7272047251e-02
 3.7360727787e-02
 3.7449549884e-02
 3.7538520992e-02
 3.7627633661e-02
 3.7716891617e-02
 3.7806298584e-02
 3.7895850837e-02
 3.7985544652e-02
 3.8075391203e-02
 3.8165379316e-02
 3.8255516440e-02
 3.8345802575e-02
 3.8436233997e-02
 3.8526814431e-02
 3.8617543876e-02
 3.8708418608e-02
 3.8799442351e-02
 3.8890615106e-02
 3.8981936872e-02
 3.9073407650e-02
 3.9165027440e-02
 3.9256796241e-02
 3.9348714054e-02
 3.9440784603e-02
 3.9533004165e-02
 3.9625376463e-02
 3.9717897773e-02
 3.9810568094e-02
 3.9903391153e-02
 3.9996366948e-02
 4.0089495480e-02
 4.0182773024e-02
 4.0276203305e-02
 4.0369786322e-02
 4.0463525802e-02
 4.0557414293e-02
 4.0651455522e-02
 4.0745653212e-02
 4.0840003639e-02
 4.0934506804e-02
 4.1029166430e-02
 4.1123978794e-02
 4.1218947619e-02
 4.1314069182e-02
 4.1409347206e-02
 4.1504781693e-02
 4.1600372642e-02
 4.1696116328e-02
 4.1792020202e-02
 4.1888080537e-02
 4.1984293610e-02
 4.2080666870e-02
 4.2177196592e-02
 4.2273882776e-02
 4.2370729148e-02
 4.2467731982e-02
 4.2564895004e-02
 4.2662214488e-02
 4.2759694159e-02
 4.2857334018e-02
 4.2955130339e-02
 4.3053090572e-02
 4.3151207268e-02
 4.3249484152e-02
 4.3347921222e-02
 4.3446522206e-02
 4.3545283377e-02
 4.3644201010e-02
 4.3743286282e-02
 4.3842528015e-02
 4.3941937387e-02
 4.4041506946e-02
 4.4141236693e-02
 4.4241130352e-02
 4.4341187924e-02
 4.4441409409e-02
 4.4541791081e-02
 4.4642340392e-02
 4.4743053615e-02
 4.4843930751e-02
 4.4944971800e-02
 4.5046176761e-02
 4.5147549361e-02
 4.5249085873e-02
 4.5350790024e-02
 4.5452658087e-02
 4.5554693788e-02
 4.5656897128e-02
 4.5759264380e-02
 4.5861799270e-02
 4.5964505523e-02
 4.6067375690e-02
 4.6170413494e-02
 4.6273622662e-02
 4.6376995742e-02
 4.6480540186e-02
 4.6584255993e-02
 4.6688139439e-02
 4.6792190522e-02
 4.6896412969e-02
 4.7000806779e-02
 4.7105368227e-02
 4.7210101038e-02
 4.7315005213e-02
 4.7420084476e-02
 4.7525331378e-02
 4.7630749643e-02
 4.7736342996e-02
 4.7842103988e-02
 4.7948043793e-02
 4.8054151237e-02
 4.8160433769e-02
 4.8266891390e-02
 4.8373520374e-02
 4.8480324447e-02
 4.8587303609e-02
 4.8694457859e-02
 4.8801783472e-02
 4.8909287900e-02
 4.9016967416e-02
 4.9124822021e-02
 4.9232851714e-02
 4.9341060221e-02
 4.9449443817e-02
 4.9558006227e-02
 4.9666743726e-02
 4.9775660038e-02
 4.9884751439e-02
 4.9994025379e-02
 5.0103474408e-02
 5.0213102251e-02
 5.0322908908e-02
 5.0432898104e-02
 5.0543062389e-02
 5.0653409213e-02
 5.0763938576e-02
 5.0874643028e-02
 5.0985530019e-02
 5.1096599549e-02
 5.1207851619e-02
 5.1319282502e-02
 5.1430895925e-02
 5.1542691886e-02
 5.1654670388e-02
 5.1766831428e-02
 5.1879175007e-02
 5.1991704851e-02
 5.2104417235e-02
 5.2217312157e-02
 5.2330393344e-02
 5.2443657070e-02
 5.2557107061e-02
 5.2670739591e-02
 5.2784562111e-02
 5.2898567170e-02
 5.3012758493e-02
 5.3127136081e-02
 5.3241703659e-02
 5.3356453776e-02
 5.3471393883e-02
 5.3586523980e-02
 5.3701836616e-02
 5.3817342967e-02
 5.3933035582e-02
 5.4048914462e-02
 5.4164987057e-02
 5.4281245917e-02
 5.4397694767e-02
 5.4514337331e-02
 5.4631166160e-02
 5.4748188704e-02
 5.4865397513e-02
 5.4982803762e-02
 5.5100396276e-02
 5.5218186229e-02
 5.5336162448e-02
 5.5454336107e-02
 5.5572699755e-02
 5.5691260844e-02
 5.5810011923e-02
 5.5928956717e-02
 5.6048098952e-02
 5.6167431176e-02
 5.6286960840e-02
 5.6406684220e-02
 5.6526605040e-02
 5.6646719575e-02
 5.6767031550e-02
 5.6887540966e-02
 5.7008247823e-02
 5.7129148394e-02
 5.7250246406e-02
 5.7371545583e-02
 5.7493038476e-02
 5.7614732534e-02
 5.7736627758e-02
 5.7858716697e-02
 5.7981006801e-02
 5.8103498071e-02
 5.8226186782e-02
 5.8349080384e-02
 5.8472171426e-02
 5.8595463634e-02
 5.8718957007e-02
 5.8842651546e-02
 5.8966547251e-02
 5.9090647846e-02
 5.9214949608e-02
 5.9339456260e-02
 5.9464164078e-02
 5.9589076787e-02
 5.9714190662e-02
 5.9839509428e-02
 5.9965036809e-02
 6.0090765357e-02
 6.0216698796e-02
 6.0342840850e-02
