aces_1.1_postwork/luts/Log2_4000_nits_Shaper_to_linear.spi1d
Version 1
From 0 1
Length 4096
Components 1
{
 4.3945314246e-05
 4.4124215492e-05
 4.4303815230e-05
 4.4484175305e-05
 4.4665241148e-05
 4.4847074605e-05
 4.5029617468e-05
 4.5212931582e-05
 4.5396966016e-05
 4.5581775339e-05
 4.5767304982e-05
 4.5953624067e-05
 4.6140670747e-05
 4.6328510507e-05
 4.6517081500e-05
 4.6706456487e-05
 4.6896562708e-05
 4.7087480198e-05
 4.7279143473e-05
 4.7471610742e-05
 4.7664841986e-05
 4.7858880862e-05
 4.8053683713e-05
 4.8249312385e-05
 4.8445701395e-05
 4.8642927140e-05
 4.8840916861e-05
 4.9039746955e-05
 4.9239355576e-05
 4.9439808208e-05
 4.9641046644e-05
 4.9843136367e-05
 5.0046008255e-05
 5.0249745982e-05
 5.0454280426e-05
 5.0659680710e-05
 5.0865884987e-05
 5.1072958740e-05
 5.1280840125e-05
 5.1489601901e-05
 5.1699189498e-05
 5.1909653848e-05
 5.2120944019e-05
 5.2333125495e-05
 5.2546143706e-05
 5.2760053222e-05
 5.2974803111e-05
 5.3190466133e-05
 5.3406969528e-05
 5.3624389693e-05
 5.3842653870e-05
 5.4061853007e-05
 5.4281899793e-05
 5.4502881540e-05
 5.4724725487e-05
 5.4947511671e-05
 5.5171167332e-05
 5.5395768868e-05
 5.5621243519e-05
 5.5847678595e-05
 5.6074997701e-05
 5.6303277233e-05
 5.6532451708e-05
 5.6762597524e-05
 5.6993638282e-05
 5.7225661294e-05
 5.7458586525e-05
 5.7692501287e-05
 5.7927325543e-05
 5.8163150243e-05
 5.8399895352e-05
 5.8637637267e-05
 5.8876314142e-05
 5.9115998738e-05
 5.9356618294e-05
 5.9598263761e-05
 5.9840844187e-05
 6.0084461438e-05
 6.0329024564e-05
 6.0574624513e-05
 6.0821177613e-05
 6.1068785726e-05
 6.1317354266e-05
 6.1566977820e-05
 6.1817576352e-05
 6.2069229898e-05
 6.2321872974e-05
 6.2575585616e-05
 6.2830287789e-05
 6.3086074078e-05
 6.3342849899e-05
 6.3600724388e-05
 6.3859595684e-05
 6.4119572926e-05
 6.4380554250e-05
 6.4642648795e-05
 6.4905769250e-05
 6.5169995651e-05
 6.5435255237e-05
 6.5701642598e-05
 6.5969077696e-05
 6.6237633291e-05
 6.6507243901e-05
 6.6777996835e-05
 6.7049797508e-05
 6.7322762334e-05
 6.7596789449e-05
 6.7871973442e-05
 6.8148241553e-05
 6.8425666541e-05
 6.8704182922e-05
 6.8983878009e-05
 6.9264664489e-05
 6.9546636951e-05
 6.9829722634e-05
 7.0113994298e-05
 7.0399379183e-05
 7.0685971878e-05
 7.0973692345e-05
 7.1262627898e-05
 7.1552691224e-05
 7.1843976912e-05
 7.2136412200e-05
 7.2430077125e-05
 7.2724891652e-05
 7.3020950367e-05
 7.3318173236e-05
 7.3616647569e-05
 7.3916300607e-05
 7.4217205110e-05
 7.4519295595e-05
 7.4822666647e-05
 7.5127216405e-05
 7.5433061284e-05
 7.5740092143e-05
 7.6048432675e-05
 7.6357981015e-05
 7.6668831753e-05
 7.6980897575e-05
 7.7294287621e-05
 7.7608900028e-05
 7.7924843936e-05
 7.8242024756e-05
 7.8560551628e-05
 7.8880315414e-05
 7.9201439803e-05
 7.9523815657e-05
 7.9847552115e-05
 8.0172561866e-05
 8.0498939496e-05
 8.0826597696e-05
 8.1155645603e-05
 8.1485974079e-05
 8.1817706814e-05
 8.2150734670e-05
 8.2485166786e-05
 8.2820908574e-05
 8.3158069174e-05
 8.3496553998e-05
 8.3836464910e-05
 8.4177707322e-05
 8.4520397650e-05
 8.4864419478e-05
 8.5209903773e-05
 8.5556734120e-05
 8.5905041487e-05
 8.6254702182e-05
 8.6605839897e-05
 8.6958360043e-05
 8.7312364485e-05
 8.7667751359e-05
 8.8024644356e-05
 8.8382941613e-05
 8.8742744992e-05
 8.9103959908e-05
 8.9466695499e-05
 8.9830864454e-05
 9.0196561359e-05
 9.0563691629e-05
 9.0932371677e-05
 9.1302499641e-05
 9.1674191935e-05
 9.2047332146e-05
 9.2422065791e-05
 9.2798240075e-05
 9.3176029623e-05
 9.3555288913e-05
 9.3936148915e-05
 9.4318500487e-05
 9.4702474598e-05
 9.5087940281e-05
 9.5475043054e-05
 9.5863659226e-05
 9.6253927040e-05
 9.6645708254e-05
 9.7039148386e-05
 9.7434131021e-05
 9.7830779850e-05
 9.8228985735e-05
 9.8628872365e-05
 9.9030323327e-05
 9.9433484138e-05
 9.9838202004e-05
 1.0024465155e-04
 1.0065268725e-04
 1.0106243280e-04
 1.0147379362e-04
 1.0188688611e-04
 1.0230160115e-04
 1.0271806968e-04
 1.0313616804e-04
 1.0355604172e-04
 1.0397754522e-04
 1.0440083861e-04
 1.0482578364e-04
 1.0525252583e-04
 1.0568094876e-04
 1.0611116886e-04
 1.0654307698e-04
 1.0697681137e-04
 1.0741224833e-04
 1.0784951155e-04
 1.0828850645e-04
 1.0872934217e-04
 1.0917190230e-04
 1.0961634689e-04
 1.1006252316e-04
 1.1051059118e-04
 1.1096040544e-04
 1.1141211144e-04
 1.1186560732e-04
 1.1232100951e-04
 1.1277819431e-04
 1.1323731451e-04
 1.1369822460e-04
 1.1416108464e-04
 1.1462575640e-04
 1.1509239994e-04
 1.1556086247e-04
 1.1603131861e-04
 1.1650359374e-04
 1.1697788432e-04
 1.1745402298e-04
 1.1793218437e-04
 1.1841220112e-04
 1.1889426241e-04
 1.1937820091e-04
 1.1986418394e-04
 1.2035207328e-04
 1.2084202899e-04
 1.2133389828e-04
 1.2182784849e-04
 1.2232371955e-04
 1.2282171519e-04
 1.2332163169e-04
 1.2382367277e-04
 1.2432767835e-04
 1.2483380851e-04
 1.2534193229e-04
 1.2585218064e-04
 1.2636445172e-04
 1.2687889102e-04
 1.2739530939e-04
 1.2791393965e-04
 1.2843459263e-04
 1.2895745749e-04
 1.2948234507e-04
 1.3000947365e-04
 1.3053865405e-04
 1.3107007544e-04
 1.3160357776e-04
 1.3213933562e-04
 1.3267718896e-04
 1.3321731240e-04
 1.3375954586e-04
 1.3430409308e-04
 1.3485075033e-04
 1.3539973588e-04
 1.3595084602e-04
 1.3650431356e-04
 1.3705992023e-04
 1.3761789887e-04
 1.3817804575e-04
 1.3874056458e-04
 1.3930528075e-04
 1.3987239799e-04
 1.4044172713e-04
 1.4101345732e-04
 1.4158742852e-04
 1.4216382988e-04
 1.4274250134e-04
 1.4332358842e-04
 1.4390697470e-04
 1.4449282025e-04
 1.4508093591e-04
 1.4567156904e-04
 1.4626450138e-04
 1.4685993665e-04
 1.4745771477e-04
 1.4805801038e-04
 1.4866064885e-04
 1.4926586300e-04
 1.4987342001e-04
 1.5048355272e-04
 1.5109607193e-04
 1.5171118139e-04
 1.5232869191e-04
 1.5294882178e-04
 1.5357136726e-04
 1.5419656120e-04
 1.5482419985e-04
 1.5545448696e-04
 1.5608724789e-04
 1.5672265727e-04
 1.5736058413e-04
 1.5800120309e-04
 1.5864431043e-04
 1.5929015353e-04
 1.5993851412e-04
 1.6058962501e-04
 1.6124326794e-04
 1.6189969028e-04
 1.6255867376e-04
 1.6322046577e-04
 1.6388481890e-04
 1.6455199511e-04
 1.6522177611e-04
 1.6589439474e-04
 1.6656963271e-04
 1.6724775196e-04
 1.6792849055e-04
 1.6861212498e-04
 1.6929843696e-04
 1.6998765932e-04
 1.7067955923e-04
 1.7137439863e-04
 1.7207194469e-04
 1.7277244478e-04
 1.7347569519e-04
 1.7418189964e-04
 1.7489088350e-04
 1.7560286506e-04
 1.7631764058e-04
 1.7703541380e-04
 1.7775601009e-04
 1.7847966228e-04
 1.7920612299e-04
 1.7993566871e-04
 1.8066808116e-04
 1.8140356406e-04
 1.8214194279e-04
 1.8288343563e-04
 1.8362782430e-04
 1.8437538529e-04
 1.8512587121e-04
 1.8587950035e-04
 1.8663609808e-04
 1.8739589723e-04
 1.8815865042e-04
 1.8892464868e-04
 1.8969363009e-04
 1.9046587113e-04
 1.9124113896e-04
 1.9201966643e-04
 1.9280124980e-04
 1.9358616555e-04
 1.9437409355e-04
 1.9516541215e-04
 1.9595978665e-04
 1.9675753720e-04
 1.9755840185e-04
 1.9836267165e-04
 1.9917008467e-04
 1.9998090283e-04
 2.0079489332e-04
 2.0161231805e-04
 2.0243294421e-04
 2.0325704827e-04
 2.0408436831e-04
 2.0491520991e-04
 2.0574928203e-04
 2.0658689027e-04
 2.0742775814e-04
 2.0827219123e-04
 2.0911992760e-04
 2.0997124375e-04
 2.1082590683e-04
 2.1168417879e-04
 2.1254579769e-04
 2.1341108368e-04
 2.1427973115e-04
 2.1515206026e-04
 2.1602780907e-04
 2.1690725407e-04
 2.1779014787e-04
 2.1867675241e-04
 2.1956684941e-04
 2.2046070080e-04
 2.2135804466e-04
 2.2225920111e-04
 2.2316386458e-04
 2.2407235519e-04
 2.2498441103e-04
 2.2590032313e-04
 2.2681980045e-04
 2.2774319223e-04
 2.2867019288e-04
 2.2960110800e-04
 2.3053566110e-04
 2.3147417232e-04
 2.3241633608e-04
 2.3336250160e-04
 2.3431236332e-04
 2.3526624136e-04
 2.3622387380e-04
 2.3718553712e-04
 2.3815095483e-04
 2.3912044708e-04
 2.4009375193e-04
 2.4107117497e-04
 2.4205242516e-04
 2.4303782266e-04
 2.4402704730e-04
 2.4502049200e-04
 2.4601782206e-04
 2.4701934308e-04
 2.4802479311e-04
 2.4903452140e-04
 2.5004814961e-04
 2.5106611429e-04
 2.5208803709e-04
 2.5311429636e-04
 2.5414454285e-04
 2.5517918402e-04
 2.5621781242e-04
 2.5726089370e-04
 2.5830802042e-04
 2.5935960002e-04
 2.6041525416e-04
 2.6147541939e-04
 2.6253971737e-04
 2.6360852644e-04
 2.6468149736e-04
 2.6575900847e-04
 2.6684073964e-04
 2.6792704011e-04
 2.6901758974e-04
 2.7011273778e-04
 2.7121219318e-04
 2.7231630520e-04
 2.7342472458e-04
 2.7453785879e-04
 2.7565530036e-04
 2.7677748585e-04
 2.7790406602e-04
 2.7903541923e-04
 2.8017116711e-04
 2.8131177532e-04
 2.8245677822e-04
 2.8360667056e-04
 2.8476104490e-04
 2.8592030867e-04
 2.8708408354e-04
 2.8825283516e-04
 2.8942609788e-04
 2.9060433735e-04
 2.9178720433e-04
 2.9297504807e-04
 2.9416757752e-04
 2.9536511283e-04
 2.9656739207e-04
 2.9777467716e-04
 2.9898673529e-04
 3.0020391569e-04
 3.0142581090e-04
 3.0265294481e-04
 3.0388485175e-04
 3.0512193916e-04
 3.0636388692e-04
 3.0761110247e-04
 3.0886317836e-04
 3.1012055115e-04
 3.1138284248e-04
 3.1265048892e-04
 3.1392308301e-04
 3.1520106131e-04
 3.1648404547e-04
 3.1777244294e-04
 3.1906587537e-04
 3.2036480843e-04
 3.2166877645e-04
 3.2297830330e-04
 3.2429292332e-04
 3.2561313128e-04
 3.2693846151e-04
 3.2826943789e-04
 3.2960562385e-04
 3.3094742685e-04
 3.3229449764e-04
 3.3364727278e-04
 3.3500531572e-04
 3.3636912121e-04
 3.3773825271e-04
 3.3911317587e-04
 3.4049351234e-04
 3.4187964047e-04
 3.4327121102e-04
 3.4466866055e-04
 3.4607158159e-04
 3.4748041071e-04
 3.4889479866e-04
 3.5031515290e-04
 3.5174103687e-04
 3.5317297443e-04
 3.5461076186e-04
 3.5605413723e-04
 3.5750339157e-04
 3.5895878682e-04
 3.6042009015e-04
 3.6188712693e-04
 3.6336013000e-04
 3.6483936128e-04
 3.6632464617e-04
 3.6781569361e-04
 3.6931282375e-04
 3.7081629853e-04
 3.7232588511e-04
 3.7384135067e-04
 3.7536301534e-04
 3.7689111196e-04
 3.7842546590e-04
 3.7996575702e-04
 3.8151236367e-04
 3.8306548959e-04
 3.8462493103e-04
 3.8619051338e-04
 3.8776241126e-04
 3.8934100303e-04
 3.9092602674e-04
 3.9251722046e-04
 3.9411487523e-04
 3.9571931120e-04
 3.9733029553e-04
 3.9894756628e-04
 4.0057141450e-04
 4.0220213123e-04
 4.0383948362e-04
 4.0548326797e-04
 4.0713368799e-04
 4.0879112203e-04
 4.1045530816e-04
 4.1212604265e-04
 4.1380350012e-04
 4.1548811714e-04
 4.1717957356e-04
 4.1887763655e-04
 4.2058259714e-04
 4.2229480459e-04
 4.2401393875e-04
 4.2573979590e-04
 4.2747272528e-04
 4.2921295972e-04
 4.3096026639e-04
 4.3271444156e-04
 4.3447571807e-04
 4.3624447426e-04
 4.3802041910e-04
 4.3980329065e-04
 4.4159346726e-04
 4.4339118176e-04
 4.4519620133e-04
 4.4700835133e-04
 4.4882780639e-04
 4.5065497397e-04
 4.5248959213e-04
 4.5433136984e-04
 4.5618065633e-04
 4.5803774265e-04
 4.5990242506e-04
 4.6177441254e-04
 4.6365396702e-04
 4.6554149594e-04
 4.6743670828e-04
 4.6933931299e-04
 4.7124968842e-04
 4.7316812561e-04
 4.7509442084e-04
 4.7702819575e-04
 4.7896988690e-04
 4.8091975623e-04
 4.8287757090e-04
 4.8484303989e-04
 4.8681651242e-04
 4.8879830865e-04
 4.9078825396e-04
 4.9278594088e-04
 4.9479171867e-04
 4.9680599477e-04
 4.9882847816e-04
 5.0085887779e-04
 5.0289754290e-04
 5.0494488096e-04
 5.0700048450e-04
 5.0906412071e-04
 5.1113619702e-04
 5.1321706269e-04
 5.1530636847e-04
 5.1740382332e-04
 5.1950977650e-04
 5.2162469365e-04
 5.2374828374e-04
 5.2588013932e-04
 5.2802060964e-04
 5.3017016035e-04
 5.3232850041e-04
 5.3449528059e-04
 5.3667079192e-04
 5.3885561647e-04
 5.4104928859e-04
 5.4325151723e-04
 5.4546276806e-04
 5.4768327391e-04
 5.4991291836e-04
 5.5215129396e-04
 5.5439869175e-04
 5.5665569380e-04
 5.5892177625e-04
 5.6119682267e-04
 5.6348106591e-04
 5.6577497162e-04
 5.6807824876e-04
 5.7039054809e-04
 5.7271221885e-04
 5.7504372671e-04
 5.7738472242e-04
 5.7973485673e-04
 5.8209459530e-04
 5.8446428739e-04
 5.8684364194e-04
 5.8923225151e-04
 5.9163063997e-04
 5.9403915657e-04
 5.9645751026e-04
 5.9888529358e-04
 6.0132297222e-04
 6.0377095360e-04
 6.0622888850e-04
 6.0869642766e-04
 6.1117403675e-04
 6.1366212321e-04
 6.1616027961e-04
 6.1866827309e-04
 6.2118645292e-04
 6.2371534295e-04
 6.2625447754e-04
 6.2880350742e-04
 6.3136295648e-04
 6.3393323217e-04
 6.3651398523e-04
 6.3910480822e-04
 6.4170616679e-04
 6.4431858482e-04
 6.4694159664e-04
 6.4957485301e-04
 6.5221881960e-04
 6.5487402026e-04
 6.5753998933e-04
 6.6021643579e-04
 6.6290370887e-04
 6.6560239065e-04
 6.6831207369e-04
 6.7103229230e-04
 6.7376362858e-04
 6.7650654819e-04
 6.7926058546e-04
 6.8202539114e-04
 6.8480148911e-04
 6.8758928683e-04
 6.9038849324e-04
 6.9319852628e-04
 6.9602008443e-04
 6.9885363337e-04
 7.0169864921e-04
 7.0455484092e-04
 7.0742279058e-04
 7.1030243998e-04
 7.1319384733e-04
 7.1609701263e-04
 7.1901199408e-04
 7.2193890810e-04
 7.2487763828e-04
 7.2782841744e-04
 7.3079118738e-04
 7.3376588989e-04
 7.3675287422e-04
 7.3975190753e-04
 7.4276322266e-04
 7.4578676140e-04
 7.4882258195e-04
 7.5187080074e-04
 7.5493141776e-04
 7.5800443301e-04
 7.6109007932e-04
 7.6418818207e-04
 7.6729897410e-04
 7.7042239718e-04
 7.7355850954e-04
 7.7670742758e-04
 7.7986915130e-04
 7.8304373892e-04
 7.8623119043e-04
 7.8943173867e-04
 7.9264520900e-04
 7.9587177606e-04
 7.9911155626e-04
 8.0236443318e-04
 8.0563058145e-04
 8.0891000107e-04
 8.1220286665e-04
 8.1550906179e-04
 8.1882876111e-04
 8.2216190640e-04
 8.2550861407e-04
 8.2886900054e-04
 8.3224306582e-04
 8.3563086810e-04
 8.3903240738e-04
 8.4244785830e-04
 8.4587716265e-04
 8.4932043683e-04
 8.5277773906e-04
 8.5624906933e-04
 8.5973460227e-04
 8.6323427968e-04
 8.6674827617e-04
 8.7027641712e-04
 8.7381905178e-04
 8.7737606373e-04
 8.8094762759e-04
 8.8453362696e-04
 8.8813423645e-04
 8.9174951427e-04
 8.9537957683e-04
 8.9902436594e-04
 9.0268399799e-04
 9.0635853121e-04
 9.1004796559e-04
 9.1375253396e-04
 9.1747211991e-04
 9.2120683985e-04
 9.2495669378e-04
 9.2872197274e-04
 9.3250244390e-04
 9.3629834009e-04
 9.4010966131e-04
 9.4393652398e-04
 9.4777904451e-04
 9.5163704827e-04
 9.5551082632e-04
 9.5940049505e-04
 9.6330582164e-04
 9.6722715534e-04
 9.7116437973e-04
 9.7511761123e-04
 9.7908708267e-04
 9.8307256121e-04
 9.8707433790e-04
 9.9109241273e-04
 9.9512678571e-04
 9.9917768966e-04
 1.0032450082e-03
 1.0073287413e-03
 1.0114292381e-03
 1.0155464988e-03
 1.0196804069e-03
 1.0238311952e-03
 1.0279988637e-03
 1.0321835289e-03
 1.0363851907e-03
 1.0406039655e-03
 1.0448398534e-03
 1.0490930872e-03
 1.0533636669e-03
 1.0576515924e-03
 1.0619568639e-03
 1.0662797140e-03
 1.0706201429e-03
 1.0749782668e-03
 1.0793540860e-03
 1.0837478330e-03
 1.0881593917e-03
 1.0925889947e-03
 1.0970365256e-03
 1.1015022174e-03
 1.1059860699e-03
 1.1104880832e-03
 1.1150086066e-03
 1.1195474071e-03
 1.1241047177e-03
 1.1286805384e-03
 1.1332749855e-03
 1.1378881754e-03
 1.1425202247e-03
 1.1471709004e-03
 1.1518407846e-03
 1.1565295281e-03
 1.1612372473e-03
 1.1659644078e-03
 1.1707106605e-03
 1.1754761217e-03
 1.1802611407e-03
 1.1850654846e-03
 1.1898896191e-03
 1.1947331950e-03
 1.1995965615e-03
 1.2044797186e-03
 1.2093827827e-03
 1.2143057538e-03
 1.2192487484e-03
 1.2242119992e-03
 1.2291952735e-03
 1.2341989204e-03
 1.2392229401e-03
 1.2442674488e-03
 1.2493324466e-03
 1.2544180499e-03
 1.2595243752e-03
 1.2646514224e-03
 1.2697994243e-03
 1.2749683810e-03
 1.2801582925e-03
 1.2853693916e-03
 1.2906016782e-03
 1.2958552688e-03
 1.3011302799e-03
 1.3064268278e-03
 1.3117447961e-03
 1.3170844177e-03
 1.3224458089e-03
 1.3278290862e-03
 1.3332342496e-03
 1.3386614155e-03
 1.3441107003e-03
 1.3495819876e-03
 1.3550757430e-03
 1.3605918502e-03
 1.3661303092e-03
 1.3716913527e-03
 1.3772750972e-03
 1.3828814263e-03
 1.3885106891e-03
 1.3941628858e-03
 1.3998380164e-03
 1.4055363135e-03
 1.4112577774e-03
 1.4170025242e-03
 1.4227706706e-03
 1.4285623329e-03
 1.4343775110e-03
 1.4402163215e-03
 1.4460789971e-03
 1.4519654214e-03
 1.4578760602e-03
 1.4638104476e-03
 1.4697691659e-03
 1.4757520985e-03
 1.4817594783e-03
 1.4877910726e-03
 1.4938474633e-03
 1.4999284176e-03
 1.5060340520e-03
 1.5121645993e-03
 1.5183201758e-03
 1.5245007817e-03
 1.5307064168e-03
 1.5369375469e-03
 1.5431937063e-03
 1.5494757099e-03
 1.5557830920e-03
 1.5621160856e-03
 1.5684749233e-03
 1.5748597216e-03
 1.5812703641e-03
 1.5877072001e-03
 1.5941703459e-03
 1.6006595688e-03
 1.6071753344e-03
 1.6137176426e-03
 1.6202864936e-03
 1.6268822365e-03
 1.6335046384e-03
 1.6401541652e-03
 1.6468305839e-03
 1.6535343602e-03
 1.6602652613e-03
 1.6670236364e-03
 1.6738094855e-03
 1.6806229251e-03
 1.6874643043e-03
 1.6943333903e-03
 1.7012304161e-03
 1.7081554979e-03
 1.7151089851e-03
 1.7220905283e-03
 1.7291004770e-03
 1.7361391801e-03
 1.7432064051e-03
 1.7503023846e-03
 1.7574273515e-03
 1.7645810731e-03
 1.7717642477e-03
 1.7789765261e-03
 1.7862181412e-03
 1.7934890930e-03
 1.8007899635e-03
 1.8081202870e-03
 1.8154805293e-03
 1.8228706904e-03
 1.8302910030e-03
 1.8377415836e-03
 1.8452224322e-03
 1.8527335487e-03
 1.8602755154e-03
 1.8678479828e-03
 1.8754514167e-03
 1.8830858171e-03
 1.8907511840e-03
 1.8984478666e-03
 1.9061757484e-03
 1.9139352953e-03
 1.9217260415e-03
 1.9295489183e-03
 1.9374034600e-03
 1.9452898996e-03
 1.9532085862e-03
 1.9611592870e-03
 1.9691425841e-03
 1.9771582447e-03
 1.9852065016e-03
 1.9932878204e-03
 2.0014017355e-03
 2.0095487125e-03
 2.0177289844e-03
 2.0259425510e-03
 2.0341894124e-03
 2.0424700342e-03
 2.0507841837e-03
 2.0591323264e-03
 2.0675142296e-03
 2.0759303588e-03
 2.0843809471e-03
 2.0928655285e-03
 2.1013850346e-03
 2.1099389996e-03
 2.1185278893e-03
 2.1271517035e-03
 2.1358106751e-03
 2.1445048042e-03
 2.1532343235e-03
 2.1619994659e-03
 2.1708002314e-03
 2.1796368528e-03
 2.1885093302e-03
 2.1974178962e-03
 2.2063630167e-03
 2.2153442260e-03
 2.2243622225e-03
 2.2334167734e-03
 2.2425083444e-03
 2.2516367026e-03
 2.2608025465e-03
 2.2700056434e-03
 2.2792459931e-03
 2.2885238286e-03
 2.2978398483e-03
 2.3071935866e-03
 2.3165852763e-03
 2.3260153830e-03
 2.3354839068e-03
 2.3449906148e-03
 2.3545364384e-03
 2.3641209118e-03
 2.3737445008e-03
 2.3834072053e-03
 2.3931092583e-03
 2.4028508924e-03
 2.4126321077e-03
 2.4224529043e-03
 2.4323139805e-03
 2.4422151037e-03
 2.4521565065e-03
 2.4621384218e-03
 2.4721610826e-03
 2.4822242558e-03
 2.4923286401e-03
 2.5024742354e-03
 2.5126608089e-03
 2.5228888262e-03
 2.5331587531e-03
 2.5434705894e-03
 2.5538241025e-03
 2.5642197579e-03
 2.5746577885e-03
 2.5851384271e-03
 2.5956616737e-03
 2.6062277611e-03
 2.6168369222e-03
 2.6274889242e-03
 2.6381846983e-03
 2.6489240117e-03
 2.6597066317e-03
 2.6705334894e-03
 2.6814043522e-03
 2.6923194528e-03
 2.7032790240e-03
 2.7142830659e-03
 2.7253320441e-03
 2.7364259586e-03
 2.7475650422e-03
 2.7587495279e-03
 2.7699794155e-03
 2.7812551707e-03
 2.7925765608e-03
 2.8039442841e-03
 2.8153590392e-03
 2.8268184979e-03
 2.8383263852e-03
 2.8498794418e-03
 2.8614811599e-03
 2.8731285129e-03
 2.8848247603e-03
 2.8965673409e-03
 2.9083588161e-03
 2.9201970901e-03
 2.9320849571e-03
 2.9440196231e-03
 2.9560045805e-03
 2.9680368025e-03
 2.9801197816e-03
 2.9922497924e-03
 3.0044310261e-03
 3.0166602228e-03
 3.0289408751e-03
 3.0412697233e-03
 3.0536507256e-03
 3.0660801567e-03
 3.0785622075e-03
 3.0910926871e-03
 3.1036767177e-03
 3.1163096428e-03
 3.1289961189e-03
 3.1417321879e-03
 3.1545222737e-03
 3.1673621852e-03
 3.1802565791e-03
 3.1932010315e-03
 3.2062008977e-03
 3.2192510553e-03
 3.2323563937e-03
 3.2455131877e-03
 3.2587258611e-03
 3.2719899900e-03
 3.2853102311e-03
 3.2986823935e-03
 3.3121111337e-03
 3.3255927265e-03
 3.3391311299e-03
 3.3527226187e-03
 3.3663716167e-03
 3.3800737001e-03
 3.3938339911e-03
 3.4076480661e-03
 3.4215205815e-03
 3.4354471136e-03
 3.4494330175e-03
 3.4634731710e-03
 3.4775729291e-03
 3.4917281009e-03
 3.5059426446e-03
 3.5202130675e-03
 3.5345440265e-03
 3.5489308648e-03
 3.5633784719e-03
 3.5778826568e-03
 3.5924480762e-03
 3.6070703063e-03
 3.6217547022e-03
 3.6364966072e-03
 3.6513006780e-03
 3.6661627237e-03
 3.6810878664e-03
 3.6960709840e-03
 3.7111176644e-03
 3.7262232509e-03
 3.7413926329e-03
 3.7566213869e-03
 3.7719146349e-03
 3.7872672547e-03
 3.8026852999e-03
 3.8181636482e-03
 3.8337074220e-03
 3.8493117318e-03
 3.8649821654e-03
 3.8807140663e-03
 3.8965123240e-03
 3.9123725146e-03
 3.9282999933e-03
 3.9442889392e-03
 3.9603463374e-03
 3.9764661342e-03
 3.9926548488e-03
 4.0089059621e-03
 4.0252259932e-03
 4.0416102856e-03
 4.0580634959e-03
 4.0745814331e-03
 4.0911687538e-03
 4.1078212671e-03
 4.1245440952e-03
 4.1413321160e-03
 4.1581918485e-03
 4.1751167737e-03
 4.1921138763e-03
 4.2091775686e-03
 4.2263125069e-03
 4.2435149662e-03
 4.2607905343e-03
 4.2781331576e-03
 4.2955493554e-03
 4.3130340055e-03
 4.3305922300e-03
 4.3482189067e-03
 4.3659210205e-03
 4.3836915866e-03
 4.4015371241e-03
 4.4194529764e-03
 4.4374447316e-03
 4.4555068016e-03
 4.4736452401e-03
 4.4918539934e-03
 4.5101405121e-03
 4.5284982771e-03
 4.5469338074e-03
 4.5654415153e-03
 4.5840269886e-03
 4.6026855707e-03
 4.6214233153e-03
 4.6402337030e-03
 4.6591241844e-03
 4.6780887060e-03
 4.6971328557e-03
 4.7162519768e-03
 4.7354516573e-03
 4.7547267750e-03
 4.7740829177e-03
 4.7935154289e-03
 4.8130294308e-03
 4.8326202668e-03
 4.8522935249e-03
 4.8720440827e-03
 4.8918784596e-03
 4.9117896706e-03
 4.9317856319e-03
 4.9518598244e-03
 4.9720187671e-03
 4.9922564067e-03
 5.0125797279e-03
 5.0329826772e-03
 5.0534722395e-03
 5.0740414299e-03
 5.0946976990e-03
 5.1154349931e-03
 5.1362598315e-03
 5.1571661606e-03
 5.1781609654e-03
 5.1992377266e-03
 5.2204038948e-03
 5.2416524850e-03
 5.2629909478e-03
 5.2844132297e-03
 5.3059263155e-03
 5.3275232203e-03
 5.3492113948e-03
 5.3709847853e-03
 5.3928494453e-03
 5.4148007184e-03
 5.4368437268e-03
 5.4589738138e-03
 5.4811974987e-03
 5.5035073310e-03
 5.5259121582e-03
 5.5484045297e-03
 5.5709923618e-03
 5.5936682038e-03
 5.6164395064e-03
 5.6393002160e-03
 5.6622582488e-03
 5.6853052229e-03
 5.7084504515e-03
 5.7316855527e-03
 5.7550189085e-03
 5.7784439996e-03
 5.8019678108e-03
 5.8255838230e-03
 5.8492999524e-03
 5.8731087483e-03
 5.8970176615e-03
 5.9210211039e-03
 5.9451251291e-03
 5.9693236835e-03
 5.9936251491e-03
 6.0180211440e-03
 6.0425200500e-03
 6.0671153478e-03
 6.0918144882e-03
 6.1166104861e-03
 6.1415103264e-03
 6.1665088870e-03
 6.1916126870e-03
 6.2168147415e-03
 6.2421229668e-03
 6.2675308436e-03
 6.2930458225e-03
 6.3186604530e-03
 6.3443835825e-03
 6.3702077605e-03
 6.3961409032e-03
 6.4221750945e-03
 6.4483196475e-03
 6.4745666459e-03
 6.5009244718e-03
 6.5273852088e-03
 6.5539586358e-03
 6.5806349739e-03
 6.6074249335e-03
 6.6343196668e-03
 6.6613275558e-03
 6.6884411499e-03
 6.7156702280e-03
 6.7430054769e-03
 6.7704557441e-03
 6.7980135791e-03
 6.8256882951e-03
 6.8534715101e-03
 6.8813716061e-03
 6.9093815982e-03
 6.9375089370e-03
 6.9657475688e-03
 6.9941044785e-03
 7.0225731470e-03
 7.0511614904e-03
 7.0798625238e-03
 7.1086841635e-03
 7.1376194246e-03
 7.1666762233e-03
 7.1958475746e-03
 7.2251418605e-03
 7.2545502335e-03
 7.2840834036e-03
 7.3137325235e-03
 7.3435064405e-03
 7.3733967729e-03
 7.4034132995e-03
 7.4335481040e-03
 7.4638100341e-03
 7.4941902421e-03
 7.5246989727e-03
 7.5553269126e-03
 7.5860847719e-03
 7.6169627719e-03
 7.6479711570e-03
 7.6791010797e-03
 7.7103627846e-03
 7.7417460270e-03
 7.7732633799e-03
 7.8049027361e-03
 7.8366771340e-03
 7.8685740009e-03
 7.9006068408e-03
 7.9327654094e-03
 7.9650599509e-03
 7.9974802211e-03
 8.0300383270e-03
 8.0627230927e-03
 8.0955466256e-03
 8.1284977496e-03
 8.1615885720e-03
 8.1948088482e-03
 8.2281697541e-03
 8.2616610453e-03
 8.2952948287e-03
 8.3290589973e-03
 8.3629675210e-03
 8.3970073611e-03
 8.4311915562e-03
 8.4655089304e-03
 8.4999715909e-03
 8.5345692933e-03
 8.5693132132e-03
 8.6041940376e-03
 8.6392210796e-03
 8.6743859574e-03
 8.7096989155e-03
 8.7451506406e-03
 8.7807523087e-03
 8.8164927438e-03
 8.8523840532e-03
 8.8884169236e-03
 8.9246015996e-03
 8.9609278366e-03
 8.9974077418e-03
 9.0340301394e-03
 9.0708071366e-03
 9.1077284887e-03
 9.1448053718e-03
 9.1820275411e-03
 9.2194089666e-03
 9.2569338158e-03
 9.2946188524e-03
 9.3324519694e-03
 9.3704434112e-03
 9.4085847959e-03
 9.4468863681e-03
 9.4853388146e-03
 9.5239533111e-03
 9.5627196133e-03
 9.6016488969e-03
 9.6407309175e-03
 9.6799787134e-03
 9.7193792462e-03
