aces_1.1_postwork/luts/Log2_2000_nits_Shaper_to_linear.spi1d
Version 1
From 0 1
Length 4096
Components 1
{
 4.3945314246e-05
 4.4116717618e-05
 4.4288826757e-05
 4.4461572543e-05
 4.4635020458e-05
 4.4809112296e-05
 4.4983917178e-05
 4.5159376896e-05
 4.5335546019e-05
 4.5512373617e-05
 4.5689892431e-05
 4.5868135203e-05
 4.6047040087e-05
 4.6226676204e-05
 4.6406974434e-05
 4.6588014811e-05
 4.6769728215e-05
 4.6952151024e-05
 4.7135315981e-05
 4.7319161240e-05
 4.7503755923e-05
 4.7689045459e-05
 4.7875084420e-05
 4.8061818234e-05
 4.8249312385e-05
 4.8437505029e-05
 4.8626428907e-05
 4.8816127673e-05
 4.9006532208e-05
 4.9197707995e-05
 4.9389600463e-05
 4.9582275096e-05
 4.9775673688e-05
 4.9969818065e-05
 5.0164755521e-05
 5.0360413297e-05
 5.0556875067e-05
 5.0754071708e-05
 5.0952068705e-05
 5.1150800573e-05
 5.1350347348e-05
 5.1550632634e-05
 5.1751707360e-05
 5.1953593356e-05
 5.2156236052e-05
 5.2359704569e-05
 5.2563926147e-05
 5.2768984460e-05
 5.2974803111e-05
 5.3181429394e-05
 5.3388896049e-05
 5.3597133956e-05
 5.3806226788e-05
 5.4016094509e-05
 5.4226813518e-05
 5.4438321968e-05
 5.4650692618e-05
 5.4863852711e-05
 5.5077845900e-05
 5.5292708566e-05
 5.5508375226e-05
 5.5724915001e-05
 5.5942269682e-05
 5.6160504755e-05
 5.6379554735e-05
 5.6599459640e-05
 5.6820259488e-05
 5.7041881519e-05
 5.7264409406e-05
 5.7487766753e-05
 5.7712029957e-05
 5.7937129895e-05
 5.8163150243e-05
 5.8390010963e-05
 5.8617759350e-05
 5.8846431784e-05
 5.9075959143e-05
 5.9306421463e-05
 5.9537738707e-05
 5.9770001826e-05
 6.0003130784e-05
 6.0237169237e-05
 6.0472160840e-05
 6.0708025558e-05
 6.0944850702e-05
 6.1182567151e-05
 6.1421240389e-05
 6.1660815845e-05
 6.1901359004e-05
 6.2142804381e-05
 6.2385188357e-05
 6.2628554588e-05
 6.2872837589e-05
 6.3118110120e-05
 6.3364299422e-05
 6.3611478254e-05
 6.3859595684e-05
 6.4108717197e-05
 6.4358770032e-05
 6.4609797846e-05
 6.4861844294e-05
 6.5114836616e-05
 6.5368854848e-05
 6.5623818955e-05
 6.5879823524e-05
 6.6136788519e-05
 6.6394750320e-05
 6.6653759859e-05
 6.6913744377e-05
 6.7174776632e-05
 6.7436791142e-05
 6.7699867941e-05
 6.7963919719e-05
 6.8229011958e-05
 6.8495181040e-05
 6.8762339652e-05
 6.9030589657e-05
 6.9299836468e-05
 6.9570189225e-05
 6.9841538789e-05
 7.0113994298e-05
 7.0387468440e-05
 7.0662012149e-05
 7.0937676355e-05
 7.1214359195e-05
 7.1492169809e-05
 7.1771020885e-05
 7.2051007010e-05
 7.2332040872e-05
 7.2614209785e-05
 7.2897440987e-05
 7.3181770858e-05
 7.3467257607e-05
 7.3753813922e-05
 7.4041534390e-05
 7.4330324423e-05
 7.4620300438e-05
 7.4911353295e-05
 7.5203541201e-05
 7.5496915088e-05
 7.5791380368e-05
 7.6087053458e-05
 7.6383825217e-05
 7.6681804785e-05
 7.6980897575e-05
 7.7281154518e-05
 7.7582633821e-05
 7.7885248174e-05
 7.8189084888e-05
 7.8494056652e-05
 7.8800265328e-05
 7.9107616330e-05
 7.9416226072e-05
 7.9725985415e-05
 8.0036952568e-05
 8.0349185737e-05
 8.0662575783e-05
 8.0977253674e-05
 8.1293095718e-05
 8.1610232883e-05
 8.1928541476e-05
 8.2248159742e-05
 8.2568956714e-05
 8.2891012426e-05
 8.3214377810e-05
 8.3538951003e-05
 8.3864841145e-05
 8.4191953647e-05
 8.4520397650e-05
 8.4850064013e-05
 8.5181010945e-05
 8.5513311205e-05
 8.5846855654e-05
 8.6181746155e-05
 8.6517895397e-05
 8.6855405243e-05
 8.7194181106e-05
 8.7534273916e-05
 8.7875756435e-05
 8.8218504970e-05
 8.8562657766e-05
 8.8908083853e-05
 8.9254928753e-05
 8.9603061497e-05
 8.9952605776e-05
 9.0303467005e-05
 9.0655747044e-05
 9.1009344032e-05
 9.1364316177e-05
 9.1720736236e-05
 9.2078487796e-05
 9.2437694548e-05
 9.2798240075e-05
 9.3160255346e-05
 9.3523623946e-05
 9.3888411357e-05
 9.4254675787e-05
 9.4622315373e-05
 9.4991439255e-05
 9.5361952845e-05
 9.5733965281e-05
 9.6107367426e-05
 9.6482224762e-05
 9.6858617326e-05
 9.7236406873e-05
 9.7615731647e-05
 9.7996482509e-05
 9.8378768598e-05
 9.8762488051e-05
 9.9147713627e-05
 9.9534496258e-05
 9.9922726804e-05
 1.0031252896e-04
 1.0070379358e-04
 1.0109665163e-04
 1.0149097216e-04
 1.0188688611e-04
 1.0228429164e-04
 1.0268331243e-04
 1.0308382480e-04
 1.0348589421e-04
 1.0388960800e-04
 1.0429482063e-04
 1.0470168490e-04
 1.0511006258e-04
 1.0552010644e-04
 1.0593167826e-04
 1.0634486534e-04
 1.0675971862e-04
 1.0717612895e-04
 1.0759424185e-04
 1.0801390454e-04
 1.0843526979e-04
 1.0885822121e-04
 1.0928281699e-04
 1.0970912990e-04
 1.1013705080e-04
 1.1056670337e-04
 1.1099796393e-04
 1.1143097072e-04
 1.1186560732e-04
 1.1230192467e-04
 1.1274002463e-04
 1.1317976168e-04
 1.1362128862e-04
 1.1406445992e-04
 1.1450943566e-04
 1.1495607032e-04
 1.1540453124e-04
 1.1585465109e-04
 1.1630661902e-04
 1.1676026043e-04
 1.1721568444e-04
 1.1767294927e-04
 1.1813193123e-04
 1.1859276856e-04
 1.1905533029e-04
 1.1951976921e-04
 1.1998595437e-04
 1.2045395852e-04
 1.2092385441e-04
 1.2139550381e-04
 1.2186908134e-04
 1.2234442693e-04
 1.2282171519e-04
 1.2330074969e-04
 1.2378169049e-04
 1.2426456669e-04
 1.2474924733e-04
 1.2523592159e-04
 1.2572438573e-04
 1.2621484348e-04
 1.2670713477e-04
 1.2720144878e-04
 1.2769758177e-04
 1.2819575204e-04
 1.2869577040e-04
 1.2919772416e-04
 1.2970174430e-04
 1.3020762708e-04
 1.3071559079e-04
 1.3122543169e-04
 1.3173736806e-04
 1.3225119619e-04
 1.3276703248e-04
 1.3328496425e-04
 1.3380483142e-04
 1.3432682317e-04
 1.3485075033e-04
 1.3537681662e-04
 1.3590484741e-04
 1.3643493003e-04
 1.3696718088e-04
 1.3750141079e-04
 1.3803782349e-04
 1.3857622980e-04
 1.3911681890e-04
 1.3965944527e-04
 1.4020416711e-04
 1.4075112995e-04
 1.4130010095e-04
 1.4185132750e-04
 1.4240462042e-04
 1.4296015434e-04
 1.4351775462e-04
 1.4407762501e-04
 1.4463959087e-04
 1.4520385594e-04
 1.4577020193e-04
 1.4633877436e-04
 1.4690966054e-04
 1.4748267131e-04
 1.4805801038e-04
 1.4863550314e-04
 1.4921535330e-04
 1.4979735715e-04
 1.5038161655e-04
 1.5096827701e-04
 1.5155712026e-04
 1.5214835003e-04
 1.5274180623e-04
 1.5333766351e-04
 1.5393574722e-04
 1.5453615924e-04
 1.5513901599e-04
 1.5574412828e-04
 1.5635169984e-04
 1.5696154151e-04
 1.5757387155e-04
 1.5818847169e-04
 1.5880547289e-04
 1.5942499158e-04
 1.6004680947e-04
 1.6067117394e-04
 1.6129786673e-04
 1.6192710609e-04
 1.6255867376e-04
 1.6319284623e-04
 1.6382936155e-04
 1.6446846712e-04
 1.6510997375e-04
 1.6575396876e-04
 1.6640059766e-04
 1.6704962763e-04
 1.6770130605e-04
 1.6835541464e-04
 1.6901218623e-04
 1.6967140255e-04
 1.7033319455e-04
 1.7099767865e-04
 1.7166465113e-04
 1.7233433027e-04
 1.7300651234e-04
 1.7368141562e-04
 1.7435886548e-04
 1.7503893469e-04
 1.7572178331e-04
 1.7640714941e-04
 1.7709535314e-04
 1.7778610345e-04
 1.7847966228e-04
 1.7917579680e-04
 1.7987466708e-04
 1.8057637499e-04
 1.8128081865e-04
 1.8198788166e-04
 1.8269772409e-04
 1.8341044779e-04
 1.8412581994e-04
 1.8484400061e-04
 1.8556509167e-04
 1.8628900580e-04
 1.8701561203e-04
 1.8774504133e-04
 1.8847745378e-04
 1.8921260198e-04
 1.8995073333e-04
 1.9069162954e-04
 1.9143552345e-04
 1.9218221132e-04
 1.9293180958e-04
 1.9368446374e-04
 1.9443989731e-04
 1.9519844500e-04
 1.9595978665e-04
 1.9672425697e-04
 1.9749156490e-04
 1.9826185599e-04
 1.9903530483e-04
 1.9981163496e-04
 2.0059110830e-04
 2.0137350657e-04
 2.0215909171e-04
 2.0294758724e-04
 2.0373918233e-04
 2.0453397883e-04
 2.0533188945e-04
 2.0613275410e-04
 2.0693677652e-04
 2.0774405857e-04
 2.0855435287e-04
 2.0936779038e-04
 2.1018457483e-04
 2.1100450249e-04
 2.1182750061e-04
 2.1265372925e-04
 2.1348330483e-04
 2.1431599453e-04
 2.1515206026e-04
 2.1599125466e-04
 2.1683385421e-04
 2.1767961152e-04
 2.1852865757e-04
 2.1938115242e-04
 2.2023681959e-04
 2.2109597921e-04
 2.2195835481e-04
 2.2282422287e-04
 2.2369335056e-04
 2.2456586885e-04
 2.2544189414e-04
 2.2632122273e-04
 2.2720413108e-04
 2.2809032816e-04
 2.2898010502e-04
 2.2987324337e-04
 2.3076985963e-04
 2.3167011386e-04
 2.3257387511e-04
 2.3348099785e-04
 2.3439167126e-04
 2.3530608451e-04
 2.3622387380e-04
 2.3714522831e-04
 2.3807036632e-04
 2.3899909866e-04
 2.3993132345e-04
 2.4086714257e-04
 2.4180678884e-04
 2.4274994212e-04
 2.4369692255e-04
 2.4464743910e-04
 2.4560184102e-04
 2.4655979360e-04
 2.4752150057e-04
 2.4848707835e-04
 2.4945629411e-04
 2.5042943889e-04
 2.5140622165e-04
 2.5238699163e-04
 2.5337139959e-04
 2.5435967837e-04
 2.5535197346e-04
 2.5634793565e-04
 2.5734797237e-04
 2.5835173437e-04
 2.5935960002e-04
 2.6037122007e-04
 2.6138676913e-04
 2.6240648003e-04
 2.6343014906e-04
 2.6445763069e-04
 2.6548912865e-04
 2.6652484667e-04
 2.6756440639e-04
 2.6860798243e-04
 2.6965586585e-04
 2.7070782380e-04
 2.7176368167e-04
 2.7282370138e-04
 2.7388799936e-04
 2.7495628456e-04
 2.7602890623e-04
 2.7710557333e-04
 2.7818654780e-04
 2.7927162591e-04
 2.8036089498e-04
 2.8145458782e-04
 2.8255238431e-04
 2.8365469188e-04
 2.8476104490e-04
 2.8587190900e-04
 2.8698693495e-04
 2.8810629738e-04
 2.8923025820e-04
 2.9035838088e-04
 2.9149110196e-04
 2.9262804310e-04
 2.9376961174e-04
 2.9491542955e-04
 2.9606572934e-04
 2.9722071486e-04
 2.9838018236e-04
 2.9954401543e-04
 3.0071235960e-04
 3.0188547680e-04
 3.0306293047e-04
 3.0424504075e-04
 3.0543192406e-04
 3.0662343488e-04
 3.0781939859e-04
 3.0902001890e-04
 3.1022555777e-04
 3.1143554952e-04
 3.1265048892e-04
 3.1386996852e-04
 3.1509439577e-04
 3.1632339233e-04
 3.1755719101e-04
 3.1879602466e-04
 3.2003948581e-04
 3.2128798193e-04
 3.2254113466e-04
 3.2379938057e-04
 3.2506234129e-04
 3.2633045339e-04
 3.2760328031e-04
 3.2888128771e-04
 3.3016406815e-04
 3.3145185444e-04
 3.3274487942e-04
 3.3404273563e-04
 3.3534585964e-04
 3.3665384399e-04
 3.3796718344e-04
 3.3928538323e-04
 3.4060876351e-04
 3.4193749889e-04
 3.4327121102e-04
 3.4461033647e-04
 3.4595446778e-04
 3.4730407060e-04
 3.4865870839e-04
 3.5001864308e-04
 3.5138407839e-04
 3.5275486880e-04
 3.5413078149e-04
 3.5551202018e-04
 3.5689890501e-04
 3.5829097033e-04
 3.5968847806e-04
 3.6109166103e-04
 3.6250025732e-04
 3.6391420872e-04
 3.6533360253e-04
 3.6675881711e-04
 3.6818932858e-04
 3.6962568993e-04
 3.7106737727e-04
 3.7251497270e-04
 3.7396792322e-04
 3.7542654900e-04
 3.7689111196e-04
 3.7836117554e-04
 3.7983717630e-04
 3.8131873589e-04
 3.8280626177e-04
 3.8429937558e-04
 3.8579831016e-04
 3.8730335655e-04
 3.8881399087e-04
 3.9033082430e-04
 3.9185327478e-04
 3.9338192437e-04
 3.9491627831e-04
 3.9645662764e-04
 3.9800323430e-04
 3.9955592365e-04
 4.0111431736e-04
 4.0267885197e-04
 4.0424973122e-04
 4.0582648944e-04
 4.0740938857e-04
 4.0899874875e-04
 4.1059427895e-04
 4.1219577543e-04
 4.1380350012e-04
 4.1541777318e-04
 4.1703809984e-04
 4.1866500396e-04
 4.2029799079e-04
 4.2193761328e-04
 4.2358334758e-04
 4.2523551383e-04
 4.2689440306e-04
 4.2855946231e-04
 4.3023130274e-04
 4.3190940050e-04
 4.3359430856e-04
 4.3528553215e-04
 4.3698333320e-04
 4.3868803186e-04
 4.4039913337e-04
 4.4211716158e-04
 4.4384162175e-04
 4.4557306683e-04
 4.4731100206e-04
 4.4905568939e-04
 4.5080750715e-04
 4.5256616431e-04
 4.5433136984e-04
 4.5610347297e-04
 4.5788276475e-04
 4.5966869220e-04
 4.6146160457e-04
 4.6326182201e-04
 4.6506902436e-04
 4.6688300790e-04
 4.6870406368e-04
 4.7053248272e-04
 4.7236779938e-04
 4.7421053750e-04
 4.7606017324e-04
 4.7791731777e-04
 4.7978141811e-04
 4.8165276530e-04
 4.8353173770e-04
 4.8541769502e-04
 4.8731139395e-04
 4.8921210691e-04
 4.9112056149e-04
 4.9303611740e-04
 4.9495918211e-04
 4.9689010484e-04
 4.9882818712e-04
 5.0077412743e-04
 5.0272740191e-04
 5.0468859263e-04
 5.0665705930e-04
 5.0863326760e-04
 5.1061750855e-04
 5.1260943292e-04
 5.1460886607e-04
 5.1661604084e-04
 5.1863142289e-04
 5.2065431373e-04
 5.2268506261e-04
 5.2472413518e-04
 5.2677112399e-04
 5.2882579621e-04
 5.3088838467e-04
 5.3295941325e-04
 5.3503818344e-04
 5.3712545196e-04
 5.3922046209e-04
 5.4132402875e-04
 5.4343545344e-04
 5.4555502720e-04
 5.4768327391e-04
 5.4981949506e-04
 5.5196444737e-04
 5.5411731591e-04
 5.5627897382e-04
 5.5844872259e-04
 5.6062691147e-04
 5.6281394791e-04
 5.6500919163e-04
 5.6721334113e-04
 5.6942569790e-04
 5.7164707687e-04
 5.7387672132e-04
 5.7611515513e-04
 5.7836261112e-04
 5.8061885647e-04
 5.8288354194e-04
 5.8515701676e-04
 5.8743974660e-04
 5.8973103296e-04
 5.9203128330e-04
 5.9434084687e-04
 5.9665937442e-04
 5.9898663312e-04
 6.0132297222e-04
 6.0366874095e-04
 6.0602329904e-04
 6.0838746140e-04
 6.1076047132e-04
 6.1314308550e-04
 6.1553460546e-04
 6.1793549685e-04
 6.2034610892e-04
 6.2276568497e-04
 6.2519515632e-04
 6.2763370806e-04
 6.3008221332e-04
 6.3253974076e-04
 6.3500693068e-04
 6.3748419052e-04
 6.3997058896e-04
 6.4246723196e-04
 6.4497307176e-04
 6.4748921432e-04
 6.5001467010e-04
 6.5255002119e-04
 6.5509573324e-04
 6.5765128238e-04
 6.6021643579e-04
 6.6279154271e-04
 6.6537718521e-04
 6.6797243198e-04
 6.7057780689e-04
 6.7319377558e-04
 6.7581998883e-04
 6.7845598096e-04
 6.8110227585e-04
 6.8375928095e-04
 6.8642623955e-04
 6.8910402479e-04
 6.9179187994e-04
 6.9449061994e-04
 6.9719937164e-04
 6.9991877535e-04
 7.0264923852e-04
 7.0539006265e-04
 7.0814142236e-04
 7.1090378333e-04
 7.1367685450e-04
 7.1646069409e-04
 7.1925541852e-04
 7.2206108598e-04
 7.2487763828e-04
 7.2770519182e-04
 7.3054357199e-04
 7.3339324445e-04
 7.3625409277e-04
 7.3912605876e-04
 7.4200920062e-04
 7.4490363477e-04
 7.4780930299e-04
 7.5072626350e-04
 7.5365451630e-04
 7.5659429422e-04
 7.5954553904e-04
 7.6250836719e-04
 7.6548277866e-04
 7.6846877346e-04
 7.7146635158e-04
 7.7447562944e-04
 7.7749637421e-04
 7.8052922618e-04
 7.8357395250e-04
 7.8663049499e-04
 7.8969897004e-04
 7.9277937766e-04
 7.9587177606e-04
 7.9897628166e-04
 8.0209266162e-04
 8.0522149801e-04
 8.0836244160e-04
 8.1151560880e-04
 8.1468123244e-04
 8.1785902148e-04
 8.2104938338e-04
 8.2425208529e-04
 8.2746695261e-04
 8.3069474204e-04
 8.3393510431e-04
 8.3718803944e-04
 8.4045372205e-04
 8.4373215213e-04
 8.4702338791e-04
 8.5032737115e-04
 8.5364404367e-04
 8.5697387112e-04
 8.6031673709e-04
 8.6367269978e-04
 8.6704164278e-04
 8.7042374071e-04
 8.7381905178e-04
 8.7722763419e-04
 8.8064919692e-04
 8.8408438023e-04
 8.8753300952e-04
 8.9099508477e-04
 8.9447066421e-04
 8.9795968961e-04
 9.0146251023e-04
 9.0497889323e-04
 9.0850866400e-04
 9.1205252102e-04
 9.1561023146e-04
 9.1918185353e-04
 9.2276738724e-04
 9.2636677437e-04
 9.2998042237e-04
 9.3360804021e-04
 9.3724945327e-04
 9.4090547645e-04
 9.4457576051e-04
 9.4826030545e-04
 9.5195928589e-04
 9.5567264361e-04
 9.5940049505e-04
 9.6314284019e-04
 9.6689950442e-04
 9.7067118622e-04
 9.7445747815e-04
 9.7825867124e-04
 9.8207464907e-04
 9.8590552807e-04
 9.8975130823e-04
 9.9361198954e-04
 9.9748757202e-04
 1.0013785213e-03
 1.0052846046e-03
 1.0092059383e-03
 1.0131426388e-03
 1.0170947062e-03
 1.0210621404e-03
 1.0250450578e-03
 1.0290432256e-03
 1.0330572259e-03
 1.0370869422e-03
 1.0411323747e-03
 1.0451936396e-03
 1.0492706206e-03
 1.0533636669e-03
 1.0574725457e-03
 1.0615971405e-03
 1.0657381499e-03
 1.0698953411e-03
 1.0740687139e-03
 1.0782585014e-03
 1.0824644705e-03
 1.0866869707e-03
 1.0909258854e-03
 1.0951809818e-03
 1.0994529584e-03
 1.1037415825e-03
 1.1080470867e-03
 1.1123693548e-03
 1.1167083867e-03
 1.1210644152e-03
 1.1254375568e-03
 1.1298271129e-03
 1.1342343641e-03
 1.1386587285e-03
 1.1431003222e-03
 1.1475593783e-03
 1.1520356638e-03
 1.1565295281e-03
 1.1610408546e-03
 1.1655694107e-03
 1.1701160111e-03
 1.1746803066e-03
 1.1792625301e-03
 1.1838625651e-03
 1.1884805281e-03
 1.1931165354e-03
 1.1977705872e-03
 1.2024424504e-03
 1.2071328238e-03
 1.2118414743e-03
 1.2165686348e-03
 1.2213143054e-03
 1.2260782532e-03
 1.2308609439e-03
 1.2356622610e-03
 1.2404818553e-03
 1.2453206582e-03
 1.2501783203e-03
 1.2550550746e-03
 1.2599506881e-03
 1.2648653938e-03
 1.2697994243e-03
 1.2747525470e-03
 1.2797246454e-03
 1.2847165344e-03
 1.2897279812e-03
 1.2947588693e-03
 1.2998094317e-03
 1.3048796682e-03
 1.3099696953e-03
 1.3150796294e-03
 1.3202090049e-03
 1.3253588695e-03
 1.3305286411e-03
 1.3357187854e-03
 1.3409290696e-03
 1.3461597264e-03
 1.3514107559e-03
 1.3566822745e-03
 1.3619740494e-03
 1.3672866626e-03
 1.3726202305e-03
 1.3779744040e-03
 1.3833496487e-03
 1.3887457317e-03
 1.3941628858e-03
 1.3996012276e-03
 1.4050602913e-03
 1.4105411246e-03
 1.4160432620e-03
 1.4215668198e-03
 1.4271121472e-03
 1.4326788951e-03
 1.4382674126e-03
 1.4438778162e-03
 1.4495095238e-03
 1.4551636996e-03
 1.4608399943e-03
 1.4665384078e-03
 1.4722590568e-03
 1.4780018246e-03
 1.4837672934e-03
 1.4895551139e-03
 1.4953649370e-03
 1.5011980431e-03
 1.5070538502e-03
 1.5129325911e-03
 1.5188341495e-03
 1.5247587580e-03
 1.5307064168e-03
 1.5366773587e-03
 1.5426711179e-03
 1.5486887423e-03
 1.5547297662e-03
 1.5607944224e-03
 1.5668827109e-03
 1.5729947481e-03
 1.5791306505e-03
 1.5852904180e-03
 1.5914737014e-03
 1.5976816649e-03
 1.6039137263e-03
 1.6101703513e-03
 1.6164513072e-03
 1.6227565939e-03
 1.6290866770e-03
 1.6354413237e-03
 1.6418203013e-03
 1.6482245410e-03
 1.6546539264e-03
 1.6611083411e-03
 1.6675879015e-03
 1.6740927240e-03
 1.6806229251e-03
 1.6871787375e-03
 1.6937595792e-03
 1.7003663816e-03
 1.7069991445e-03
 1.7136577517e-03
 1.7203424359e-03
 1.7270529643e-03
 1.7337899189e-03
 1.7405528342e-03
 1.7473419430e-03
 1.7541577108e-03
 1.7610003706e-03
 1.7678694567e-03
 1.7747656675e-03
 1.7816885374e-03
 1.7886385322e-03
 1.7956156516e-03
 1.8026191974e-03
 1.8096507993e-03
 1.8167098751e-03
 1.8237964250e-03
 1.8309106817e-03
 1.8380525289e-03
 1.8452224322e-03
 1.8524201587e-03
 1.8596453592e-03
 1.8668993143e-03
 1.8741816748e-03
 1.8814925570e-03
 1.8888317281e-03
 1.8961996539e-03
 1.9035963342e-03
 1.9110216526e-03
 1.9184756093e-03
 1.9259591354e-03
 1.9334717654e-03
 1.9410138484e-03
 1.9485853845e-03
 1.9561862573e-03
 1.9638168160e-03
 1.9714774098e-03
 1.9791668747e-03
 1.9868870731e-03
 1.9946375396e-03
 2.0024180412e-03
 2.0102290437e-03
 2.0180705469e-03
 2.0259425510e-03
 2.0338452887e-03
 2.0417780615e-03
 2.0497424994e-03
 2.0577381365e-03
 2.0657649729e-03
 2.0738230087e-03
 2.0819124766e-03
 2.0900336094e-03
 2.0981861744e-03
 2.1063699387e-03
 2.1145865321e-03
 2.1228350233e-03
 2.1311156452e-03
 2.1394286305e-03
 2.1477739792e-03
 2.1561521571e-03
 2.1645626985e-03
 2.1730053704e-03
 2.1814818028e-03
 2.1899912972e-03
 2.1985338535e-03
 2.2071097046e-03
 2.2157193162e-03
 2.2243622225e-03
 2.2330391221e-03
 2.2417488508e-03
 2.2504932713e-03
 2.2592719179e-03
 2.2680847906e-03
 2.2769321222e-03
 2.2858139127e-03
 2.2947303951e-03
 2.3036815692e-03
 2.3126667365e-03
 2.3216879927e-03
 2.3307444062e-03
 2.3398359772e-03
 2.3489631712e-03
 2.3581259884e-03
 2.3673244286e-03
 2.3765587248e-03
 2.3858291097e-03
 2.3951358162e-03
 2.4044786114e-03
 2.4138579611e-03
 2.4232738651e-03
 2.4327265564e-03
 2.4422151037e-03
 2.4517416023e-03
 2.4613051210e-03
 2.4709063582e-03
 2.4805446155e-03
 2.4902205914e-03
 2.4999345187e-03
 2.5096861646e-03
 2.5194750633e-03
 2.5293028448e-03
 2.5391690433e-03
 2.5490738917e-03
 2.5590171572e-03
 2.5689993054e-03
 2.5790201034e-03
 2.5890804827e-03
 2.5991790462e-03
 2.6093176566e-03
 2.6194960810e-03
 2.6297140867e-03
 2.6399721391e-03
 2.6502697729e-03
 2.6606079191e-03
 2.6709863450e-03
 2.6814043522e-03
 2.6918638032e-03
 2.7023642324e-03
 2.7129054070e-03
 2.7234880254e-03
 2.7341116220e-03
 2.7447766624e-03
 2.7554833796e-03
 2.7662310749e-03
 2.7770213783e-03
 2.7878540568e-03
 2.7987286448e-03
 2.8096458409e-03
 2.8206056450e-03
 2.8316080570e-03
 2.8426535428e-03
 2.8537411708e-03
 2.8648730367e-03
 2.8760479763e-03
 2.8872669209e-03
 2.8985296376e-03
 2.9098358937e-03
 2.9211866204e-03
 2.9325813521e-03
 2.9440196231e-03
 2.9555037618e-03
 2.9670321383e-03
 2.9786059167e-03
 2.9902248643e-03
 3.0018889811e-03
 3.0135987327e-03
 3.0253541190e-03
 3.0371542089e-03
 3.0490015633e-03
 3.0608947854e-03
 3.0728345737e-03
 3.0848211609e-03
 3.0968540814e-03
 3.1089344993e-03
 3.1210614834e-03
 3.1332350336e-03
 3.1454572454e-03
 3.1577269547e-03
 3.1700443942e-03
 3.1824100297e-03
 3.1948236283e-03
 3.2072861213e-03
 3.2197968103e-03
 3.2323554624e-03
 3.2449641731e-03
 3.2576220110e-03
 3.2703289762e-03
 3.2830860000e-03
 3.2958926167e-03
 3.3087490592e-03
 3.3216557931e-03
 3.3346116543e-03
 3.3476189710e-03
 3.3606772777e-03
 3.3737865742e-03
 3.3869468607e-03
 3.4001588356e-03
 3.4134218004e-03
 3.4267366864e-03
 3.4401025623e-03
 3.4535215236e-03
 3.4669931047e-03
 3.4805166069e-03
 3.4940934274e-03
 3.5077231005e-03
 3.5214058589e-03
 3.5351421684e-03
 3.5489308648e-03
 3.5627742764e-03
 3.5766714718e-03
 3.5906233825e-03
 3.6046295427e-03
 3.6186904181e-03
 3.6328062415e-03
 3.6469770130e-03
 3.6612018012e-03
 3.6754831672e-03
 3.6898201797e-03
 3.7042133044e-03
 3.7186627742e-03
 3.7331683561e-03
 3.7477305159e-03
 3.7623494864e-03
 3.7770245690e-03
 3.7917576265e-03
 3.8065481931e-03
 3.8213969674e-03
 3.8363030180e-03
 3.8512677420e-03
 3.8662904408e-03
 3.8813722786e-03
 3.8965109270e-03
 3.9117103443e-03
 3.9269691333e-03
 3.9422875270e-03
 3.9576650597e-03
 3.9731031284e-03
 3.9886012673e-03
 4.0041599423e-03
 4.0197777562e-03
 4.0354579687e-03
 4.0511991829e-03
 4.0670023300e-03
 4.0828669444e-03
 4.0987925604e-03
 4.1147810407e-03
 4.1308319196e-03
 4.1469442658e-03
 4.1631204076e-03
 4.1793594137e-03
 4.1956622154e-03
 4.2120283470e-03
 4.2284587398e-03
 4.2449529283e-03
 4.2615118437e-03
 4.2781331576e-03
 4.2948215269e-03
 4.3115741573e-03
 4.3283929117e-03
 4.3452768587e-03
 4.3622269295e-03
 4.3792426586e-03
 4.3963249773e-03
 4.4134729542e-03
 4.4306884520e-03
 4.4479719363e-03
 4.4653224759e-03
 4.4827405363e-03
 4.5002265833e-03
 4.5177810825e-03
 4.5354035683e-03
 4.5530935749e-03
 4.5708543621e-03
 4.5886836015e-03
 4.6065836214e-03
 4.6245525591e-03
 4.6425918117e-03
 4.6607013792e-03
 4.6788817272e-03
 4.6971314587e-03
 4.7154538333e-03
 4.7338474542e-03
 4.7523132525e-03
 4.7708512284e-03
 4.7894609161e-03
 4.8081437126e-03
 4.8268986866e-03
 4.8457258381e-03
 4.8646279611e-03
 4.8836036585e-03
 4.9026533961e-03
 4.9217776395e-03
 4.9409763888e-03
 4.9602501094e-03
 4.9795988016e-03
 4.9990210682e-03
 5.0185211003e-03
 5.0380975008e-03
 5.0577498041e-03
 5.0774789415e-03
 5.0972849131e-03
 5.1171681844e-03
 5.1371292211e-03
 5.1571661606e-03
 5.1772827283e-03
 5.1974779926e-03
 5.2177524194e-03
 5.2381055430e-03
 5.2585382946e-03
 5.2790506743e-03
 5.2996426821e-03
 5.3203138523e-03
 5.3410669789e-03
 5.3619011305e-03
 5.3828167729e-03
 5.4038139060e-03
 5.4248929955e-03
 5.4460545070e-03
 5.4672979750e-03
 5.4886224680e-03
 5.5100326426e-03
 5.5315257050e-03
 5.5531030521e-03
 5.5747646838e-03
 5.5965101346e-03
 5.6183408014e-03
 5.6402566843e-03
 5.6622559205e-03
 5.6843436323e-03
 5.7065165602e-03
 5.7287761010e-03
 5.7511231862e-03
 5.7735568844e-03
 5.7960781269e-03
 5.8186873794e-03
 5.8413827792e-03
 5.8641680516e-03
 5.8870431967e-03
 5.9100072831e-03
 5.9330607764e-03
 5.9562041424e-03
 5.9794378467e-03
 6.0027623549e-03
 6.0261753388e-03
 6.0496823862e-03
 6.0732807033e-03
 6.0969712213e-03
 6.1207534745e-03
 6.1446293257e-03
 6.1685983092e-03
 6.1926604249e-03
 6.2168147415e-03
 6.2410649844e-03
 6.2654097565e-03
 6.2898495235e-03
 6.3143847510e-03
 6.3390159048e-03
 6.3637429848e-03
 6.3885659911e-03
 6.4134844579e-03
 6.4385021105e-03
 6.4636170864e-03
 6.4888298512e-03
 6.5141418017e-03
 6.5395515412e-03
 6.5650609322e-03
 6.5906690434e-03
 6.6163763404e-03
 6.6421851516e-03
 6.6680945456e-03
 6.6941054538e-03
 6.7202174105e-03
 6.7464313470e-03
 6.7727477290e-03
 6.7991665564e-03
 6.8256864324e-03
 6.8523115478e-03
 6.8790409714e-03
 6.9058742374e-03
 6.9328127429e-03
 6.9598560221e-03
 6.9870045409e-03
 7.0142592303e-03
 7.0416177623e-03
 7.0690857247e-03
 7.0966598578e-03
 7.1243429556e-03
 7.1521336213e-03
 7.1800318547e-03
 7.2080395184e-03
 7.2361561470e-03
 7.2643803433e-03
 7.2927172296e-03
 7.3211640120e-03
 7.3497225530e-03
 7.3783919215e-03
 7.4071735144e-03
 7.4360668659e-03
 7.4650733732e-03
 7.4941902421e-03
 7.5234235264e-03
 7.5527704321e-03
 7.5822323561e-03
 7.6118083671e-03
 7.6415003277e-03
 7.6713077724e-03
 7.7012320980e-03
 7.7312700450e-03
 7.7614281327e-03
