aces_1.1_postwork/luts/Log2_1000_nits_Shaper_to_linear.spi1d
Version 1
From 0 1
Length 4096
Components 1
{
 4.3945314246e-05
 4.4109252485e-05
 4.4273838284e-05
 4.4439002522e-05
 4.4604814320e-05
 4.4771215471e-05
 4.4938238716e-05
 4.5105913159e-05
 4.5274180593e-05
 4.5443081035e-05
 4.5612636313e-05
 4.5782799134e-05
 4.5953624067e-05
 4.6125060180e-05
 4.6297129302e-05
 4.6469875087e-05
 4.6643235692e-05
 4.6817236580e-05
 4.6991925046e-05
 4.7167235607e-05
 4.7343222832e-05
 4.7519839427e-05
 4.7697118134e-05
 4.7875084420e-05
 4.8053683713e-05
 4.8232952395e-05
 4.8412919568e-05
 4.8593523388e-05
 4.8774840252e-05
 4.8956797400e-05
 4.9139434850e-05
 4.9322788982e-05
 4.9506787036e-05
 4.9691476306e-05
 4.9876882258e-05
 5.0062950322e-05
 5.0249745982e-05
 5.0437207392e-05
 5.0625367294e-05
 5.0814262067e-05
 5.1003829867e-05
 5.1194099797e-05
 5.1385119150e-05
 5.1576811529e-05
 5.1769256970e-05
 5.1962386351e-05
 5.2156236052e-05
 5.2350842452e-05
 5.2546143706e-05
 5.2742165281e-05
 5.2938961744e-05
 5.3136449424e-05
 5.3334715631e-05
 5.3533683968e-05
 5.3733398090e-05
 5.3933887102e-05
 5.4135089158e-05
 5.4337040638e-05
 5.4539788835e-05
 5.4743250075e-05
 5.4947511671e-05
 5.5152497225e-05
 5.5358246755e-05
 5.5564800277e-05
 5.5772085034e-05
 5.5980144680e-05
 5.6189022871e-05
 5.6398639572e-05
 5.6609074818e-05
 5.6820259488e-05
 5.7032229961e-05
 5.7245026255e-05
 5.7458586525e-05
 5.7672939874e-05
 5.7888129959e-05
 5.8104084019e-05
 5.8320885728e-05
 5.8538455050e-05
 5.8756835642e-05
 5.8976067521e-05
 5.9196081565e-05
 5.9416921431e-05
 5.9638616221e-05
 5.9861104091e-05
 6.0084461438e-05
 6.0308608226e-05
 6.0533595388e-05
 6.0759455664e-05
 6.0986123572e-05
 6.1213635490e-05
 6.1442035076e-05
 6.1671249568e-05
 6.1901359004e-05
 6.2132283347e-05
 6.2364073528e-05
 6.2596765929e-05
 6.2830287789e-05
 6.3064682763e-05
 6.3299987232e-05
 6.3536135713e-05
 6.3773200964e-05
 6.4011110226e-05
 6.4249907155e-05
 6.4489642682e-05
 6.4730222221e-05
 6.4971703978e-05
 6.5214124334e-05
 6.5457410528e-05
 6.5701642598e-05
 6.5946755058e-05
 6.6192769737e-05
 6.6439752118e-05
 6.6687607614e-05
 6.6936394433e-05
 6.7186141678e-05
 6.7436791142e-05
 6.7688408308e-05
 6.7940920417e-05
 6.8194378400e-05
 6.8448833190e-05
 6.8704182922e-05
 6.8960485805e-05
 6.9217792770e-05
 6.9476016506e-05
 6.9735244324e-05
 6.9995403464e-05
 7.0256515755e-05
 7.0518661232e-05
 7.0781738032e-05
 7.1045797085e-05
 7.1310882049e-05
 7.1576905611e-05
 7.1843976912e-05
 7.2112001362e-05
 7.2381015343e-05
 7.2651084338e-05
 7.2922113759e-05
 7.3194154538e-05
 7.3467257607e-05
 7.3741335655e-05
 7.4016483268e-05
 7.4292605859e-05
 7.4569754361e-05
 7.4847994256e-05
 7.5127216405e-05
 7.5407486293e-05
 7.5688847573e-05
 7.5971212937e-05
 7.6254669693e-05
 7.6539145084e-05
 7.6824682765e-05
 7.7111333667e-05
 7.7399003203e-05
 7.7687742305e-05
 7.7977616456e-05
 7.8268509242e-05
 7.8560551628e-05
 7.8853619925e-05
 7.9147786892e-05
 7.9443110735e-05
 7.9739482317e-05
 8.0036952568e-05
 8.0335586972e-05
 8.0635283666e-05
 8.0936151790e-05
 8.1238089479e-05
 8.1541154941e-05
 8.1845399109e-05
 8.2150734670e-05
 8.2457198005e-05
 8.2764861872e-05
 8.3073624410e-05
 8.3383587480e-05
 8.3694656496e-05
 8.4006882389e-05
 8.4320337919e-05
 8.4634899395e-05
 8.4950632299e-05
 8.5267602117e-05
 8.5585699708e-05
 8.5905041487e-05
 8.6225511041e-05
 8.6547181127e-05
 8.6870102677e-05
 8.7194181106e-05
 8.7519467343e-05
 8.7846019596e-05
 8.8173736003e-05
 8.8502725703e-05
 8.8832894107e-05
 8.9164292149e-05
 8.9496985311e-05
 8.9830864454e-05
 9.0166031441e-05
 9.0502406238e-05
 9.0840032499e-05
 9.1178975708e-05
 9.1519119451e-05
 9.1860536486e-05
 9.2203299573e-05
 9.2547270469e-05
 9.2892521934e-05
 9.3239119451e-05
 9.3586961157e-05
 9.3936148915e-05
 9.4286588137e-05
 9.4638322480e-05
 9.4991439255e-05
 9.5345814771e-05
 9.5701565442e-05
 9.6058596682e-05
 9.6416944871e-05
 9.6776690043e-05
 9.7137730336e-05
 9.7500102129e-05
 9.7863900010e-05
 9.8228985735e-05
 9.8595439340e-05
 9.8963319033e-05
 9.9332501122e-05
 9.9703138403e-05
 1.0007508536e-04
 1.0044842929e-04
 1.0082322115e-04
 1.0119935177e-04
 1.0157694487e-04
 1.0195588402e-04
 1.0233623470e-04
 1.0271806968e-04
 1.0310126527e-04
 1.0348589421e-04
 1.0387202929e-04
 1.0425952496e-04
 1.0464847583e-04
 1.0503893282e-04
 1.0543080134e-04
 1.0582418327e-04
 1.0621896217e-04
 1.0661521083e-04
 1.0701303108e-04
 1.0741224833e-04
 1.0781302990e-04
 1.0821522301e-04
 1.0861892952e-04
 1.0902421491e-04
 1.0943093366e-04
 1.0983916582e-04
 1.1024901323e-04
 1.1066030129e-04
 1.1107311730e-04
 1.1148756312e-04
 1.1190347141e-04
 1.1232100951e-04
 1.1274002463e-04
 1.1316061136e-04
 1.1358284246e-04
 1.1400656513e-04
 1.1443194671e-04
 1.1485884897e-04
 1.1528734467e-04
 1.1571749928e-04
 1.1614918913e-04
 1.1658249423e-04
 1.1701749463e-04
 1.1745402298e-04
 1.1789219570e-04
 1.1833207827e-04
 1.1877351790e-04
 1.1921669648e-04
 1.1966143938e-04
 1.2010783394e-04
 1.2055599655e-04
 1.2100573804e-04
 1.2145724031e-04
 1.2191033602e-04
 1.2236513430e-04
 1.2282171519e-04
 1.2327989680e-04
 1.2373979553e-04
 1.2420149869e-04
 1.2466484623e-04
 1.2512991088e-04
 1.2559679453e-04
 1.2606535165e-04
 1.2653572776e-04
 1.2700777734e-04
 1.2748158770e-04
 1.2795724615e-04
 1.2843459263e-04
 1.2891381630e-04
 1.2939472799e-04
 1.2987744412e-04
 1.3036205200e-04
 1.3084837701e-04
 1.3133652101e-04
 1.3182655675e-04
 1.3231833873e-04
 1.3281196880e-04
 1.3330751972e-04
 1.3380483142e-04
 1.3430409308e-04
 1.3480511552e-04
 1.3530801516e-04
 1.3581287931e-04
 1.3631953334e-04
 1.3682818098e-04
 1.3733861852e-04
 1.3785097690e-04
 1.3836532889e-04
 1.3888151443e-04
 1.3939962082e-04
 1.3991974993e-04
 1.4044172713e-04
 1.4096565428e-04
 1.4149161871e-04
 1.4201947488e-04
 1.4254938287e-04
 1.4308116806e-04
 1.4361493231e-04
 1.4415080659e-04
 1.4468855807e-04
 1.4522841957e-04
 1.4577020193e-04
 1.4631402155e-04
 1.4685993665e-04
 1.4740781626e-04
 1.4795773313e-04
 1.4850978914e-04
 1.4906380966e-04
 1.4961991110e-04
 1.5017818077e-04
 1.5073842951e-04
 1.5130086103e-04
 1.5186530072e-04
 1.5243183589e-04
 1.5300061204e-04
 1.5357136726e-04
 1.5414439258e-04
 1.5471942606e-04
 1.5529661323e-04
 1.5587607049e-04
 1.5645757958e-04
 1.5704124235e-04
 1.5762720432e-04
 1.5821523266e-04
 1.5880547289e-04
 1.5939801233e-04
 1.5999264724e-04
 1.6058962501e-04
 1.6118871281e-04
 1.6179004160e-04
 1.6239371325e-04
 1.6299953859e-04
 1.6360772133e-04
 1.6421805776e-04
 1.6483069339e-04
 1.6544571554e-04
 1.6606292047e-04
 1.6668242461e-04
 1.6730435891e-04
 1.6792849055e-04
 1.6855496506e-04
 1.6918388428e-04
 1.6981502995e-04
 1.7044864944e-04
 1.7108452448e-04
 1.7172275693e-04
 1.7236349231e-04
 1.7300651234e-04
 1.7365203530e-04
 1.7429984291e-04
 1.7495008069e-04
 1.7560286506e-04
 1.7625796318e-04
 1.7691549147e-04
 1.7757561000e-04
 1.7823807138e-04
 1.7890299205e-04
 1.7957053205e-04
 1.8024042947e-04
 1.8091294623e-04
 1.8158786406e-04
 1.8226538668e-04
 1.8294535403e-04
 1.8362782430e-04
 1.8431298668e-04
 1.8500057922e-04
 1.8569074746e-04
 1.8638359325e-04
 1.8707891286e-04
 1.8777682271e-04
 1.8847745378e-04
 1.8918058777e-04
 1.8988632655e-04
 1.9059484475e-04
 1.9130586588e-04
 1.9201966643e-04
 1.9273599901e-04
 1.9345515466e-04
 1.9417685689e-04
 1.9490123668e-04
 1.9562845409e-04
 1.9635826175e-04
 1.9709077606e-04
 1.9782618620e-04
 1.9856418658e-04
 1.9930493727e-04
 2.0004858379e-04
 2.0079489332e-04
 2.0154395315e-04
 2.0229596703e-04
 2.0305064390e-04
 2.0380827482e-04
 2.0456858329e-04
 2.0533188945e-04
 2.0609788771e-04
 2.0686673815e-04
 2.0763861539e-04
 2.0841322839e-04
 2.0919072267e-04
 2.0997124375e-04
 2.1075455879e-04
 2.1154079877e-04
 2.1233010921e-04
 2.1312221361e-04
 2.1391728660e-04
 2.1471544460e-04
 2.1551646932e-04
 2.1632060816e-04
 2.1712759917e-04
 2.1793774795e-04
 2.1875079256e-04
 2.1956684941e-04
 2.2038610769e-04
 2.2120826179e-04
 2.2203350090e-04
 2.2286194144e-04
 2.2369335056e-04
 2.2452784469e-04
 2.2536562756e-04
 2.2620634991e-04
 2.2705024458e-04
 2.2789741342e-04
 2.2874759452e-04
 2.2960110800e-04
 2.3045764829e-04
 2.3131753551e-04
 2.3218049319e-04
 2.3304663773e-04
 2.3391618743e-04
 2.3478883668e-04
 2.3566471646e-04
 2.3654401593e-04
 2.3742647318e-04
 2.3831223371e-04
 2.3920141393e-04
 2.4009375193e-04
 2.4098945141e-04
 2.4188864336e-04
 2.4279100762e-04
 2.4369692255e-04
 2.4460605346e-04
 2.4551874958e-04
 2.4643467623e-04
 2.4735400802e-04
 2.4827691959e-04
 2.4920311989e-04
 2.5013281265e-04
 2.5106611429e-04
 2.5200273376e-04
 2.5294284569e-04
 2.5388662471e-04
 2.5483375066e-04
 2.5578442728e-04
 2.5673882919e-04
 2.5769660715e-04
 2.5865811040e-04
 2.5962307700e-04
 2.6059179800e-04
 2.6156392414e-04
 2.6253971737e-04
 2.6351929409e-04
 2.6450239238e-04
 2.6548912865e-04
 2.6647970662e-04
 2.6747383527e-04
 2.6847168920e-04
 2.6947338483e-04
 2.7047868934e-04
 2.7148771915e-04
 2.7250070707e-04
 2.7351730387e-04
 2.7453785879e-04
 2.7556202258e-04
 2.7659020270e-04
 2.7762202080e-04
 2.7865770971e-04
 2.7969744406e-04
 2.8074087459e-04
 2.8178820503e-04
 2.8283961001e-04
 2.8389476938e-04
 2.8495388688e-04
 2.8601707891e-04
 2.8708408354e-04
 2.8815507540e-04
 2.8923025820e-04
 2.9030925361e-04
 2.9139243998e-04
 2.9247949715e-04
 2.9357080348e-04
 2.9466598062e-04
 2.9576526140e-04
 2.9686882044e-04
 2.9797633761e-04
 2.9908792931e-04
 3.0020391569e-04
 3.0132383108e-04
 3.0244793743e-04
 3.0357643845e-04
 3.0470895581e-04
 3.0584589695e-04
 3.0698685441e-04
 3.0813232297e-04
 3.0928180786e-04
 3.1043560011e-04
 3.1159390346e-04
 3.1275633955e-04
 3.1392308301e-04
 3.1509439577e-04
 3.1626987038e-04
 3.1744973967e-04
 3.1863423646e-04
 3.1982289511e-04
 3.2101603574e-04
 3.2221380388e-04
 3.2341585029e-04
 3.2462258241e-04
 3.2583362190e-04
 3.2704937621e-04
 3.2826943789e-04
 3.2949406886e-04
 3.3072350197e-04
 3.3195727156e-04
 3.3319566865e-04
 3.3443889697e-04
 3.3568654908e-04
 3.3693882870e-04
 3.3819602686e-04
 3.3945767791e-04
 3.4072404378e-04
 3.4199535730e-04
 3.4327121102e-04
 3.4455201239e-04
 3.4583741217e-04
 3.4712778870e-04
 3.4842279274e-04
 3.4972256981e-04
 3.5102746915e-04
 3.5233699600e-04
 3.5365141230e-04
 3.5497097997e-04
 3.5629523336e-04
 3.5762437619e-04
 3.5895878682e-04
 3.6029788316e-04
 3.6164201447e-04
 3.6299135536e-04
 3.6434555659e-04
 3.6570499651e-04
 3.6706929677e-04
 3.6843889393e-04
 3.6981340963e-04
 3.7119296030e-04
 3.7257801159e-04
 3.7396792322e-04
 3.7536301534e-04
 3.7676357897e-04
 3.7816914846e-04
 3.7957989844e-04
 3.8099620724e-04
 3.8241755101e-04
 3.8384416257e-04
 3.8527636207e-04
 3.8671365473e-04
 3.8815659354e-04
 3.8960462552e-04
 3.9105833275e-04
 3.9251722046e-04
 3.9398152148e-04
 3.9545155596e-04
 3.9692680002e-04
 3.9840754471e-04
 3.9989411016e-04
 4.0138594341e-04
 4.0288330638e-04
 4.0438660653e-04
 4.0589517448e-04
 4.0740938857e-04
 4.0892951074e-04
 4.1045507533e-04
 4.1198657709e-04
 4.1352352127e-04
 4.1506646085e-04
 4.1661487194e-04
 4.1816910380e-04
 4.1972938925e-04
 4.2129517533e-04
 4.2286686949e-04
 4.2444467545e-04
 4.2602809845e-04
 4.2761740042e-04
 4.2921295972e-04
 4.3081416516e-04
 4.3242136599e-04
 4.3403479503e-04
 4.3565401575e-04
 4.3727949378e-04
 4.3891082169e-04
 4.4054849423e-04
 4.4219195843e-04
 4.4384162175e-04
 4.4549765880e-04
 4.4715963304e-04
 4.4882780639e-04
 4.5050246990e-04
 4.5218307059e-04
 4.5386998681e-04
 4.5556350960e-04
 4.5726296958e-04
 4.5896880329e-04
 4.6068135998e-04
 4.6239994117e-04
 4.6412527445e-04
 4.6585671953e-04
 4.6759491670e-04
 4.6933931299e-04
 4.7109022853e-04
 4.7284798347e-04
 4.7461196664e-04
 4.7638249816e-04
 4.7816001461e-04
 4.7994381748e-04
 4.8173428513e-04
 4.8353173770e-04
 4.8533559311e-04
 4.8714617151e-04
 4.8896379303e-04
 4.9078796292e-04
 4.9261911772e-04
 4.9445690820e-04
 4.9630180001e-04
 4.9815326929e-04
 5.0001172349e-04
 5.0187739544e-04
 5.0374964485e-04
 5.0562893739e-04
 5.0751556410e-04
 5.0940882647e-04
 5.1130924840e-04
 5.1321706269e-04
 5.1513157086e-04
 5.1705335500e-04
 5.1898258971e-04
 5.2091869293e-04
 5.2286236314e-04
 5.2481296007e-04
 5.2677112399e-04
 5.2873627283e-04
 5.3070875583e-04
 5.3268898046e-04
 5.3467619000e-04
 5.3667079192e-04
 5.3867325187e-04
 5.4068281315e-04
 5.4269988323e-04
 5.4472475313e-04
 5.4675695719e-04
 5.4879661184e-04
 5.5084429914e-04
 5.5289926240e-04
 5.5496225832e-04
 5.5703258840e-04
 5.5911100935e-04
 5.6119682267e-04
 5.6329037761e-04
 5.6539213983e-04
 5.6750141084e-04
 5.6961848168e-04
 5.7174381800e-04
 5.7387672132e-04
 5.7601765729e-04
 5.7816691697e-04
 5.8032374363e-04
 5.8248871937e-04
 5.8466213522e-04
 5.8684323449e-04
 5.8903289028e-04
 5.9123028768e-04
 5.9343635803e-04
 5.9565017000e-04
 5.9787230566e-04
 6.0010305606e-04
 6.0234178090e-04
 6.0458888765e-04
 6.0684472555e-04
 6.0910859611e-04
 6.1138090678e-04
 6.1366212321e-04
 6.1595143052e-04
 6.1824923614e-04
 6.2055606395e-04
 6.2287109904e-04
 6.2519515632e-04
 6.2752753729e-04
 6.2986894045e-04
 6.3221872551e-04
 6.3457724173e-04
 6.3694501296e-04
 6.3932116609e-04
 6.4170616679e-04
 6.4410053892e-04
 6.4650340937e-04
 6.4891518559e-04
 6.5133644966e-04
 6.5376632847e-04
 6.5620522946e-04
 6.5865367651e-04
 6.6111079650e-04
 6.6357757896e-04
 6.6605309257e-04
 6.6853826866e-04
 6.7103229230e-04
 6.7353562918e-04
 6.7604874494e-04
 6.7857076647e-04
 6.8110227585e-04
 6.8364362232e-04
 6.8619393278e-04
 6.8875384750e-04
 6.9132371573e-04
 6.9390278077e-04
 6.9649145007e-04
 6.9909018930e-04
 7.0169818355e-04
 7.0431607310e-04
 7.0694379974e-04
 7.0958136348e-04
 7.1222876431e-04
 7.1488576941e-04
 7.1755296085e-04
 7.2023004759e-04
 7.2291714605e-04
 7.2561402339e-04
 7.2832120350e-04
 7.3103851173e-04
 7.3376588989e-04
 7.3650327977e-04
 7.3925108882e-04
 7.4200920062e-04
 7.4477755697e-04
 7.4755598325e-04
 7.5034500333e-04
 7.5314444257e-04
 7.5595441740e-04
 7.5877452036e-04
 7.6160539174e-04
 7.6444685692e-04
 7.6729897410e-04
 7.7016139403e-04
 7.7303481521e-04
 7.7591894660e-04
 7.7881378820e-04
 7.8171922360e-04
 7.8463566024e-04
 7.8756303992e-04
 7.9050142085e-04
 7.9345045378e-04
 7.9641077900e-04
 7.9938204726e-04
 8.0236443318e-04
 8.0535770394e-04
 8.0836244160e-04
 8.1137829693e-04
 8.1440550275e-04
 8.1744370982e-04
 8.2049344201e-04
 8.2355464110e-04
 8.2662724890e-04
 8.2971103257e-04
 8.3280657418e-04
 8.3591364091e-04
 8.3903240738e-04
 8.4216246614e-04
 8.4530451568e-04
 8.4845820675e-04
 8.5162371397e-04
 8.5480074631e-04
 8.5798994405e-04
 8.6119095795e-04
 8.6440402083e-04
 8.6762878345e-04
 8.7086576968e-04
 8.7411486311e-04
 8.7737606373e-04
 8.8064919692e-04
 8.8393472834e-04
 8.8723271620e-04
 8.9054286946e-04
 8.9386507170e-04
 8.9719996322e-04
 9.0054736938e-04
 9.0390717378e-04
 9.0727920178e-04
 9.1066421010e-04
 9.1406184947e-04
 9.1747211991e-04
 9.2089478858e-04
 9.2433049576e-04
 9.2777912505e-04
 9.3124056002e-04
 9.3471456785e-04
 9.3820190523e-04
 9.4170222292e-04
 9.4521557912e-04
 9.4874179922e-04
 9.5228146529e-04
 9.5583440270e-04
 9.5940049505e-04
 9.6297956770e-04
 9.6657226095e-04
 9.7017851658e-04
 9.7379815998e-04
 9.7743095830e-04
 9.8107766826e-04
 9.8473799881e-04
 9.8841183353e-04
 9.9209917244e-04
 9.9580059759e-04
 9.9951587617e-04
 1.0032450082e-03
 1.0069876444e-03
 1.0107445996e-03
 1.0145156411e-03
 1.0183005361e-03
 1.0220994009e-03
 1.0259128176e-03
 1.0297403205e-03
 1.0335821426e-03
 1.0374380508e-03
 1.0413086275e-03
 1.0451936396e-03
 1.0490930872e-03
 1.0530068539e-03
 1.0569355218e-03
 1.0608787416e-03
 1.0648368625e-03
 1.0688093025e-03
 1.0727967601e-03
 1.0767993517e-03
 1.0808167281e-03
 1.0848487727e-03
 1.0888963006e-03
 1.0929588461e-03
 1.0970365256e-03
 1.1011291062e-03
 1.1052372865e-03
 1.1093608337e-03
 1.1134997476e-03
 1.1176537955e-03
 1.1218235595e-03
 1.1260090396e-03
 1.1302100029e-03
 1.1344262166e-03
 1.1386587285e-03
 1.1429069564e-03
 1.1471709004e-03
 1.1514505604e-03
 1.1557465186e-03
 1.1600584257e-03
 1.1643865146e-03
 1.1687304359e-03
 1.1730907718e-03
 1.1774674058e-03
 1.1818604544e-03
 1.1862695683e-03
 1.1906953296e-03
 1.1951376218e-03
 1.1995965615e-03
 1.2040717993e-03
 1.2085640337e-03
 1.2130730320e-03
 1.2175989104e-03
 1.2221412035e-03
 1.2267008424e-03
 1.2312775943e-03
 1.2358713429e-03
 1.2404818553e-03
 1.2451099465e-03
 1.2497552671e-03
 1.2544180499e-03
 1.2590977130e-03
 1.2637953041e-03
 1.2685103575e-03
 1.2732429896e-03
 1.2779929675e-03
 1.2827609899e-03
 1.2875468237e-03
 1.2923505856e-03
 1.2971716933e-03
 1.3020113111e-03
 1.3068689732e-03
 1.3117447961e-03
 1.3166383142e-03
 1.3215505751e-03
 1.3264811132e-03
 1.3314300450e-03
 1.3363970211e-03
 1.3413829729e-03
 1.3463875512e-03
 1.3514107559e-03
 1.3564523542e-03
 1.3615130447e-03
 1.3665927108e-03
 1.3716913527e-03
 1.3768085046e-03
 1.3819452142e-03
 1.3871011324e-03
 1.3922762591e-03
 1.3974702451e-03
 1.4026840217e-03
 1.4079173561e-03
 1.4131701319e-03
 1.4184419997e-03
 1.4237340074e-03
 1.4290458057e-03
 1.4343775110e-03
 1.4397285413e-03
 1.4451000607e-03
 1.4504916035e-03
 1.4559030533e-03
 1.4613344101e-03
 1.4667864889e-03
 1.4722590568e-03
 1.4777518809e-03
 1.4832646120e-03
 1.4887985308e-03
 1.4943530550e-03
 1.4999284176e-03
 1.5055240365e-03
 1.5111408429e-03
 1.5167788370e-03
 1.5224377858e-03
 1.5281172236e-03
 1.5338185476e-03
 1.5395410592e-03
 1.5452848747e-03
 1.5510496451e-03
 1.5568365343e-03
 1.5626448439e-03
 1.5684749233e-03
 1.5743261902e-03
 1.5801998088e-03
 1.5860953135e-03
 1.5920129372e-03
 1.5979520977e-03
 1.6039137263e-03
 1.6098979395e-03
 1.6159042716e-03
 1.6219324898e-03
 1.6279837582e-03
 1.6340576112e-03
 1.6401541652e-03
 1.6462727217e-03
 1.6524147941e-03
 1.6585799167e-03
 1.6647677403e-03
 1.6709783813e-03
 1.6772125382e-03
 1.6834700946e-03
 1.6897508176e-03
 1.6960547073e-03
 1.7023823457e-03
 1.7087338492e-03
 1.7151089851e-03
 1.7215071712e-03
 1.7279300373e-03
 1.7343767686e-03
 1.7408474814e-03
 1.7473419430e-03
 1.7538609682e-03
 1.7604044406e-03
 1.7669723602e-03
 1.7735641450e-03
 1.7801810754e-03
 1.7868226860e-03
 1.7934890930e-03
 1.8001799472e-03
 1.8068961799e-03
 1.8136375584e-03
 1.8204039661e-03
 1.8271951703e-03
 1.8340121023e-03
 1.8408547621e-03
 1.8477226840e-03
 1.8546158681e-03
 1.8615351291e-03
 1.8684803508e-03
 1.8754514167e-03
 1.8824479776e-03
 1.8894711975e-03
 1.8965206109e-03
 1.9035963342e-03
 1.9106977852e-03
 1.9178264774e-03
 1.9249815959e-03
 1.9321634900e-03
 1.9393716939e-03
 1.9466070225e-03
 1.9538695924e-03
 1.9611592870e-03
 1.9684755243e-03
 1.9758199342e-03
 1.9831913523e-03
 1.9905904774e-03
 1.9980170764e-03
 2.0054716151e-03
 2.0129536279e-03
 2.0204631146e-03
 2.0280012395e-03
 2.0355673041e-03
 2.0431620069e-03
 2.0507841837e-03
 2.0584354643e-03
 2.0661151502e-03
 2.0738237072e-03
 2.0815602038e-03
 2.0893262699e-03
 2.0971212070e-03
 2.1049454808e-03
 2.1127981599e-03
 2.1206806414e-03
 2.1285926923e-03
 2.1365343127e-03
 2.1445048042e-03
 2.1525055636e-03
 2.1605363581e-03
 2.1685971878e-03
 2.1766873542e-03
 2.1848082542e-03
 2.1929594222e-03
 2.2011410911e-03
 2.2093527950e-03
 2.2175954655e-03
 2.2258691024e-03
 2.2341734730e-03
 2.2425083444e-03
 2.2508751135e-03
 2.2592726164e-03
 2.2677017841e-03
 2.2761614528e-03
 2.2846537177e-03
 2.2931774147e-03
 2.3017330095e-03
 2.3103198037e-03
 2.3189394269e-03
 2.3275911808e-03
 2.3362752981e-03
 2.3449906148e-03
 2.3537396919e-03
 2.3625211325e-03
 2.3713356350e-03
 2.3801820353e-03
 2.3890621960e-03
 2.3979754187e-03
 2.4069221690e-03
 2.4159012828e-03
 2.4249146227e-03
 2.4339617230e-03
 2.4430425838e-03
 2.4521565065e-03
 2.4613051210e-03
 2.4704881944e-03
 2.4797052611e-03
 2.4889558554e-03
 2.4982418399e-03
 2.5075625163e-03
 2.5169181172e-03
 2.5263074785e-03
 2.5357329287e-03
 2.5451935362e-03
 2.5546893012e-03
 2.5642197579e-03
 2.5737867691e-03
 2.5833891705e-03
 2.5930274278e-03
 2.6027008425e-03
 2.6124112774e-03
 2.6221580338e-03
 2.6319411118e-03
 2.6417595800e-03
 2.6516157668e-03
 2.6615087409e-03
 2.6714382693e-03
 2.6814043522e-03
 2.6914083865e-03
 2.7014496736e-03
 2.7115284465e-03
 2.7216442395e-03
 2.7317982167e-03
 2.7419903781e-03
 2.7522202581e-03
 2.7624876238e-03
 2.7727941051e-03
 2.7831392363e-03
 2.7935227845e-03
 2.8039442841e-03
 2.8144055977e-03
 2.8249055613e-03
 2.8354451060e-03
 2.8460230678e-03
 2.8566413093e-03
 2.8672988992e-03
 2.8779965360e-03
 2.8887332883e-03
 2.8995105531e-03
 2.9103283305e-03
 2.9211866204e-03
 2.9320840258e-03
 2.9430233408e-03
 2.9540036339e-03
 2.9650246724e-03
 2.9760859907e-03
 2.9871894512e-03
 2.9983343557e-03
 3.0095207039e-03
 3.0207477976e-03
 3.0320177320e-03
 3.0433300417e-03
 3.0546844937e-03
 3.0660801567e-03
 3.0775193591e-03
 3.0890014023e-03
 3.1005258206e-03
 3.1120928470e-03
 3.1237034127e-03
 3.1353575177e-03
 3.1470553949e-03
 3.1587958802e-03
 3.1705808360e-03
 3.1824100297e-03
 3.1942829955e-03
 3.2061995007e-03
 3.2181614079e-03
 3.2301682513e-03
 3.2422195654e-03
 3.2543148845e-03
 3.2664563041e-03
 3.2786433585e-03
 3.2908753492e-03
 3.3031522762e-03
 3.3154760022e-03
 3.3278455958e-03
 3.3402615227e-03
 3.3527226187e-03
 3.3652312122e-03
 3.3777863719e-03
 3.3903887961e-03
 3.4030366223e-03
 3.4157328773e-03
 3.4284768626e-03
 3.4412683453e-03
 3.4541059285e-03
 3.4669931047e-03
 3.4799280111e-03
 3.4929111134e-03
 3.5059417132e-03
 3.5190219060e-03
 3.5321509931e-03
 3.5453292076e-03
 3.5585551523e-03
 3.5718318541e-03
 3.5851576831e-03
 3.5985335708e-03
 3.6119583528e-03
 3.6254341248e-03
 3.6389601883e-03
 3.6525367759e-03
 3.6661627237e-03
 3.6798408255e-03
 3.6935699172e-03
 3.7073502317e-03
 3.7211808376e-03
 3.7350640632e-03
 3.7489992101e-03
 3.7629862782e-03
 3.7770245690e-03
 3.7911161780e-03
 3.8052601740e-03
 3.8194570225e-03
 3.8337060250e-03
 3.8480092771e-03
 3.8623656146e-03
 3.8767759688e-03
 3.8912382443e-03
 3.9057561662e-03
 3.9203278720e-03
 3.9349542931e-03
 3.9496342652e-03
 3.9643696509e-03
 3.9791599847e-03
 3.9940057322e-03
 4.0089059621e-03
 4.0238630027e-03
 4.0388749912e-03
 4.0539437905e-03
 4.0690675378e-03
 4.0842485614e-03
 4.0994863957e-03
 4.1147810407e-03
 4.1301315650e-03
 4.1455407627e-03
 4.1610077024e-03
 4.1765314527e-03
 4.1921124794e-03
 4.2077526450e-03
 4.2234514840e-03
 4.2392085306e-03
 4.2550233193e-03
 4.2708981782e-03
 4.2868326418e-03
 4.3028262444e-03
 4.3188785203e-03
 4.3349913321e-03
 4.3511646800e-03
 4.3673985638e-03
 4.3836915866e-03
 4.4000465423e-03
 4.4164624996e-03
 4.4329399243e-03
 4.4494774193e-03
 4.4660782441e-03
 4.4827405363e-03
 4.4994647615e-03
 4.5162509196e-03
 4.5330999419e-03
 4.5500127599e-03
 4.5669879764e-03
 4.5840255916e-03
 4.6011283994e-03
 4.6182945371e-03
 4.6355249360e-03
 4.6528181992e-03
 4.6701771207e-03
 4.6876007691e-03
 4.7050900757e-03
 4.7226427123e-03
 4.7402619384e-03
 4.7579477541e-03
 4.7756992280e-03
 4.7935154289e-03
 4.8113991506e-03
 4.8293499276e-03
 4.8473677598e-03
 4.8654512502e-03
 4.8836036585e-03
 4.9018240534e-03
 4.9201119691e-03
 4.9384669401e-03
 4.9568917602e-03
 4.9753854983e-03
 4.9939481542e-03
 5.0125783309e-03
 5.0312797539e-03
 5.0500510260e-03
 5.0688921474e-03
 5.0878017209e-03
 5.1067839377e-03
 5.1258369349e-03
 5.1449607126e-03
 5.1641543396e-03
 5.1834210753e-03
 5.2027599886e-03
 5.2221710794e-03
 5.2416524850e-03
 5.2612083964e-03
 5.2808374166e-03
 5.3005395457e-03
 5.3203138523e-03
 5.3401631303e-03
 5.3600869142e-03
 5.3800847381e-03
 5.4001556709e-03
 5.4203029722e-03
 5.4405257106e-03
 5.4608234204e-03
 5.4811956361e-03
 5.5016451515e-03
 5.5221715011e-03
 5.5427737534e-03
 5.5634514429e-03
 5.5842082947e-03
 5.6050424464e-03
 5.6259538978e-03
 5.6469421834e-03
 5.6680100970e-03
 5.6891567074e-03
 5.7103824802e-03
 5.7316855527e-03
 5.7530696504e-03
 5.7745338418e-03
 5.7960781269e-03
 5.8177006431e-03
 5.8394060470e-03
 5.8611920103e-03
 5.8830594644e-03
 5.9050065465e-03
 5.9270379134e-03
 5.9491507709e-03
 5.9713465162e-03
 5.9936228208e-03
 6.0159843415e-03
 6.0384292156e-03
 6.0609583743e-03
 6.0835690238e-03
 6.1062662862e-03
 6.1290478334e-03
 6.1519150622e-03
 6.1748647131e-03
 6.1979028396e-03
